(Generated by PartKam Version 0.05)

G21 G90 G40

(ics)
G0 Z15
T0 M6
G17
M3
G0 X17.762182741116753 Y23.011167512690356
G1 Z-4 F40
G1 Z0 F40
G0 Z15
G0 X17.762182741116753 Y30.631218274111674
G1 Z-4 F40
G1 Z0 F40
G0 Z15
G0 X20.30228426395939 Y23.011167512690356
G1 Z-4 F40
G1 Z0 F40
G0 Z15
G0 X20.30228426395939 Y30.631218274111674
G1 Z-4 F40
G1 Z0 F40
G0 Z15
G0 X22.84213197969543 Y23.011167512690356
G1 Z-4 F40
G1 Z0 F40
G0 Z15
G0 X22.84213197969543 Y30.631218274111674
G1 Z-4 F40
G1 Z0 F40
G0 Z15
G0 X25.38223350253807 Y23.011167512690356
G1 Z-4 F40
G1 Z0 F40
G0 Z15
G0 X25.38223350253807 Y30.631218274111674
G1 Z-4 F40
G1 Z0 F40
G0 Z15
G0 X27.922081218274112 Y23.011167512690356
G1 Z-4 F40
G1 Z0 F40
G0 Z15
G0 X27.922081218274112 Y30.631218274111674
G1 Z-4 F40
G1 Z0 F40
G0 Z15
G0 X53.622335025380714 Y38.551015228426394
G1 Z-4 F40
G1 Z0 F40
G0 Z15
G0 X53.622335025380714 Y30.930964467005076
G1 Z-4 F40
G1 Z0 F40
G0 Z15
G0 X51.082233502538074 Y38.551015228426394
G1 Z-4 F40
G1 Z0 F40
G0 Z15
G0 X51.082233502538074 Y30.930964467005076
G1 Z-4 F40
G1 Z0 F40
G0 Z15
G0 X48.54238578680203 Y38.551015228426394
G1 Z-4 F40
G1 Z0 F40
G0 Z15
G0 X48.54238578680203 Y30.930964467005076
G1 Z-4 F40
G1 Z0 F40
G0 Z15
G0 X46.00228426395939 Y38.551015228426394
G1 Z-4 F40
G1 Z0 F40
G0 Z15
G0 X46.00228426395939 Y30.930964467005076
G1 Z-4 F40
G1 Z0 F40
G0 Z15
G0 X43.46243654822335 Y38.551015228426394
G1 Z-4 F40
G1 Z0 F40
G0 Z15
G0 X43.46243654822335 Y30.930964467005076
G1 Z-4 F40
G1 Z0 F40
G0 Z15
G0 X40.92233502538071 Y38.551015228426394
G1 Z-4 F40
G1 Z0 F40
G0 Z15
G0 X40.92233502538071 Y30.930964467005076
G1 Z-4 F40
G1 Z0 F40
G0 Z15
G0 X38.38223350253807 Y38.551015228426394
G1 Z-4 F40
G1 Z0 F40
G0 Z15
G0 X38.38223350253807 Y30.930964467005076
G1 Z-4 F40
G1 Z0 F40
G0 Z15
G0 X80.38223350253807 Y38.63096446700508
G1 Z-4 F40
G1 Z0 F40
G0 Z15
G0 X80.38223350253807 Y31.011167512690356
G1 Z-4 F40
G1 Z0 F40
G0 Z15
G0 X77.84238578680203 Y38.63096446700508
G1 Z-4 F40
G1 Z0 F40
G0 Z15
G0 X77.84238578680203 Y31.011167512690356
G1 Z-4 F40
G1 Z0 F40
G0 Z15
G0 X75.3022842639594 Y38.63096446700508
G1 Z-4 F40
G1 Z0 F40
G0 Z15
G0 X75.3022842639594 Y31.011167512690356
G1 Z-4 F40
G1 Z0 F40
G0 Z15
G0 X72.76243654822335 Y38.63096446700508
G1 Z-4 F40
G1 Z0 F40
G0 Z15
G0 X72.76243654822335 Y31.011167512690356
G1 Z-4 F40
G1 Z0 F40
G0 Z15
G0 X70.22233502538072 Y38.63096446700508
G1 Z-4 F40
G1 Z0 F40
G0 Z15
G0 X70.22233502538072 Y31.011167512690356
G1 Z-4 F40
G1 Z0 F40
G0 Z15
G0 X67.68223350253807 Y38.63096446700508
G1 Z-4 F40
G1 Z0 F40
G0 Z15
G0 X67.68223350253807 Y31.011167512690356
G1 Z-4 F40
G1 Z0 F40
G0 Z15
G0 X65.14238578680202 Y38.63096446700508
G1 Z-4 F40
G1 Z0 F40
G0 Z15
G0 X65.14238578680202 Y31.011167512690356
G1 Z-4 F40
G1 Z0 F40
G0 Z15
G0 X80.76218274111675 Y20.011167512690356
G1 Z-4 F40
G1 Z0 F40
G0 Z15
G0 X83.302538071066 Y20.011167512690356
G1 Z-4 F40
G1 Z0 F40
G0 Z15
G0 X80.76218274111675 Y17.471573604060914
G1 Z-4 F40
G1 Z0 F40
G0 Z15
G0 X83.302538071066 Y17.471573604060914
G1 Z-4 F40
G1 Z0 F40
G0 Z15
G0 X80.76218274111675 Y14.931218274111675
G1 Z-4 F40
G1 Z0 F40
G0 Z15
G0 X83.302538071066 Y14.931218274111675
G1 Z-4 F40
G1 Z0 F40
G0 Z15
G0 X80.76218274111675 Y12.391116751269035
G1 Z-4 F40
G1 Z0 F40
G0 Z15
G0 X83.302538071066 Y12.391116751269035
G1 Z-4 F40
G1 Z0 F40
G0 Z15
G0 X80.76218274111675 Y9.851269035532995
G1 Z-4 F40
G1 Z0 F40
G0 Z15
G0 X83.302538071066 Y9.851269035532995
G1 Z-4 F40
G1 Z0 F40
G0 Z15
G0 X58.76218274111675 Y39.011167512690356
G1 Z-4 F40
G1 Z0 F40
G0 Z15
G0 X58.69238578680203 Y16.375380710659897
G1 Z-4 F40
G1 Z0 F40
G0 Z15
G0 X61.76218274111675 Y19.011167512690356
G1 Z-4 F40
G1 Z0 F40
G0 Z15
G0 X69.38223350253807 Y19.011167512690356
G1 Z-4 F40
G1 Z0 F40
G0 Z15
G0 X61.76218274111675 Y15.010913705583757
G1 Z-4 F40
G1 Z0 F40
G0 Z15
G0 X69.38223350253807 Y15.010913705583757
G1 Z-4 F40
G1 Z0 F40

(arduino pins)
G0 Z15
G0 X58.70228426395939 Y5.5312182741116755
G1 Z-4 F40
G1 Z0 F40
G0 Z15
G0 X61.241878172588834 Y5.5312182741116755
G1 Z-4 F40
G1 Z0 F40
G0 Z15
G0 X63.78299492385787 Y5.5312182741116755
G1 Z-4 F40
G1 Z0 F40
G0 Z15
G0 X66.32258883248731 Y5.5312182741116755
G1 Z-4 F40
G1 Z0 F40
G0 Z15
G0 X68.86269035532995 Y5.5312182741116755
G1 Z-4 F40
G1 Z0 F40
G0 Z15
G0 X47.01776649746193 Y53.79111675126904
G1 Z-4 F40
G1 Z0 F40
G0 Z15
G0 X44.478680203045684 Y53.79111675126904
G1 Z-4 F40
G1 Z0 F40
G0 Z15
G0 X41.93832487309645 Y53.79111675126904
G1 Z-4 F40
G1 Z0 F40
G0 Z15
G0 X39.39822335025381 Y53.79111675126904
G1 Z-4 F40
G1 Z0 F40
G0 Z15
G0 X36.85812182741117 Y53.79111675126904
G1 Z-4 F40
G1 Z0 F40
G0 Z15
G0 X34.31827411167513 Y53.79111675126904
G1 Z-4 F40
G1 Z0 F40
G0 Z15
G0 X31.778172588832486 Y53.79111675126904
G1 Z-4 F40
G1 Z0 F40
G0 Z15
G0 X29.238071065989846 Y53.79111675126904
G1 Z-4 F40
G1 Z0 F40
G0 Z15
G0 X26.69822335025381 Y53.79111675126904
G1 Z-4 F40
G1 Z0 F40
G0 Z15
G0 X24.15786802030457 Y53.79111675126904
G1 Z-4 F40
G1 Z0 F40
G0 Z15
G0 X68.86269035532995 Y53.79111675126904
G1 Z-4 F40
G1 Z0 F40
G0 Z15
G0 X66.32258883248731 Y53.79111675126904
G1 Z-4 F40
G1 Z0 F40
G0 Z15
G0 X63.78299492385787 Y53.79111675126904
G1 Z-4 F40
G1 Z0 F40
G0 Z15
G0 X61.241878172588834 Y53.79111675126904
G1 Z-4 F40
G1 Z0 F40
G0 Z15
G0 X58.70228426395939 Y53.79111675126904
G1 Z-4 F40
G1 Z0 F40
G0 Z15
G0 X56.16269035532995 Y53.79111675126904
G1 Z-4 F40
G1 Z0 F40
G0 Z15
G0 X53.62258883248731 Y53.79111675126904
G1 Z-4 F40
G1 Z0 F40
G0 Z15
G0 X51.082233502538074 Y53.79111675126904
G1 Z-4 F40
G1 Z0 F40
G0 Z15
G0 X35.84213197969543 Y5.5312182741116755
G1 Z-4 F40
G1 Z0 F40
G0 Z15
G0 X33.30228426395939 Y5.5312182741116755
G1 Z-4 F40
G1 Z0 F40
G0 Z15
G0 X38.38223350253807 Y5.5312182741116755
G1 Z-4 F40
G1 Z0 F40
G0 Z15
G0 X40.92258883248731 Y5.5312182741116755
G1 Z-4 F40
G1 Z0 F40
G0 Z15
G0 X43.46243654822335 Y5.5312182741116755
G1 Z-4 F40
G1 Z0 F40
G0 Z15
G0 X46.00228426395939 Y5.5312182741116755
G1 Z-4 F40
G1 Z0 F40
G0 Z15
G0 X48.54187817258883 Y5.5312182741116755
G1 Z-4 F40
G1 Z0 F40
G0 Z15
G0 X51.082233502538074 Y5.5312182741116755
G1 Z-4 F40
G1 Z0 F40
G0 Z15
G0 X56.16269035532995 Y5.5312182741116755
G1 Z-4 F40
G1 Z0 F40

(board holes)
G0 Z15
G0 X13.762182741116751 Y10.011167512690355
G1 Z-4 F40
G1 Z0 F40
G0 Z15
G0 X11.310406091370558 Y9.922842639593908
G1 Z-4 F40
G1 Z0 F40
G0 Z15
G0 X8.850253807106599 Y18.92309644670051
G1 Z-4 F40
G1 Z0 F40
G0 Z15
G0 X8.850253807106599 Y21.46294416243655
G1 Z-4 F40
G1 Z0 F40
G0 Z15
G0 X8.850253807106599 Y35.92284263959391
G1 Z-4 F40
G1 Z0 F40
G0 Z15
G0 X8.850253807106599 Y38.46294416243655
G1 Z-4 F40
G1 Z0 F40
G0 Z15
G0 X9.850253807106599 Y49.92284263959391
G1 Z-4 F40
G1 Z0 F40
G0 Z15
G0 X12.390355329949239 Y49.92284263959391
G1 Z-4 F40
G1 Z0 F40
G0 Z15
G0 X31.762182741116753 Y43.011167512690356
G1 Z-4 F40
G1 Z0 F40
G0 Z15
G0 X21.60228426395939 Y43.011167512690356
G1 Z-4 F40
G1 Z0 F40
G0 Z15
G0 X31.762182741116753 Y37.011167512690356
G1 Z-4 F40
G1 Z0 F40
G0 Z15
G0 X21.60228426395939 Y37.011167512690356
G1 Z-4 F40
G1 Z0 F40
G0 Z15
G0 X56.76243654822335 Y48.010913705583754
G1 Z-4 F40
G1 Z0 F40
G0 Z15
G0 X54.21776649746193 Y48.010913705583754
G1 Z-4 F40
G1 Z0 F40
G0 Z15
G0 X31.762182741116753 Y22.011167512690356
G1 Z-4 F40
G1 Z0 F40
G0 Z15
G0 X34.30685279187817 Y22.011167512690356
G1 Z-4 F40
G1 Z0 F40
G0 Z15
G0 X54.76218274111675 Y44.011167512690356
G1 Z-4 F40
G1 Z0 F40
G0 Z15
G0 X57.30203045685279 Y44.011167512690356
G1 Z-4 F40
G1 Z0 F40
G0 Z15
G0 X33.76218274111675 Y30.011167512690356
G1 Z-4 F40
G1 Z0 F40
G0 Z15
G0 X31.222335025380712 Y30.011167512690356
G1 Z-4 F40
G1 Z0 F40
G0 Z15
G0 X13.762182741116751 Y42.011167512690356
G1 Z-4 F40
G1 Z0 F40
G0 Z15
G0 X13.762182741116751 Y34.39111675126904
G1 Z-4 F40
G1 Z0 F40
G0 Z15
G0 X40.76218274111675 Y49.010913705583754
G1 Z-4 F40
G1 Z0 F40
G0 Z15
G0 X48.76218274111675 Y49.010913705583754
G1 Z-4 F40
G1 Z0 F40
G0 Z15
G0 X78.8505076142132 Y52.92284263959391
G1 Z-4 F40
G1 Z0 F40
G0 Z15
G0 X76.30583756345177 Y52.92284263959391
G1 Z-4 F40
G1 Z0 F40
G0 Z15
G0 X78.8505076142132 Y47.92284263959391
G1 Z-4 F40
G1 Z0 F40
G0 Z15
G0 X76.31040609137055 Y47.92284263959391
G1 Z-4 F40
G1 Z0 F40
G0 Z15
G0 X68.8505076142132 Y43.92284263959391
G1 Z-4 F40
G1 Z0 F40
G0 Z15
G0 X76.47055837563452 Y43.92284263959391
G1 Z-4 F40
G1 Z0 F40
G0 Z15
G0 X79.8505076142132 Y44.92284263959391
G1 Z-4 F40
G1 Z0 F40
G0 Z15
G0 X87.47055837563452 Y44.92284263959391
G1 Z-4 F40
G1 Z0 F40
G0 Z15
G0 X38.76218274111675 Y46.011167512690356
G1 Z-4 F40
G1 Z0 F40
G0 Z15
G0 X50.10456852791878 Y45.78781725888325
G1 Z-4 F40
G1 Z0 F40
G0 Z15
M5
M30
