(Generated by PartKam Version 0.05)

G21 G90 G40

(hole outline vbit)
G0 Z5
T0 M6
G17
M3
G0 X4.294670050761422 Y31.988832487309644
G1 Z-0.1 F50
G3 X4.814720812182741 Y32.33756345177665 I-0.616751269035533 J1.4873096446700507 F75
G3 X5.16497461928934 Y32.85786802030457 I-1.1395939086294418 J1.1395939086294418
G3 X5.286802030456853 Y33.47208121827411 I-1.4771573604060915 J0.6116751269035533
G3 X5.16497461928934 Y34.08375634517767 I-1.598984771573604 J0
G3 X4.814720812182741 Y34.60406091370559 I-1.484771573604061 J-0.616751269035533
G3 X4.2944162436548226 Y34.95431472081218 I-1.1370558375634519 J-1.1370558375634519
G3 X3.682741116751269 Y35.076142131979694 I-0.6116751269035533 J-1.4771573604060915
G3 X3.068527918781726 Y34.95431472081218 I0 J-1.598984771573604
G3 X2.548223350253807 Y34.60406091370559 I0.616751269035533 J-1.484771573604061
G3 X2.200507614213198 Y34.08375634517767 I1.1370558375634519 J-1.1370558375634519
G3 X2.0786802030456855 Y33.47208121827411 I1.4771573604060915 J-0.6116751269035533
G3 X2.200507614213198 Y32.85786802030457 I1.598984771573604 J0
G3 X2.548223350253807 Y32.33756345177665 I1.4873096446700507 J0.616751269035533
G3 X3.068527918781726 Y31.98984771573604 I1.1370558375634519 J1.1370558375634519
G3 X3.682741116751269 Y31.86548223350254 I0.6116751269035533 J1.4746192893401013
G3 X4.2944162436548226 Y31.98984771573604 I0 J1.5964467005076142
G0 Z5
G0 X18.515989847715737 Y53.95736040609137
G1 Z-0.1 F50
G3 X18.865482233502537 Y54.47969543147208 I-1.1370558375634519 J1.1395939086294418 F75
G3 X18.987309644670052 Y55.09137055837564 I-1.4746192893401013 J0.6116751269035533
G3 X18.865482233502537 Y55.70304568527919 I-1.5964467005076142 J0
G3 X18.51522842639594 Y56.2258883248731 I-1.484771573604061 J-0.616751269035533
G3 X17.99492385786802 Y56.57360406091371 I-1.1370558375634519 J-1.1395939086294418
G3 X17.380710659898476 Y56.695431472081225 I-0.6142131979695432 J-1.4771573604060915
G1 X17.35786802030457 Y56.692893401015226
G1 X17.083756345177665 Y56.66751269035533
G1 X17.058375634517766 Y56.66243654822335
G3 X16.555837563451774 Y56.46700507614213 I0.3197969543147208 J-1.5609137055837563
G3 X16.14467005076142 Y56.11167512690355 I0.8350253807106599 J-1.383248730964467
G3 X15.873096446700508 Y55.63197969543147 I1.236040609137056 J-1.0203045685279188
G3 X15.779187817258883 Y55.09137055837564 I1.5050761421319798 J-0.5406091370558376
G3 X15.901015228426395 Y54.477157360406096 I1.598984771573604 J0
G3 X16.248730964467004 Y53.95685279187817 I1.4873096446700507 J0.616751269035533
G3 X16.769035532994923 Y53.60913705583756 I1.1370558375634519 J1.1370558375634519
G3 X17.380710659898476 Y53.48730964467005 I0.6116751269035533 J1.4746192893401013
G3 X17.99492385786802 Y53.60913705583756 I0 J1.598984771573604
G3 X18.51522842639594 Y53.95685279187817 I-0.616751269035533 J1.4873096446700507
G0 Z5
G0 X17.435786802030456 Y6.064467005076142
G1 Z-0.1 F50
G3 X16.913705583756343 Y6.413705583756345 I-1.1370558375634519 J-1.1370558375634519 F75
G3 X16.30203045685279 Y6.535532994923859 I-0.6116751269035533 J-1.4771573604060915
G1 X16.27664974619289 Y6.532994923857868
G1 X16.00507614213198 Y6.505076142131979
G1 X15.97969543147208 Y6.50253807106599
G3 X15.47715736040609 Y6.304568527918781 I0.3197969543147208 J-1.5609137055837563
G3 X15.065989847715734 Y5.9517766497461935 I0.8350253807106599 J-1.383248730964467
G3 X14.791878172588833 Y5.472081218274112 I1.2385786802030458 J-1.0203045685279188
G3 X14.69796954314721 Y4.931472081218274 I1.5050761421319798 J-0.5406091370558376
G3 X14.819796954314722 Y4.317258883248731 I1.598984771573604 J0
G3 X15.167512690355329 Y3.7969543147208125 I1.484771573604061 J0.616751269035533
G3 X15.69035532994924 Y3.449238578680203 I1.1370558375634519 J1.1370558375634519
G3 X16.30203045685279 Y3.3274111675126905 I0.6116751269035533 J1.4771573604060915
G3 X16.916243654822335 Y3.449238578680203 I0 J1.598984771573604
G3 X17.436548223350254 Y3.7969543147208125 I-0.616751269035533 J1.4873096446700507
G3 X17.784263959390863 Y4.317258883248731 I-1.1370558375634519 J1.1370558375634519
G3 X17.906091370558375 Y4.931472081218274 I-1.4746192893401013 J0.6116751269035533
G3 X17.784263959390863 Y5.543147208121827 I-1.598984771573604 J0
G3 X17.436548223350254 Y6.063451776649746 I-1.4873096446700507 J-0.616751269035533
G0 Z5
G0 X7.275888324873097 Y6.064467005076142
G1 Z-0.1 F50
G3 X6.753807106598985 Y6.413705583756345 I-1.1370558375634519 J-1.1370558375634519 F75
G3 X6.1421319796954315 Y6.535532994923859 I-0.6116751269035533 J-1.4771573604060915
G3 X5.527918781725888 Y6.413705583756345 I0 J-1.598984771573604
G3 X5.00761421319797 Y6.063451776649746 I0.616751269035533 J-1.484771573604061
G3 X4.659898477157361 Y5.543147208121827 I1.1370558375634519 J-1.1370558375634519
G3 X4.538071065989848 Y4.931472081218274 I1.4771573604060915 J-0.6116751269035533
G3 X4.659898477157361 Y4.317258883248731 I1.598984771573604 J0
G3 X5.00761421319797 Y3.7969543147208125 I1.484771573604061 J0.616751269035533
G3 X5.527918781725888 Y3.449238578680203 I1.1370558375634519 J1.1370558375634519
G3 X6.1421319796954315 Y3.3274111675126905 I0.6116751269035533 J1.4771573604060915
G3 X6.753807106598985 Y3.449238578680203 I0 J1.598984771573604
G3 X7.276649746192893 Y3.7969543147208125 I-0.616751269035533 J1.4873096446700507
G3 X7.624365482233503 Y4.317258883248731 I-1.1370558375634519 J1.1370558375634519
G3 X7.746192893401015 Y4.931472081218274 I-1.4746192893401013 J0.6116751269035533
G3 X7.624365482233503 Y5.543147208121827 I-1.598984771573604 J0
G3 X7.276649746192893 Y6.063451776649746 I-1.4873096446700507 J-0.616751269035533
G0 Z5
G0 X4.29492385786802 Y25.148730964467006
G1 Z-0.1 F50
G3 X4.814720812182741 Y25.497461928934012 I-0.616751269035533 J1.4873096446700507 F75
G3 X5.16497461928934 Y26.017766497461928 I-1.1370558375634519 J1.1370558375634519
G3 X5.286802030456853 Y26.631979695431475 I-1.4771573604060915 J0.6116751269035533
G3 X5.16497461928934 Y27.243654822335024 I-1.598984771573604 J0
G3 X4.814720812182741 Y27.763959390862944 I-1.4873096446700507 J-0.616751269035533
G3 X4.2944162436548226 Y28.114213197969544 I-1.1370558375634519 J-1.1370558375634519
G3 X3.682741116751269 Y28.236040609137056 I-0.6116751269035533 J-1.4771573604060915
G3 X3.068527918781726 Y28.114213197969544 I0 J-1.598984771573604
G3 X2.548223350253807 Y27.763959390862944 I0.616751269035533 J-1.484771573604061
G3 X2.200507614213198 Y27.243654822335024 I1.1370558375634519 J-1.1370558375634519
G3 X2.0786802030456855 Y26.631979695431475 I1.4771573604060915 J-0.6116751269035533
G3 X2.200507614213198 Y26.017766497461928 I1.598984771573604 J0
G3 X2.548223350253807 Y25.497461928934012 I1.4873096446700507 J0.616751269035533
G3 X3.068527918781726 Y25.149746192893403 I1.1370558375634519 J1.1370558375634519
G3 X3.682741116751269 Y25.0253807106599 I0.6116751269035533 J1.4746192893401013
G3 X4.2944162436548226 Y25.149746192893403 I0 J1.598984771573604
G0 Z5
G0 X4.815736040609137 Y15.337817258883248
G1 Z-0.1 F50
G3 X5.16497461928934 Y15.857868020304569 I-1.1370558375634519 J1.1370558375634519 F75
G3 X5.286802030456853 Y16.472081218274113 I-1.4771573604060915 J0.6116751269035533
G3 X5.16497461928934 Y17.083756345177665 I-1.598984771573604 J0
G3 X4.814720812182741 Y17.604060913705585 I-1.484771573604061 J-0.616751269035533
G3 X4.2944162436548226 Y17.954314720812185 I-1.1370558375634519 J-1.1370558375634519
G3 X3.682741116751269 Y18.076142131979694 I-0.6116751269035533 J-1.4771573604060915
G3 X3.068527918781726 Y17.954314720812185 I0 J-1.598984771573604
G3 X2.548223350253807 Y17.604060913705585 I0.616751269035533 J-1.484771573604061
G3 X2.200507614213198 Y17.083756345177665 I1.1370558375634519 J-1.1370558375634519
G3 X2.0786802030456855 Y16.472081218274113 I1.4771573604060915 J-0.6116751269035533
G3 X2.200507614213198 Y15.857868020304569 I1.598984771573604 J0
G3 X2.548223350253807 Y15.33756345177665 I1.4873096446700507 J0.616751269035533
G3 X3.068527918781726 Y14.98984771573604 I1.1370558375634519 J1.1370558375634519
G3 X3.682741116751269 Y14.868020304568528 I0.6116751269035533 J1.4746192893401013
G3 X4.2944162436548226 Y14.98984771573604 I0 J1.598984771573604
G3 X4.814720812182741 Y15.33756345177665 I-0.616751269035533 J1.4873096446700507
G0 Z5
G0 X4.815736040609137 Y42.49746192893401
G1 Z-0.1 F50
G3 X5.16497461928934 Y43.017766497461935 I-1.1370558375634519 J1.1370558375634519 F75
G3 X5.286802030456853 Y43.631979695431475 I-1.4746192893401013 J0.6116751269035533
G3 X5.16497461928934 Y44.24365482233503 I-1.598984771573604 J0
G3 X4.814720812182741 Y44.763959390862944 I-1.484771573604061 J-0.616751269035533
G3 X4.2944162436548226 Y45.111675126903556 I-1.1370558375634519 J-1.1370558375634519
G3 X3.682741116751269 Y45.236040609137056 I-0.6116751269035533 J-1.4771573604060915
G3 X3.068527918781726 Y45.111675126903556 I0 J-1.598984771573604
G3 X2.548223350253807 Y44.763959390862944 I0.616751269035533 J-1.484771573604061
G3 X2.200507614213198 Y44.24365482233503 I1.1370558375634519 J-1.1370558375634519
G3 X2.0786802030456855 Y43.631979695431475 I1.4771573604060915 J-0.6116751269035533
G3 X2.200507614213198 Y43.017766497461935 I1.598984771573604 J0
G3 X2.548223350253807 Y42.49746192893401 I1.484771573604061 J0.616751269035533
G3 X3.068527918781726 Y42.1497461928934 I1.1370558375634519 J1.1370558375634519
G3 X3.682741116751269 Y42.027918781725894 I0.6116751269035533 J1.4771573604060915
G3 X4.2944162436548226 Y42.1497461928934 I0 J1.598984771573604
G3 X4.814720812182741 Y42.49746192893401 I-0.616751269035533 J1.4873096446700507
G0 Z5
G0 X6.088832487309645 Y53.95761421319797
G1 Z-0.1 F50
G3 X6.609137055837564 Y53.60913705583756 I1.1370558375634519 J1.1370558375634519 F75
G3 X7.223350253807107 Y53.48730964467005 I0.6116751269035533 J1.4746192893401013
G3 X7.835025380710659 Y53.60913705583756 I0 J1.598984771573604
G3 X8.355329949238579 Y53.95685279187817 I-0.616751269035533 J1.484771573604061
G3 X8.703045685279188 Y54.477157360406096 I-1.1370558375634519 J1.1370558375634519
G3 X8.82741116751269 Y55.09137055837564 I-1.4771573604060915 J0.6116751269035533
G3 X8.703045685279188 Y55.70304568527919 I-1.598984771573604 J0
G3 X8.355329949238579 Y56.2258883248731 I-1.484771573604061 J-0.616751269035533
G3 X7.835025380710659 Y56.57360406091371 I-1.1370558375634519 J-1.1370558375634519
G3 X7.223350253807107 Y56.695431472081225 I-0.6116751269035533 J-1.4771573604060915
G3 X6.609137055837564 Y56.57360406091371 I0 J-1.598984771573604
G3 X6.088832487309644 Y56.2258883248731 I0.616751269035533 J-1.484771573604061
G3 X5.741116751269035 Y55.70304568527919 I1.1370558375634519 J-1.1370558375634519
G3 X5.619289340101523 Y55.09137055837564 I1.4771573604060915 J-0.6116751269035533
G3 X5.741116751269035 Y54.477157360406096 I1.598984771573604 J0
G3 X6.088832487309644 Y53.95685279187817 I1.4873096446700507 J0.616751269035533
G0 Z5
G0 X50.233502538071065 Y39.4002538071066
G1 Z-0.1 F50
G3 X49.97208121827411 Y39.01015228426396 I0.8553299492385786 J-0.8578680203045685 F75
G3 X49.88071065989848 Y38.5507614213198 I1.098984771573604 J-0.4593908629441624
G3 X49.97208121827411 Y38.09137055837563 I1.1903553299492384 J0
G3 X50.233502538071065 Y37.700507614213194 I1.119289340101523 J0.46700507614213194
G3 X50.6243654822335 Y37.43908629441624 I0.8578680203045685 J0.8578680203045685
G3 X51.08375634517767 Y37.34771573604061 I0.4593908629441624 J1.1015228426395938
G3 X51.54060913705584 Y37.43908629441624 I0 J1.1903553299492384
G3 X51.931472081218274 Y37.703045685279186 I-0.46446700507614214 J1.116751269035533
G3 X52.192893401015226 Y38.09137055837563 I-0.8578680203045685 J0.8553299492385786
G3 X52.28426395939087 Y38.5507614213198 I-1.1015228426395938 J0.4593908629441624
G3 X52.192893401015226 Y39.01015228426396 I-1.1928934010152283 J0
G3 X51.931472081218274 Y39.401015228426395 I-1.119289340101523 J-0.46446700507614214
G3 X51.54060913705584 Y39.66243654822335 I-0.8553299492385786 J-0.8553299492385786
G3 X51.08375634517767 Y39.753807106598984 I-0.4593908629441624 J-1.098984771573604
G3 X50.6243654822335 Y39.66243654822335 I0 J-1.1928934010152283
G3 X50.233502538071065 Y39.401015228426395 I0.46700507614213194 J-1.119289340101523
G0 Z5
G0 X37.533248730964466 Y39.4002538071066
G1 Z-0.1 F50
G3 X37.27157360406091 Y39.01015228426396 I0.8553299492385786 J-0.8578680203045685 F75
G3 X37.180203045685275 Y38.5507614213198 I1.098984771573604 J-0.4593908629441624
G3 X37.27157360406091 Y38.09137055837563 I1.1903553299492384 J0
G3 X37.53299492385787 Y37.700507614213194 I1.119289340101523 J0.46700507614213194
G3 X37.923857868020306 Y37.43908629441624 I0.8578680203045685 J0.8578680203045685
G3 X38.38324873096447 Y37.34771573604061 I0.4593908629441624 J1.1015228426395938
G3 X38.84010152284264 Y37.43908629441624 I0 J1.1903553299492384
G3 X39.23096446700508 Y37.703045685279186 I-0.46446700507614214 J1.116751269035533
G3 X39.49238578680203 Y38.09137055837563 I-0.8578680203045685 J0.8553299492385786
G3 X39.58375634517766 Y38.5507614213198 I-1.1015228426395938 J0.4593908629441624
G3 X39.49238578680203 Y39.01015228426396 I-1.1928934010152283 J0
G3 X39.23096446700508 Y39.401015228426395 I-1.119289340101523 J-0.46446700507614214
G3 X38.84010152284264 Y39.66243654822335 I-0.8553299492385786 J-0.8553299492385786
G3 X38.38324873096447 Y39.753807106598984 I-0.4593908629441624 J-1.098984771573604
G3 X37.923857868020306 Y39.66243654822335 I0 J-1.1928934010152283
G3 X37.53299492385787 Y39.401015228426395 I0.46700507614213194 J-1.119289340101523
G0 Z5
G0 X65.6005076142132 Y37.52005076142132
G1 Z-0.1 F50
G3 X65.99238578680203 Y37.78172588832487 I-0.46700507614213194 J1.119289340101523 F75
G3 X66.25380710659898 Y38.17258883248731 I-0.8578680203045685 J0.8578680203045685
G3 X66.34517766497461 Y38.63197969543147 I-1.1015228426395938 J0.4593908629441624
G3 X66.25380710659898 Y39.088832487309645 I-1.1903553299492384 J0
G3 X65.99238578680203 Y39.47969543147208 I-1.116751269035533 J-0.46446700507614214
G3 X65.6015228426396 Y39.74111675126903 I-0.8553299492385786 J-0.8578680203045685
G3 X65.14213197969542 Y39.83248730964467 I-0.4593908629441624 J-1.1015228426395938
G3 X64.68274111675127 Y39.74111675126903 I0 J-1.1928934010152283
G3 X64.29187817258884 Y39.47969543147208 I0.46446700507614214 J-1.119289340101523
G3 X64.03045685279187 Y39.088832487309645 I0.8553299492385786 J-0.8553299492385786
G3 X63.93908629441625 Y38.63197969543147 I1.098984771573604 J-0.4593908629441624
G3 X64.03045685279187 Y38.17258883248731 I1.1928934010152283 J0
G3 X64.29187817258884 Y37.78172588832487 I1.119289340101523 J0.46700507614213194
G3 X64.68274111675127 Y37.52030456852792 I0.8578680203045685 J0.8553299492385786
G3 X65.14213197969542 Y37.42893401015229 I0.4593908629441624 J1.098984771573604
G3 X65.6015228426396 Y37.52030456852792 I0 J1.1903553299492384
G0 Z5
G0 X78.3005076142132 Y37.52005076142132
G1 Z-0.1 F50
G3 X78.69035532994924 Y37.78172588832487 I-0.46700507614213194 J1.119289340101523 F75
G3 X78.95431472081218 Y38.17258883248731 I-0.8578680203045685 J0.8578680203045685
G3 X79.04568527918782 Y38.63197969543147 I-1.1015228426395938 J0.4593908629441624
G3 X78.9517766497462 Y39.088832487309645 I-1.1903553299492384 J0
G3 X78.69035532994924 Y39.47969543147208 I-1.116751269035533 J-0.46446700507614214
G3 X78.2994923857868 Y39.74111675126903 I-0.8553299492385786 J-0.8578680203045685
G3 X77.84263959390863 Y39.83248730964467 I-0.4593908629441624 J-1.1015228426395938
G3 X77.38324873096447 Y39.74111675126903 I0 J-1.1928934010152283
G3 X76.99238578680203 Y39.47969543147208 I0.46446700507614214 J-1.119289340101523
G3 X76.73096446700508 Y39.088832487309645 I0.8553299492385786 J-0.8553299492385786
G3 X76.63959390862944 Y38.63197969543147 I1.098984771573604 J-0.4593908629441624
G3 X76.73096446700508 Y38.17258883248731 I1.1928934010152283 J0
G3 X76.99238578680203 Y37.78172588832487 I1.119289340101523 J0.46700507614213194
G3 X77.38324873096447 Y37.52030456852792 I0.8578680203045685 J0.8553299492385786
G3 X77.84263959390863 Y37.42893401015229 I0.4593908629441624 J1.098984771573604
G3 X78.2994923857868 Y37.52030456852792 I0 J1.1903553299492384
G0 Z5
G0 X68.14060913705583 Y37.52005076142132
G1 Z-0.1 F50
G3 X68.53045685279187 Y37.78172588832487 I-0.46700507614213194 J1.119289340101523 F75
G3 X68.79187817258884 Y38.17258883248731 I-0.8578680203045685 J0.8578680203045685
G3 X68.88578680203045 Y38.63197969543147 I-1.1015228426395938 J0.4593908629441624
G3 X68.79187817258884 Y39.088832487309645 I-1.1903553299492384 J0
G3 X68.53045685279187 Y39.47969543147208 I-1.116751269035533 J-0.46446700507614214
G3 X68.13959390862945 Y39.74111675126903 I-0.8553299492385786 J-0.8578680203045685
G3 X67.68274111675127 Y39.83248730964467 I-0.4593908629441624 J-1.1015228426395938
G3 X67.22335025380711 Y39.74111675126903 I0 J-1.1928934010152283
G3 X66.83248730964466 Y39.47969543147208 I0.46446700507614214 J-1.119289340101523
G3 X66.57106598984771 Y39.088832487309645 I0.8553299492385786 J-0.8553299492385786
G3 X66.47969543147208 Y38.63197969543147 I1.098984771573604 J-0.4593908629441624
G3 X66.57106598984771 Y38.17258883248731 I1.1928934010152283 J0
G3 X66.83248730964466 Y37.78172588832487 I1.119289340101523 J0.46700507614213194
G3 X67.22335025380711 Y37.52030456852792 I0.8578680203045685 J0.8553299492385786
G3 X67.68274111675127 Y37.42893401015229 I0.4593908629441624 J1.098984771573604
G3 X68.13959390862945 Y37.52030456852792 I0 J1.1903553299492384
G0 Z5
G0 X42.03299492385787 Y39.009390862944166
G1 Z-0.1 F50
G3 X41.77157360406091 Y39.401015228426395 I-1.119289340101523 J-0.46700507614213194 F75
G3 X41.380710659898476 Y39.66243654822335 I-0.8578680203045685 J-0.8578680203045685
G3 X40.921319796954315 Y39.753807106598984 I-0.4593908629441624 J-1.1015228426395938
G3 X40.464467005076145 Y39.66243654822335 I0 J-1.1903553299492384
G3 X40.07360406091371 Y39.401015228426395 I0.46446700507614214 J-1.116751269035533
G3 X39.81218274111675 Y39.01015228426396 I0.8578680203045685 J-0.8553299492385786
G3 X39.72081218274112 Y38.5507614213198 I1.1015228426395938 J-0.4593908629441624
G3 X39.81218274111675 Y38.09137055837563 I1.1928934010152283 J0
G3 X40.07360406091371 Y37.703045685279186 I1.119289340101523 J0.46446700507614214
G3 X40.464467005076145 Y37.43908629441624 I0.8553299492385786 J0.8553299492385786
G3 X40.921319796954315 Y37.34771573604061 I0.4593908629441624 J1.098984771573604
G3 X41.380710659898476 Y37.43908629441624 I0 J1.1928934010152283
G3 X41.77157360406091 Y37.703045685279186 I-0.46700507614213194 J1.119289340101523
G3 X42.03299492385787 Y38.09137055837563 I-0.8578680203045685 J0.8578680203045685
G3 X42.12436548223351 Y38.5507614213198 I-1.1015228426395938 J0.4593908629441624
G3 X42.03299492385787 Y39.01015228426396 I-1.1928934010152283 J0
G0 Z5
G0 X81.8251269035533 Y12.82994923857868
G1 Z-0.1 F50
G3 X81.57360406091371 Y13.20304568527919 I-1.0685279187817258 J-0.44416243654822335 F75
G3 X81.2005076142132 Y13.454314720812183 I-0.817258883248731 J-0.817258883248731
G3 X80.76142131979695 Y13.540609137055837 I-0.4390862944162437 J-1.0558375634517767
G3 X80.32233502538071 Y13.454314720812183 I0 J-1.1421319796954315
G3 X79.9492385786802 Y13.20304568527919 I0.44416243654822335 J-1.0659898477157361
G3 X79.7005076142132 Y12.82994923857868 I0.8197969543147209 J-0.817258883248731
G3 X79.61167512690355 Y12.390862944162437 I1.0583756345177666 J-0.4390862944162437
G3 X79.7005076142132 Y11.951776649746193 I1.1446700507614214 J0
G3 X79.9492385786802 Y11.578680203045685 I1.0659898477157361 J0.44416243654822335
G3 X80.32233502538071 Y11.329949238578681 I0.817258883248731 J0.817258883248731
G3 X80.76142131979695 Y11.241116751269036 I0.4390862944162437 J1.0558375634517767
G3 X81.2005076142132 Y11.329949238578681 I0 J1.1446700507614214
G3 X81.57360406091371 Y11.578680203045685 I-0.44416243654822335 J1.0685279187817258
G3 X81.82487309644671 Y11.951776649746193 I-0.817258883248731 J0.817258883248731
G3 X81.91370558375635 Y12.390862944162437 I-1.0532994923857868 J0.4390862944162437
G3 X81.82487309644671 Y12.82994923857868 I-1.1421319796954315 J0
G0 Z5
G0 X82.86345177664974 Y13.453807106598985
G1 Z-0.1 F50
G3 X82.48984771573603 Y13.20304568527919 I0.44416243654822335 J-1.0685279187817258 F75
G3 X82.23857868020305 Y12.82994923857868 I0.817258883248731 J-0.817258883248731
G3 X82.15228426395939 Y12.390862944162437 I1.0558375634517767 J-0.4390862944162437
G3 X82.23857868020305 Y11.951776649746193 I1.1421319796954315 J0
G3 X82.48984771573603 Y11.578680203045685 I1.0659898477157361 J0.44416243654822335
G3 X82.86294416243655 Y11.329949238578681 I0.817258883248731 J0.8197969543147209
G3 X83.30203045685279 Y11.241116751269036 I0.4390862944162437 J1.0583756345177666
G3 X83.74111675126903 Y11.329949238578681 I0 J1.1446700507614214
G3 X84.11421319796955 Y11.578680203045685 I-0.44416243654822335 J1.0685279187817258
G3 X84.36548223350255 Y11.951776649746193 I-0.817258883248731 J0.817258883248731
G3 X84.45431472081218 Y12.390862944162437 I-1.0532994923857868 J0.4390862944162437
G3 X84.36548223350255 Y12.82994923857868 I-1.1421319796954315 J0
G3 X84.11421319796955 Y13.20304568527919 I-1.0685279187817258 J-0.44416243654822335
G3 X83.74111675126903 Y13.454314720812183 I-0.817258883248731 J-0.817258883248731
G3 X83.30203045685279 Y13.540609137055837 I-0.4390862944162437 J-1.0558375634517767
G3 X82.86294416243655 Y13.454314720812183 I0 J-1.1421319796954315
G0 Z5
G0 X81.2010152284264 Y13.868527918781727
G1 Z-0.1 F50
G3 X81.57360406091371 Y14.119289340101522 I-0.44416243654822335 J1.0685279187817258 F75
G3 X81.82487309644671 Y14.492385786802032 I-0.817258883248731 J0.817258883248731
G3 X81.91370558375635 Y14.931472081218274 I-1.0558375634517767 J0.4390862944162437
G3 X81.82487309644671 Y15.370558375634518 I-1.1421319796954315 J0
G3 X81.57360406091371 Y15.743654822335024 I-1.0659898477157361 J-0.44416243654822335
G3 X81.2005076142132 Y15.99238578680203 I-0.817258883248731 J-0.8197969543147209
G3 X80.76142131979695 Y16.081218274111674 I-0.4390862944162437 J-1.0583756345177666
G3 X80.32233502538071 Y15.99238578680203 I0 J-1.1446700507614214
G3 X79.9492385786802 Y15.743654822335024 I0.44416243654822335 J-1.0659898477157361
G3 X79.7005076142132 Y15.370558375634518 I0.817258883248731 J-0.817258883248731
G3 X79.61167512690355 Y14.931472081218274 I1.0558375634517767 J-0.4390862944162437
G3 X79.7005076142132 Y14.492385786802032 I1.1446700507614214 J0
G3 X79.9492385786802 Y14.119289340101522 I1.0685279187817258 J0.44416243654822335
G3 X80.32233502538071 Y13.868020304568526 I0.817258883248731 J0.817258883248731
G3 X80.76142131979695 Y13.781725888324875 I0.4390862944162437 J1.0532994923857868
G3 X81.2005076142132 Y13.868020304568526 I0 J1.1421319796954315
G0 Z5
G0 X82.48984771573605 Y14.118527918781727
G1 Z-0.1 F50
G3 X82.86294416243655 Y13.868020304568526 I0.817258883248731 J0.817258883248731 F75
G3 X83.30203045685279 Y13.781725888324875 I0.4390862944162437 J1.0558375634517767
G3 X83.74111675126903 Y13.868020304568526 I0 J1.1421319796954315
G3 X84.11421319796955 Y14.119289340101522 I-0.44416243654822335 J1.0685279187817258
G3 X84.36548223350255 Y14.492385786802032 I-0.817258883248731 J0.817258883248731
G3 X84.45431472081218 Y14.931472081218274 I-1.0558375634517767 J0.4390862944162437
G3 X84.36548223350255 Y15.370558375634518 I-1.1421319796954315 J0
G3 X84.11421319796955 Y15.743654822335024 I-1.0659898477157361 J-0.44416243654822335
G3 X83.74111675126903 Y15.99238578680203 I-0.817258883248731 J-0.8197969543147209
G3 X83.30203045685279 Y16.081218274111674 I-0.4390862944162437 J-1.0583756345177666
G3 X82.86294416243655 Y15.99238578680203 I0 J-1.1446700507614214
G3 X82.48984771573603 Y15.743654822335024 I0.44416243654822335 J-1.0685279187817258
G3 X82.23857868020305 Y15.370558375634518 I0.817258883248731 J-0.817258883248731
G3 X82.15228426395939 Y14.931472081218274 I1.0532994923857868 J-0.4390862944162437
G3 X82.23857868020305 Y14.492385786802032 I1.1421319796954315 J0
G3 X82.48984771573603 Y14.119289340101522 I1.0685279187817258 J0.44416243654822335
G0 Z5
G0 X81.5748730964467 Y9.038578680203045
G1 Z-0.1 F50
G3 X81.82487309644671 Y9.411167512690355 I-0.817258883248731 J0.817258883248731 F75
G3 X81.91370558375635 Y9.850253807106599 I-1.0558375634517767 J0.4390862944162437
G3 X81.82487309644671 Y10.289340101522843 I-1.1421319796954315 J0
G3 X81.57360406091371 Y10.66497461928934 I-1.0685279187817258 J-0.44416243654822335
G3 X81.2005076142132 Y10.913705583756347 I-0.817258883248731 J-0.8197969543147209
G3 X80.76142131979695 Y11.00253807106599 I-0.4390862944162437 J-1.0558375634517767
G3 X80.32233502538071 Y10.913705583756347 I0 J-1.1421319796954315
G3 X79.9492385786802 Y10.66497461928934 I0.44416243654822335 J-1.0659898477157361
G3 X79.7005076142132 Y10.289340101522843 I0.817258883248731 J-0.817258883248731
G3 X79.61167512690355 Y9.850253807106599 I1.0558375634517767 J-0.4390862944162437
G3 X79.7005076142132 Y9.411167512690355 I1.1446700507614214 J0
G3 X79.9492385786802 Y9.038071065989847 I1.0685279187817258 J0.44416243654822335
G3 X80.32233502538071 Y8.789340101522843 I0.817258883248731 J0.817258883248731
G3 X80.76142131979695 Y8.700507614213198 I0.4390862944162437 J1.0532994923857868
G3 X81.2005076142132 Y8.789340101522843 I0 J1.1421319796954315
G3 X81.57360406091371 Y9.038071065989847 I-0.44416243654822335 J1.0685279187817258
G0 Z5
G0 X62.7748730964467 Y53.3746192893401
G1 Z-0.1 F50
G3 X63.01269035532995 Y53.02030456852792 I1.012690355329949 J0.4213197969543147 F75
G3 X63.368020304568525 Y52.78172588832487 I0.7766497461928934 J0.7766497461928934
G3 X63.78426395939086 Y52.7005076142132 I0.416243654822335 J1
G3 X64.2005076142132 Y52.78426395939086 I0 J1.0837563451776648
G3 X64.55329949238578 Y53.02030456852792 I-0.4213197969543147 J1.012690355329949
G3 X64.79187817258884 Y53.3756345177665 I-0.7766497461928934 J0.7766497461928934
G3 X64.8730964467005 Y53.79187817258884 I-1.00253807106599 J0.416243654822335
G3 X64.79187817258884 Y54.20812182741117 I-1.0837563451776648 J0
G3 X64.55329949238578 Y54.56091370558376 I-1.012690355329949 J-0.4213197969543147
G3 X64.2005076142132 Y54.7994923857868 I-0.7741116751269035 J-0.7741116751269035
G3 X63.78426395939086 Y54.88071065989848 I-0.416243654822335 J-1
G3 X63.368020304568525 Y54.7994923857868 I0 J-1.0862944162436547
G3 X63.01269035532995 Y54.56091370558376 I0.4213197969543147 J-1.015228426395939
G3 X62.7741116751269 Y54.20812182741117 I0.7741116751269035 J-0.7766497461928934
G3 X62.692893401015226 Y53.79187817258884 I1 J-0.416243654822335
G3 X62.7741116751269 Y53.3756345177665 I1.0837563451776648 J0
G0 Z5
G0 X51.85253807106599 Y53.02005076142132
G1 Z-0.1 F50
G3 X52.09137055837563 Y53.3756345177665 I-0.7766497461928934 J0.7766497461928934 F75
G3 X52.172588832487314 Y53.79187817258884 I-1 J0.416243654822335
G3 X52.09137055837563 Y54.20812182741117 I-1.0812182741116751 J0
G3 X51.85279187817259 Y54.56091370558376 I-1.012690355329949 J-0.4213197969543147
G3 X51.497461928934015 Y54.7994923857868 I-0.7766497461928934 J-0.7766497461928934
G3 X51.08121827411168 Y54.88071065989848 I-0.416243654822335 J-1.00253807106599
G3 X50.66497461928934 Y54.7994923857868 I0 J-1.0837563451776648
G3 X50.31218274111676 Y54.56091370558376 I0.4213197969543147 J-1.012690355329949
G3 X50.07360406091371 Y54.20812182741117 I0.7741116751269035 J-0.7741116751269035
G3 X49.98984771573604 Y53.79187817258884 I1 J-0.416243654822335
G3 X50.07360406091371 Y53.3756345177665 I1.0837563451776648 J0
G3 X50.31218274111676 Y53.02030456852792 I1.012690355329949 J0.4213197969543147
G3 X50.66497461928934 Y52.78426395939086 I0.7766497461928934 J0.7741116751269035
G3 X51.08121827411168 Y52.7005076142132 I0.416243654822335 J1
G3 X51.497461928934015 Y52.78172588832487 I0 J1.0837563451776648
G3 X51.85279187817259 Y53.02030456852792 I-0.4213197969543147 J1.015228426395939
G0 Z5
G0 X67.85431472081218 Y53.3746192893401
G1 Z-0.1 F50
G3 X68.09137055837564 Y53.02030456852792 I1.012690355329949 J0.4213197969543147 F75
G3 X68.44670050761421 Y52.78172588832487 I0.7766497461928934 J0.7766497461928934
G3 X68.86294416243655 Y52.7005076142132 I0.416243654822335 J1
G3 X69.27918781725889 Y52.78426395939086 I0 J1.0837563451776648
G3 X69.63451776649747 Y53.02030456852792 I-0.4213197969543147 J1.012690355329949
G3 X69.87055837563452 Y53.3756345177665 I-0.7766497461928934 J0.7766497461928934
G3 X69.95431472081219 Y53.79187817258884 I-1.00253807106599 J0.416243654822335
G3 X69.87055837563452 Y54.20812182741117 I-1.0837563451776648 J0
G3 X69.63451776649747 Y54.56091370558376 I-1.012690355329949 J-0.4213197969543147
G3 X69.27918781725889 Y54.7994923857868 I-0.7741116751269035 J-0.7741116751269035
G3 X68.86294416243655 Y54.88071065989848 I-0.416243654822335 J-1
G3 X68.44670050761421 Y54.7994923857868 I0 J-1.0862944162436547
G3 X68.09137055837564 Y54.56091370558376 I0.4213197969543147 J-1.015228426395939
G3 X67.85532994923858 Y54.20812182741117 I0.7741116751269035 J-0.7766497461928934
G3 X67.77157360406092 Y53.79187817258884 I1 J-0.416243654822335
G3 X67.85532994923858 Y53.3756345177665 I1.0837563451776648 J0
G0 Z5
G0 X35.8502538071066 Y53.3746192893401
G1 Z-0.1 F50
G3 X36.088832487309645 Y53.02030456852792 I1.012690355329949 J0.4213197969543147 F75
G3 X36.441624365482234 Y52.78172588832487 I0.7766497461928934 J0.7766497461928934
G3 X36.85786802030457 Y52.7005076142132 I0.416243654822335 J1
G3 X37.2741116751269 Y52.78426395939086 I0 J1.0837563451776648
G3 X37.629441624365484 Y53.02030456852792 I-0.4213197969543147 J1.012690355329949
G3 X37.86548223350253 Y53.3756345177665 I-0.7766497461928934 J0.7766497461928934
G3 X37.9492385786802 Y53.79187817258884 I-1.00253807106599 J0.416243654822335
G3 X37.86548223350253 Y54.20812182741117 I-1.0837563451776648 J0
G3 X37.629441624365484 Y54.56091370558376 I-1.012690355329949 J-0.4213197969543147
G3 X37.2741116751269 Y54.7994923857868 I-0.7741116751269035 J-0.7741116751269035
G3 X36.85786802030457 Y54.88071065989848 I-0.416243654822335 J-1
G3 X36.441624365482234 Y54.7994923857868 I0 J-1.0862944162436547
G3 X36.088832487309645 Y54.56091370558376 I0.4213197969543147 J-1.015228426395939
G3 X35.8502538071066 Y54.20812182741117 I0.7741116751269035 J-0.7766497461928934
G3 X35.766497461928935 Y53.79187817258884 I1 J-0.416243654822335
G3 X35.8502538071066 Y53.3756345177665 I1.0837563451776648 J0
G0 Z5
G0 X62.7748730964467 Y5.114720812182741
G1 Z-0.1 F50
G3 X63.01269035532995 Y4.761421319796954 I1.012690355329949 J0.4213197969543147 F75
G3 X63.368020304568525 Y4.522842639593908 I0.7766497461928934 J0.7766497461928934
G3 X63.78426395939086 Y4.441624365482234 I0.416243654822335 J1.00253807106599
G3 X64.2005076142132 Y4.522842639593908 I0 J1.0837563451776648
G3 X64.55329949238578 Y4.761421319796954 I-0.4213197969543147 J1.012690355329949
G3 X64.79187817258884 Y5.114213197969542 I-0.7766497461928934 J0.7766497461928934
G3 X64.8730964467005 Y5.530456852791879 I-1 J0.416243654822335
G3 X64.79187817258884 Y5.946700507614214 I-1.0837563451776648 J0
G3 X64.55329949238578 Y6.302030456852792 I-1.012690355329949 J-0.4213197969543147
G3 X64.2005076142132 Y6.538071065989848 I-0.7766497461928934 J-0.7766497461928934
G3 X63.78426395939086 Y6.621827411167512 I-0.416243654822335 J-1
G3 X63.368020304568525 Y6.538071065989848 I0 J-1.0837563451776648
G3 X63.01269035532995 Y6.302030456852792 I0.4213197969543147 J-1.015228426395939
G3 X62.7741116751269 Y5.946700507614214 I0.7741116751269035 J-0.7766497461928934
G3 X62.692893401015226 Y5.530456852791879 I0.9974619289340102 J-0.416243654822335
G3 X62.7741116751269 Y5.114213197969542 I1.0812182741116751 J0
G0 Z5
G0 X52.09010152284264 Y5.947208121827411
G1 Z-0.1 F50
G3 X51.85279187817259 Y6.302030456852792 I-1.012690355329949 J-0.4213197969543147 F75
G3 X51.497461928934015 Y6.538071065989848 I-0.7766497461928934 J-0.7766497461928934
G3 X51.08121827411168 Y6.621827411167512 I-0.416243654822335 J-1.00253807106599
G3 X50.66497461928934 Y6.538071065989848 I0 J-1.0837563451776648
G3 X50.31218274111676 Y6.302030456852792 I0.4213197969543147 J-1.012690355329949
G3 X50.07360406091371 Y5.946700507614214 I0.7766497461928934 J-0.7766497461928934
G3 X49.98984771573604 Y5.530456852791879 I1 J-0.416243654822335
G3 X50.07360406091371 Y5.114213197969542 I1.0837563451776648 J0
G3 X50.31218274111676 Y4.761421319796954 I1.012690355329949 J0.4213197969543147
G3 X50.66497461928934 Y4.522842639593908 I0.7766497461928934 J0.7766497461928934
G3 X51.08121827411168 Y4.441624365482234 I0.416243654822335 J1
G3 X51.497461928934015 Y4.522842639593908 I0 J1.0837563451776648
G3 X51.85279187817259 Y4.761421319796954 I-0.4213197969543147 J1.015228426395939
G3 X52.09137055837563 Y5.114213197969542 I-0.7741116751269035 J0.7766497461928934
G3 X52.172588832487314 Y5.530456852791879 I-0.9974619289340102 J0.416243654822335
G3 X52.09137055837563 Y5.946700507614214 I-1.0812182741116751 J0
G0 Z5
G0 X39.39010152284264 Y5.947208121827411
G1 Z-0.1 F50
G3 X39.15228426395939 Y6.302030456852792 I-1.012690355329949 J-0.4213197969543147 F75
G3 X38.79695431472081 Y6.538071065989848 I-0.7766497461928934 J-0.7766497461928934
G3 X38.380710659898476 Y6.621827411167512 I-0.416243654822335 J-1.00253807106599
G3 X37.964467005076145 Y6.538071065989848 I0 J-1.0837563451776648
G3 X37.611675126903556 Y6.302030456852792 I0.4213197969543147 J-1.012690355329949
G3 X37.37309644670051 Y5.946700507614214 I0.7766497461928934 J-0.7766497461928934
G3 X37.29187817258883 Y5.530456852791879 I1 J-0.416243654822335
G3 X37.37309644670051 Y5.114213197969542 I1.0837563451776648 J0
G3 X37.611675126903556 Y4.761421319796954 I1.012690355329949 J0.4213197969543147
G3 X37.964467005076145 Y4.522842639593908 I0.7766497461928934 J0.7766497461928934
G3 X38.380710659898476 Y4.441624365482234 I0.416243654822335 J1
G3 X38.79695431472081 Y4.522842639593908 I0 J1.0837563451776648
G3 X39.15228426395939 Y4.761421319796954 I-0.4213197969543147 J1.015228426395939
G3 X39.390862944162436 Y5.114213197969542 I-0.7741116751269035 J0.7766497461928934
G3 X39.47208121827411 Y5.530456852791879 I-0.9974619289340102 J0.416243654822335
G3 X39.390862944162436 Y5.946700507614214 I-1.0812182741116751 J0
G0 Z5
G0 X67.09314720812182 Y53.02030456852792
G1 Z-0.1 F50
G3 X67.32994923857868 Y53.3756345177665 I-0.7766497461928934 J0.7766497461928934 F75
G3 X67.41370558375634 Y53.79187817258884 I-1 J0.416243654822335
G3 X67.32994923857868 Y54.20812182741117 I-1.0837563451776648 J0
G3 X67.09390862944163 Y54.56091370558376 I-1.012690355329949 J-0.4213197969543147
G3 X66.73857868020305 Y54.7994923857868 I-0.7766497461928934 J-0.7766497461928934
G3 X66.32233502538071 Y54.88071065989848 I-0.416243654822335 J-1.00253807106599
G3 X65.90609137055837 Y54.7994923857868 I0 J-1.0837563451776648
G3 X65.55076142131979 Y54.56091370558376 I0.4213197969543147 J-1.012690355329949
G3 X65.31472081218274 Y54.20812182741117 I0.7741116751269035 J-0.7741116751269035
G3 X65.23096446700508 Y53.79187817258884 I1 J-0.416243654822335
G3 X65.31472081218274 Y53.3756345177665 I1.0837563451776648 J0
G3 X65.55076142131979 Y53.02030456852792 I1.012690355329949 J0.4213197969543147
G3 X65.90609137055837 Y52.78426395939086 I0.7766497461928934 J0.7741116751269035
G3 X66.32233502538071 Y52.7005076142132 I0.416243654822335 J1
G3 X66.73857868020305 Y52.78426395939086 I0 J1.0837563451776648
G3 X67.09390862944163 Y53.02030456852792 I-0.4213197969543147 J1.012690355329949
G0 Z5
G0 X57.69441624365482 Y53.3746192893401
G1 Z-0.1 F50
G3 X57.931472081218274 Y53.02030456852792 I1.012690355329949 J0.4213197969543147 F75
G3 X58.286802030456855 Y52.78426395939086 I0.7766497461928934 J0.7766497461928934
G3 X58.70304568527919 Y52.7005076142132 I0.416243654822335 J1
G3 X59.119289340101524 Y52.78426395939086 I0 J1.0837563451776648
G3 X59.47208121827411 Y53.02030456852792 I-0.4213197969543147 J1.012690355329949
G3 X59.71065989847716 Y53.3756345177665 I-0.7766497461928934 J0.7766497461928934
G3 X59.79187817258883 Y53.79187817258884 I-1.00253807106599 J0.416243654822335
G3 X59.71065989847716 Y54.20812182741117 I-1.0837563451776648 J0
G3 X59.47208121827411 Y54.56091370558376 I-1.012690355329949 J-0.4213197969543147
G3 X59.119289340101524 Y54.7994923857868 I-0.7741116751269035 J-0.7741116751269035
G3 X58.70304568527919 Y54.88071065989848 I-0.416243654822335 J-1
G3 X58.286802030456855 Y54.7994923857868 I0 J-1.0837563451776648
G3 X57.931472081218274 Y54.56091370558376 I0.4213197969543147 J-1.012690355329949
G3 X57.69543147208122 Y54.20812182741117 I0.7741116751269035 J-0.7766497461928934
G3 X57.611675126903556 Y53.79187817258884 I1 J-0.416243654822335
G3 X57.69543147208122 Y53.3756345177665 I1.0837563451776648 J0
G0 Z5
G0 X54.39289340101523 Y53.02030456852792
G1 Z-0.1 F50
G3 X54.629441624365484 Y53.3756345177665 I-0.7766497461928934 J0.7766497461928934 F75
G3 X54.713197969543145 Y53.79187817258884 I-1 J0.416243654822335
G3 X54.629441624365484 Y54.20812182741117 I-1.0837563451776648 J0
G3 X54.39340101522842 Y54.56091370558376 I-1.012690355329949 J-0.4213197969543147
G3 X54.03807106598984 Y54.7994923857868 I-0.7766497461928934 J-0.7766497461928934
G3 X53.62182741116751 Y54.88071065989848 I-0.416243654822335 J-1.00253807106599
G3 X53.20558375634518 Y54.7994923857868 I0 J-1.0837563451776648
G3 X52.85279187817259 Y54.56091370558376 I0.4213197969543147 J-1.012690355329949
G3 X52.61421319796955 Y54.20812182741117 I0.7741116751269035 J-0.7741116751269035
G3 X52.530456852791886 Y53.79187817258884 I1 J-0.416243654822335
G3 X52.61421319796955 Y53.3756345177665 I1.0837563451776648 J0
G3 X52.85279187817259 Y53.02030456852792 I1.012690355329949 J0.4213197969543147
G3 X53.20558375634518 Y52.78426395939086 I0.7766497461928934 J0.7741116751269035
G3 X53.62182741116751 Y52.7005076142132 I0.416243654822335 J1
G3 X54.03807106598984 Y52.78426395939086 I0 J1.0837563451776648
G3 X54.39340101522842 Y53.02030456852792 I-0.4213197969543147 J1.012690355329949
G0 Z5
G0 X55.15482233502538 Y53.3746192893401
G1 Z-0.1 F50
G3 X55.390862944162436 Y53.02030456852792 I1.012690355329949 J0.4213197969543147 F75
G3 X55.746192893401016 Y52.78426395939086 I0.7766497461928934 J0.7766497461928934
G3 X56.16243654822335 Y52.7005076142132 I0.416243654822335 J1
G3 X56.578680203045685 Y52.78426395939086 I0 J1.0837563451776648
G3 X56.93401015228426 Y53.02030456852792 I-0.4213197969543147 J1.012690355329949
G3 X57.17005076142132 Y53.3756345177665 I-0.7766497461928934 J0.7766497461928934
G3 X57.253807106598984 Y53.79187817258884 I-1.00253807106599 J0.416243654822335
G3 X57.17005076142132 Y54.20812182741117 I-1.0837563451776648 J0
G3 X56.93401015228426 Y54.56091370558376 I-1.012690355329949 J-0.4213197969543147
G3 X56.578680203045685 Y54.7994923857868 I-0.7741116751269035 J-0.7741116751269035
G3 X56.16243654822335 Y54.88071065989848 I-0.416243654822335 J-1
G3 X55.746192893401016 Y54.7994923857868 I0 J-1.0837563451776648
G3 X55.39340101522843 Y54.56091370558376 I0.4213197969543147 J-1.012690355329949
G3 X55.15482233502538 Y54.20812182741117 I0.7741116751269035 J-0.7766497461928934
G3 X55.07106598984771 Y53.79187817258884 I1 J-0.416243654822335
G3 X55.15482233502538 Y53.3756345177665 I1.0837563451776648 J0
G0 Z5
G0 X30.008883248730964 Y53.02030456852792
G1 Z-0.1 F50
G3 X30.246192893401016 Y53.3756345177665 I-0.7766497461928934 J0.7766497461928934 F75
G3 X30.329949238578678 Y53.79187817258884 I-1 J0.416243654822335
G3 X30.246192893401016 Y54.20812182741117 I-1.0837563451776648 J0
G3 X30.00761421319797 Y54.56091370558376 I-1.012690355329949 J-0.4213197969543147
G3 X29.65482233502538 Y54.7994923857868 I-0.7766497461928934 J-0.7766497461928934
G3 X29.238578680203045 Y54.88071065989848 I-0.416243654822335 J-1.00253807106599
G3 X28.82233502538071 Y54.7994923857868 I0 J-1.0837563451776648
G3 X28.46700507614213 Y54.56091370558376 I0.4213197969543147 J-1.012690355329949
G3 X28.230964467005077 Y54.20812182741117 I0.7741116751269035 J-0.7741116751269035
G3 X28.14720812182741 Y53.79187817258884 I1 J-0.416243654822335
G3 X28.230964467005077 Y53.3756345177665 I1.0837563451776648 J0
G3 X28.46700507614213 Y53.02030456852792 I1.012690355329949 J0.4213197969543147
G3 X28.82233502538071 Y52.78426395939086 I0.7766497461928934 J0.7741116751269035
G3 X29.238578680203045 Y52.7005076142132 I0.416243654822335 J1
G3 X29.65482233502538 Y52.78426395939086 I0 J1.0837563451776648
G3 X30.00761421319797 Y53.02030456852792 I-0.4213197969543147 J1.012690355329949
G0 Z5
G0 X60.471573604060914 Y53.02030456852792
G1 Z-0.1 F50
G3 X60.8248730964467 Y52.78426395939086 I0.7766497461928934 J0.7766497461928934 F75
G3 X61.24111675126904 Y52.7005076142132 I0.416243654822335 J1
G3 X61.65736040609137 Y52.78426395939086 I0 J1.0837563451776648
G3 X62.01269035532995 Y53.02030456852792 I-0.4213197969543147 J1.012690355329949
G3 X62.24873096446701 Y53.3756345177665 I-0.7766497461928934 J0.7766497461928934
G3 X62.33248730964468 Y53.79187817258884 I-1.00253807106599 J0.416243654822335
G3 X62.24873096446701 Y54.20812182741117 I-1.0837563451776648 J0
G3 X62.01269035532995 Y54.56091370558376 I-1.012690355329949 J-0.4213197969543147
G3 X61.65736040609137 Y54.7994923857868 I-0.7741116751269035 J-0.7741116751269035
G3 X61.24111675126904 Y54.88071065989848 I-0.416243654822335 J-1
G3 X60.8248730964467 Y54.7994923857868 I0 J-1.0837563451776648
G3 X60.472081218274106 Y54.56091370558376 I0.4213197969543147 J-1.012690355329949
G3 X60.233502538071065 Y54.20812182741117 I0.7741116751269035 J-0.7766497461928934
G3 X60.152284263959395 Y53.79187817258884 I1 J-0.416243654822335
G3 X60.233502538071065 Y53.3756345177665 I1.0837563451776648 J0
G3 X60.472081218274106 Y53.02030456852792 I1.012690355329949 J0.4213197969543147
G0 Z5
G0 X46.24746192893401 Y53.02030456852792
G1 Z-0.1 F50
G3 X46.60152284263959 Y52.78426395939086 I0.7766497461928934 J0.7766497461928934 F75
G3 X47.01776649746193 Y52.7005076142132 I0.416243654822335 J1
G3 X47.43401015228426 Y52.78426395939086 I0 J1.0837563451776648
G3 X47.78934010152284 Y53.02030456852792 I-0.4213197969543147 J1.012690355329949
G3 X48.025380710659896 Y53.3756345177665 I-0.7766497461928934 J0.7766497461928934
G3 X48.109137055837564 Y53.79187817258884 I-1.00253807106599 J0.416243654822335
G3 X48.025380710659896 Y54.20812182741117 I-1.0837563451776648 J0
G3 X47.78934010152284 Y54.56091370558376 I-1.012690355329949 J-0.4213197969543147
G3 X47.43401015228426 Y54.7994923857868 I-0.7741116751269035 J-0.7741116751269035
G3 X47.01776649746193 Y54.88071065989848 I-0.416243654822335 J-1
G3 X46.60152284263959 Y54.7994923857868 I0 J-1.0837563451776648
G3 X46.246192893401016 Y54.56091370558376 I0.4213197969543147 J-1.012690355329949
G3 X46.01015228426397 Y54.20812182741117 I0.7741116751269035 J-0.7766497461928934
G3 X45.92639593908629 Y53.79187817258884 I1 J-0.416243654822335
G3 X46.01015228426397 Y53.3756345177665 I1.0837563451776648 J0
G3 X46.246192893401016 Y53.02030456852792 I1.012690355329949 J0.4213197969543147
G0 Z5
G0 X60.471573604060914 Y6.301522842639594
G1 Z-0.1 F50
G3 X60.233502538071065 Y5.946700507614214 I0.7766497461928934 J-0.7766497461928934 F75
G3 X60.152284263959395 Y5.530456852791879 I1 J-0.416243654822335
G3 X60.233502538071065 Y5.114213197969542 I1.0812182741116751 J0
G3 X60.472081218274106 Y4.761421319796954 I1.012690355329949 J0.4213197969543147
G3 X60.8248730964467 Y4.522842639593908 I0.7766497461928934 J0.7766497461928934
G3 X61.24111675126904 Y4.441624365482234 I0.416243654822335 J1
G3 X61.65736040609137 Y4.522842639593908 I0 J1.0837563451776648
G3 X62.01269035532995 Y4.761421319796954 I-0.4213197969543147 J1.012690355329949
G3 X62.24873096446701 Y5.114213197969542 I-0.7766497461928934 J0.7766497461928934
G3 X62.33248730964468 Y5.530456852791879 I-1 J0.416243654822335
G3 X62.24873096446701 Y5.946700507614214 I-1.0837563451776648 J0
G3 X62.01269035532995 Y6.302030456852792 I-1.012690355329949 J-0.4213197969543147
G3 X61.65736040609137 Y6.538071065989848 I-0.7766497461928934 J-0.7766497461928934
G3 X61.24111675126904 Y6.621827411167512 I-0.416243654822335 J-1
G3 X60.8248730964467 Y6.538071065989848 I0 J-1.0837563451776648
G3 X60.472081218274106 Y6.302030456852792 I0.4213197969543147 J-1.012690355329949
G0 Z5
G0 X67.33020304568528 Y5.947208121827411
G1 Z-0.1 F50
G3 X67.09390862944163 Y6.302030456852792 I-1.012690355329949 J-0.4213197969543147 F75
G3 X66.73857868020305 Y6.538071065989848 I-0.7766497461928934 J-0.7766497461928934
G3 X66.32233502538071 Y6.621827411167512 I-0.416243654822335 J-1
G3 X65.90609137055837 Y6.538071065989848 I0 J-1.0837563451776648
G3 X65.55076142131979 Y6.302030456852792 I0.4213197969543147 J-1.012690355329949
G3 X65.31472081218274 Y5.946700507614214 I0.7766497461928934 J-0.7766497461928934
G3 X65.23096446700508 Y5.530456852791879 I1 J-0.416243654822335
G3 X65.31472081218274 Y5.114213197969542 I1.0837563451776648 J0
G3 X65.55076142131979 Y4.761421319796954 I1.012690355329949 J0.4213197969543147
G3 X65.90609137055837 Y4.522842639593908 I0.7766497461928934 J0.7766497461928934
G3 X66.32233502538071 Y4.441624365482234 I0.416243654822335 J1
G3 X66.73857868020305 Y4.522842639593908 I0 J1.0837563451776648
G3 X67.09390862944163 Y4.761421319796954 I-0.4213197969543147 J1.012690355329949
G3 X67.32994923857868 Y5.114213197969542 I-0.7766497461928934 J0.7766497461928934
G3 X67.41370558375634 Y5.530456852791879 I-1 J0.416243654822335
G3 X67.32994923857868 Y5.946700507614214 I-1.0812182741116751 J0
G0 Z5
G0 X45.231725888324874 Y6.301522842639594
G1 Z-0.1 F50
G3 X44.99492385786802 Y5.946700507614214 I0.7766497461928934 J-0.7766497461928934 F75
G3 X44.911167512690355 Y5.530456852791879 I1 J-0.416243654822335
G3 X44.99492385786802 Y5.114213197969542 I1.0837563451776648 J0
G3 X45.23096446700507 Y4.761421319796954 I1.012690355329949 J0.4213197969543147
G3 X45.58629441624365 Y4.522842639593908 I0.7766497461928934 J0.7766497461928934
G3 X46.002538071065985 Y4.441624365482234 I0.416243654822335 J1
G3 X46.41878172588832 Y4.522842639593908 I0 J1.0837563451776648
G3 X46.77157360406091 Y4.761421319796954 I-0.4213197969543147 J1.012690355329949
G3 X47.01015228426396 Y5.114213197969542 I-0.7766497461928934 J0.7766497461928934
G3 X47.09390862944162 Y5.530456852791879 I-1 J0.416243654822335
G3 X47.01015228426396 Y5.946700507614214 I-1.0837563451776648 J0
G3 X46.77157360406091 Y6.302030456852792 I-1.012690355329949 J-0.4213197969543147
G3 X46.41878172588832 Y6.538071065989848 I-0.7766497461928934 J-0.7766497461928934
G3 X46.002538071065985 Y6.621827411167512 I-0.416243654822335 J-1
G3 X45.58629441624365 Y6.538071065989848 I0 J-1.0837563451776648
G3 X45.23096446700507 Y6.302030456852792 I0.4213197969543147 J-1.012690355329949
G0 Z5
G0 X34.30964467005076 Y5.947208121827411
G1 Z-0.1 F50
G3 X34.0736040609137 Y6.302030456852792 I-1.012690355329949 J-0.4213197969543147 F75
G3 X33.71827411167513 Y6.538071065989848 I-0.7766497461928934 J-0.7766497461928934
G3 X33.30203045685279 Y6.621827411167512 I-0.416243654822335 J-1
G3 X32.88578680203046 Y6.538071065989848 I0 J-1.0837563451776648
G3 X32.53299492385787 Y6.302030456852792 I0.4213197969543147 J-1.012690355329949
G3 X32.29441624365482 Y5.946700507614214 I0.7766497461928934 J-0.7766497461928934
G3 X32.210659898477154 Y5.530456852791879 I1 J-0.416243654822335
G3 X32.29441624365482 Y5.114213197969542 I1.0837563451776648 J0
G3 X32.53299492385787 Y4.761421319796954 I1.012690355329949 J0.4213197969543147
G3 X32.88578680203046 Y4.522842639593908 I0.7766497461928934 J0.7766497461928934
G3 X33.30203045685279 Y4.441624365482234 I0.416243654822335 J1
G3 X33.71827411167513 Y4.522842639593908 I0 J1.0837563451776648
G3 X34.0736040609137 Y4.761421319796954 I-0.4213197969543147 J1.012690355329949
G3 X34.309644670050766 Y5.114213197969542 I-0.7766497461928934 J0.7766497461928934
G3 X34.39340101522843 Y5.530456852791879 I-1 J0.416243654822335
G3 X34.309644670050766 Y5.946700507614214 I-1.0837563451776648 J0
G0 Z5
G0 X57.17030456852792 Y5.947208121827411
G1 Z-0.1 F50
G3 X56.93401015228426 Y6.302030456852792 I-1.012690355329949 J-0.4213197969543147 F75
G3 X56.578680203045685 Y6.538071065989848 I-0.7766497461928934 J-0.7766497461928934
G3 X56.16243654822335 Y6.621827411167512 I-0.416243654822335 J-1
G3 X55.746192893401016 Y6.538071065989848 I0 J-1.0837563451776648
G3 X55.39340101522843 Y6.302030456852792 I0.4213197969543147 J-1.012690355329949
G3 X55.15482233502538 Y5.946700507614214 I0.7766497461928934 J-0.7766497461928934
G3 X55.07106598984771 Y5.530456852791879 I1 J-0.416243654822335
G3 X55.15482233502538 Y5.114213197969542 I1.0837563451776648 J0
G3 X55.39340101522843 Y4.761421319796954 I1.012690355329949 J0.4213197969543147
G3 X55.746192893401016 Y4.522842639593908 I0.7766497461928934 J0.7766497461928934
G3 X56.16243654822335 Y4.441624365482234 I0.416243654822335 J1
G3 X56.578680203045685 Y4.522842639593908 I0 J1.0837563451776648
G3 X56.93401015228426 Y4.761421319796954 I-0.4213197969543147 J1.012690355329949
G3 X57.17005076142132 Y5.114213197969542 I-0.7766497461928934 J0.7766497461928934
G3 X57.253807106598984 Y5.530456852791879 I-1 J0.416243654822335
G3 X57.17005076142132 Y5.946700507614214 I-1.0837563451776648 J0
G0 Z5
G0 X36.8497461928934 Y5.947208121827411
G1 Z-0.1 F50
G3 X36.611675126903556 Y6.302030456852792 I-1.012690355329949 J-0.4213197969543147 F75
G3 X36.25888324873097 Y6.538071065989848 I-0.7766497461928934 J-0.7766497461928934
G3 X35.84263959390863 Y6.621827411167512 I-0.416243654822335 J-1
G3 X35.42639593908629 Y6.538071065989848 I0 J-1.0837563451776648
G3 X35.07106598984771 Y6.302030456852792 I0.4213197969543147 J-1.012690355329949
G3 X34.83502538071066 Y5.946700507614214 I0.7766497461928934 J-0.7766497461928934
G3 X34.751269035533 Y5.530456852791879 I1 J-0.416243654822335
G3 X34.83502538071066 Y5.114213197969542 I1.0837563451776648 J0
G3 X35.07106598984771 Y4.761421319796954 I1.012690355329949 J0.4213197969543147
G3 X35.42639593908629 Y4.522842639593908 I0.7766497461928934 J0.7766497461928934
G3 X35.84263959390863 Y4.441624365482234 I0.416243654822335 J1
G3 X36.25888324873097 Y4.522842639593908 I0 J1.0837563451776648
G3 X36.611675126903556 Y4.761421319796954 I-0.4213197969543147 J1.012690355329949
G3 X36.8502538071066 Y5.114213197969542 I-0.7766497461928934 J0.7766497461928934
G3 X36.93401015228426 Y5.530456852791879 I-1 J0.416243654822335
G3 X36.8502538071066 Y5.946700507614214 I-1.0837563451776648 J0
G0 Z5
G0 X57.69492385786802 Y5.114720812182741
G1 Z-0.1 F50
G3 X57.931472081218274 Y4.761421319796954 I1.012690355329949 J0.4213197969543147 F75
G3 X58.286802030456855 Y4.522842639593908 I0.7766497461928934 J0.7766497461928934
G3 X58.70304568527919 Y4.441624365482234 I0.416243654822335 J1
G3 X59.119289340101524 Y4.522842639593908 I0 J1.0837563451776648
G3 X59.47208121827411 Y4.761421319796954 I-0.4213197969543147 J1.012690355329949
G3 X59.71065989847716 Y5.114213197969542 I-0.7766497461928934 J0.7766497461928934
G3 X59.79187817258883 Y5.530456852791879 I-1 J0.416243654822335
G3 X59.71065989847716 Y5.946700507614214 I-1.0837563451776648 J0
G3 X59.47208121827411 Y6.302030456852792 I-1.012690355329949 J-0.4213197969543147
G3 X59.119289340101524 Y6.538071065989848 I-0.7766497461928934 J-0.7766497461928934
G3 X58.70304568527919 Y6.621827411167512 I-0.416243654822335 J-1
G3 X58.286802030456855 Y6.538071065989848 I0 J-1.0837563451776648
G3 X57.931472081218274 Y6.302030456852792 I0.4213197969543147 J-1.012690355329949
G3 X57.69543147208122 Y5.946700507614214 I0.7766497461928934 J-0.7766497461928934
G3 X57.611675126903556 Y5.530456852791879 I1 J-0.416243654822335
G3 X57.69543147208122 Y5.114213197969542 I1.0837563451776648 J0
G0 Z5
G0 X69.63324873096447 Y4.760659898477157
G1 Z-0.1 F50
G3 X69.87055837563452 Y5.114213197969542 I-0.7766497461928934 J0.7766497461928934 F75
G3 X69.95431472081219 Y5.530456852791879 I-1 J0.416243654822335
G3 X69.87055837563452 Y5.946700507614214 I-1.0837563451776648 J0
G3 X69.63451776649747 Y6.302030456852792 I-1.012690355329949 J-0.4213197969543147
G3 X69.27918781725889 Y6.538071065989848 I-0.7766497461928934 J-0.7766497461928934
G3 X68.86294416243655 Y6.621827411167512 I-0.416243654822335 J-1
G3 X68.44670050761421 Y6.538071065989848 I0 J-1.0837563451776648
G3 X68.09137055837564 Y6.302030456852792 I0.4213197969543147 J-1.012690355329949
G3 X67.85532994923858 Y5.946700507614214 I0.7766497461928934 J-0.7766497461928934
G3 X67.77157360406092 Y5.530456852791879 I1 J-0.416243654822335
G3 X67.85532994923858 Y5.114213197969542 I1.0837563451776648 J0
G3 X68.09137055837564 Y4.761421319796954 I1.012690355329949 J0.4213197969543147
G3 X68.44670050761421 Y4.522842639593908 I0.7766497461928934 J0.7766497461928934
G3 X68.86294416243655 Y4.441624365482234 I0.416243654822335 J1
G3 X69.27918781725889 Y4.522842639593908 I0 J1.0837563451776648
G3 X69.63451776649747 Y4.761421319796954 I-0.4213197969543147 J1.012690355329949
G0 Z5
M5
M30
