(Generated by PartKam Version 0.05)

G21 G90 G40

(large BNC)
G0 Z5
T0 M6
G17
M3
G0 X16.30228426395939 Y4.931218274111675
G1 Z-2 F50
G1 Z0 F50
G1 Z-4 F50
G1 Z0 F50
G0 Z5
G0 X6.1421319796954315 Y4.931218274111675
G1 Z-2 F50
G1 Z0 F50
G1 Z-4 F50
G1 Z0 F50
G0 Z5
G0 X3.6822335025380712 Y16.471065989847716
G1 Z-2 F50
G1 Z0 F50
G1 Z-4 F50
G1 Z0 F50
G0 Z5
G0 X3.6822335025380712 Y26.631218274111674
G1 Z-2 F50
G1 Z0 F50
G1 Z-4 F50
G1 Z0 F50
G0 Z5
G0 X3.6822335025380712 Y33.471065989847716
G1 Z-2 F50
G1 Z0 F50
G1 Z-4 F50
G1 Z0 F50
G0 Z5
G0 X3.6822335025380712 Y43.631218274111674
G1 Z-2 F50
G1 Z0 F50
G1 Z-4 F50
G1 Z0 F50
G0 Z5
G0 X7.222335025380711 Y55.091116751269034
G1 Z-2 F50
G1 Z0 F50
G1 Z-4 F50
G1 Z0 F50
G0 Z5
G0 X17.38223350253807 Y55.091116751269034
G1 Z-2 F50
G1 Z0 F50
G1 Z-4 F50
G1 Z0 F50
G0 Z5
M5
M30
