(Generated by PartKam Version 0.05)

G21 G90 G40

(traces vbit)
G0 Z3
T0 M6
G17
M3
G0 X88.02563451776649 Y3.213705583756345
G1 Z-0.1 F40
G1 X87.99238578680203 Y43.94923857868021 F75
G3 X88.14974619289339 Y44.04822335025381 I-0.5634517766497462 J1.0786802030456852
G3 X88.40862944162437 Y44.307106598984774 I-0.7208121827411168 J0.9822335025380711
G3 X88.58121827411168 Y44.64213197969543 I-0.9619289340101522 J0.7081218274111676
G3 X88.63959390862945 Y45.01015228426396 I-1.1218274111675126 J0.37055837563451777
G3 X88.5482233502538 Y45.46954314720813 I-1.1903553299492384 J0
G3 X88.28680203045685 Y45.860406091370564 I-1.116751269035533 J-0.46700507614213194
G3 X87.89593908629442 Y46.12182741116751 I-0.8553299492385786 J-0.8578680203045685
G3 X87.43654822335026 Y46.213197969543145 I-0.4593908629441624 J-1.1015228426395938
G3 X86.97969543147208 Y46.12182741116751 I0 J-1.1928934010152283
G3 X86.58883248730965 Y45.860406091370564 I0.46446700507614214 J-1.116751269035533
G3 X86.3274111675127 Y45.46954314720813 I0.8553299492385786 J-0.8553299492385786
G3 X86.23604060913706 Y45.01015228426396 I1.1015228426395938 J-0.4593908629441624
G3 X86.29441624365482 Y44.639593908629436 I1.1852791878172588 J0
G3 X86.46700507614213 Y44.307106598984774 I1.134517766497462 J0.3730964467005076
G3 X86.72842639593908 Y44.04568527918782 I0.9796954314720813 J0.7208121827411168
G3 X86.88324873096447 Y43.94923857868021 I0.7182741116751269 J0.9796954314720813
G1 X86.91624365482234 Y3.6370558375634516
G1 X81.51269035532994 Y3.3984771573604062
G1 X83.5228426395939 Y8.715736040609137
G3 X83.78934010152284 Y8.789340101522843 I-0.17512690355329952 J1.1649746192893402
G3 X84.16751269035532 Y9.038071065989847 I-0.434010152284264 J1.0710659898477157
G3 X84.41878172588832 Y9.411167512690355 I-0.8071065989847716 J0.817258883248731
G3 X84.50761421319797 Y9.850253807106599 I-1.050761421319797 J0.4390862944162437
G3 X84.42131979695432 Y10.289340101522843 I-1.1421319796954315 J0
G3 X84.17005076142132 Y10.66497461928934 I-1.0685279187817258 J-0.44416243654822335
G3 X83.79695431472081 Y10.913705583756347 I-0.817258883248731 J-0.8197969543147209
G3 X83.35786802030456 Y11.00253807106599 I-0.4390862944162437 J-1.0558375634517767
G3 X82.91878172588832 Y10.913705583756347 I0 J-1.1446700507614214
G3 X82.54568527918781 Y10.66497461928934 I0.44416243654822335 J-1.0685279187817258
G3 X82.29441624365481 Y10.289340101522843 I0.817258883248731 J-0.817258883248731
G3 X82.20812182741116 Y9.850253807106599 I1.0532994923857868 J-0.4390862944162437
G3 X82.23604060913706 Y9.601522842639593 I1.1243654822335025 J0
G3 X82.31725888324873 Y9.362944162436548 I1.1015228426395938 J0.2512690355329949
G3 X82.44416243654823 Y9.157360406091371 I1.0406091370558377 J0.5
G3 X82.48477157360406 Y9.109137055837564 I0.9441624365482233 J0.7284263959390863
G1 X80.31725888324873 Y3.3730964467005076
G1 X72.39340101522843 Y3.5736040609137056
G1 X72.39340101522843 Y13.007614213197968
G1 X72.39340101522843 Y13.01269035532995
G3 X72.3756345177665 Y13.149746192893401 I-0.5558375634517766 J0
G3 X72.31979695431473 Y13.286802030456853 I-0.5380710659898478 J-0.13959390862944163
G3 X72.22842639593908 Y13.403553299492385 I-0.48223350253807107 J-0.2766497461928934
G3 X72.11167512690355 Y13.49492385786802 I-0.3908629441624366 J-0.3934010152284264
G3 X71.9746192893401 Y13.548223350253807 I-0.27411167512690354 J-0.48223350253807107
G3 X71.8248730964467 Y13.565989847715736 I-0.13705583756345177 J-0.5380710659898478
G3 X71.78680203045685 Y13.563451776649746 I0.015228426395939087 J-0.5558375634517766
G1 X71.7715736040609 Y13.560913705583758
G1 X65.39340101522842 Y13.560913705583758
G1 X65.39340101522842 Y25.47969543147208
G1 X70.75634517766497 Y25.47969543147208
G3 X70.81725888324873 Y25.47969543147208 I0.03299492385786802 J0.5532994923857868
G3 X70.90355329949239 Y25.492385786802032 I-0.030456852791878174 J0.5532994923857868
G1 X74.83248730964468 Y26.436548223350258
G3 X74.95685279187818 Y26.454314720812185 I-0.017766497461928935 J0.5532994923857868
G3 X75.10659898477157 Y26.52030456852792 I-0.14213197969543148 J0.5355329949238579
G3 X75.23350253807106 Y26.626903553299492 I-0.29441624365482233 J0.46954314720812185
G3 X75.31725888324873 Y26.756345177664972 I-0.41878172588832485 J0.3629441624365482
G3 X75.36294416243655 Y26.890862944162436 I-0.49492385786802034 J0.24873096446700507
G3 X75.3756345177665 Y27.00507614213198 I-0.5431472081218274 J0.11421319796954314
G1 X75.3756345177665 Y27.00507614213198
G1 X75.76395939086295 Y29.880710659898476
G3 X75.96700507614213 Y29.977157360406093 I-0.4086294416243655 J1.1243654822335025
G3 X76.27918781725889 Y30.243654822335024 I-0.6218274111675127 J1.0456852791878173
G3 X76.48730964467005 Y30.60406091370558 I-0.9238578680203046 J0.7741116751269035
G3 X76.56091370558376 Y31.01015228426396 I-1.119289340101523 J0.4086294416243655
G3 X76.46700507614213 Y31.46954314720812 I-1.1928934010152283 J0
G3 X76.20558375634518 Y31.860406091370557 I-1.119289340101523 J-0.46700507614213194
G3 X75.81472081218274 Y32.121827411167516 I-0.8578680203045685 J-0.8553299492385786
G3 X75.35786802030456 Y32.213197969543145 I-0.4593908629441624 J-1.098984771573604
G3 X74.8984771573604 Y32.121827411167516 I0 J-1.1903553299492384
G3 X74.50761421319797 Y31.860406091370557 I0.46700507614213194 J-1.116751269035533
G3 X74.24619289340102 Y31.46954314720812 I0.8578680203045685 J-0.8553299492385786
G3 X74.15482233502539 Y31.01015228426396 I1.1015228426395938 J-0.4593908629441624
G3 X74.20304568527919 Y30.677664974619287 I1.1802030456852792 J0
G3 X74.34263959390863 Y30.373096446700508 I1.1421319796954315 J0.3350253807106599
G3 X74.55329949238578 Y30.124365482233504 I1.0228426395939085 J0.6548223350253807
G3 X74.66497461928934 Y30.035532994923855 I0.8223350253807106 J0.9137055837563451
G1 X74.31725888324874 Y27.45431472081218
G1 X70.7284263959391 Y26.588832487309645
G1 X65.43654822335026 Y26.588832487309645
G1 X65.6751269035533 Y29.911167512690355
G3 X65.85532994923858 Y30.01015228426396 I-0.48223350253807107 J1.1091370558375635
G3 X66.14213197969544 Y30.271573604060915 I-0.6675126903553299 J1.017766497461929
G3 X66.33248730964466 Y30.621827411167516 I-0.9390862944162437 J0.7436548223350253
G3 X66.4010152284264 Y31.01015228426396 I-1.116751269035533 J0.3908629441624366
G3 X66.30710659898477 Y31.46954314720812 I-1.1928934010152283 J0
G3 X66.04568527918782 Y31.860406091370557 I-1.119289340101523 J-0.46700507614213194
G3 X65.65482233502539 Y32.121827411167516 I-0.8578680203045685 J-0.8553299492385786
G3 X65.19796954314721 Y32.213197969543145 I-0.4593908629441624 J-1.098984771573604
G3 X64.73857868020305 Y32.121827411167516 I0 J-1.1903553299492384
G3 X64.34771573604061 Y31.860406091370557 I0.46700507614213194 J-1.119289340101523
G3 X64.08629441624366 Y31.46954314720812 I0.8578680203045685 J-0.8578680203045685
G3 X63.99492385786802 Y31.01015228426396 I1.1015228426395938 J-0.4593908629441624
G3 X64.04314720812182 Y30.6751269035533 I1.182741116751269 J0
G3 X64.18781725888324 Y30.365482233502537 I1.1421319796954315 J0.3401015228426396
G3 X64.40355329949239 Y30.11421319796954 I1.0203045685279188 J0.6624365482233502
G3 X64.52030456852792 Y30.022842639593907 I0.8096446700507615 J0.9187817258883249
G1 X64.29187817258884 Y28.144670050761423
G3 X64.28680203045685 Y28.106598984771573 I0.5456852791878173 J-0.09644670050761422
G3 X64.28426395939086 Y28.065989847715738 I0.5507614213197969 J-0.05837563451776649
G3 X64.28426395939086 Y28.038071065989847 I0.5532994923857868 J-0.030456852791878174
G1 X64.28426395939086 Y28.01522842639594
G1 X64.28426395939086 Y13.00253807106599
G3 X64.28680203045685 Y12.969543147208123 I0.5558375634517766 J0.007614213197969543
G3 X64.28934010152284 Y12.944162436548224 I0.5532994923857868 J0.043147208121827416
G3 X64.29187817258884 Y12.916243654822335 I0.5507614213197969 J0.06091370558375635
G3 X64.2994923857868 Y12.883248730964468 I0.5482233502538071 J0.08883248730964467
G3 X64.31472081218274 Y12.82994923857868 I0.5406091370558376 J0.12690355329949238
G3 X64.33502538071066 Y12.779187817258883 I0.5253807106598986 J0.1802030456852792
G3 X64.34771573604061 Y12.753807106598984 I0.5050761421319797 J0.22842639593908629
G3 X64.36040609137055 Y12.728426395939085 I0.49238578680203043 J0.2563451776649746
G3 X64.40355329949239 Y12.664974619289339 I0.48223350253807107 J0.2766497461928934
G3 X64.45685279187816 Y12.606598984771573 I0.4390862944162437 J0.3401015228426396
G3 X64.49492385786802 Y12.573604060913706 I0.3807106598984772 J0.4035532994923858
G3 X64.53299492385787 Y12.545685279187817 I0.3451776649746193 J0.434010152284264
G1 X64.55329949238578 Y12.532994923857867
G3 X64.57868020304568 Y12.517766497461928 I0.2868020304568528 J0.47461928934010156
G3 X64.6015228426396 Y12.507614213197972 I0.25888324873096447 J0.48984771573604063
G1 X64.62182741116752 Y12.49746192893401
G3 X64.65482233502539 Y12.48477157360406 I0.21573604060913704 J0.5101522842639594
G3 X64.68527918781726 Y12.474619289340101 I0.18527918781725888 J0.5228426395939086
G3 X64.71319796954315 Y12.467005076142133 I0.15482233502538073 J0.5329949238578681
G3 X64.73857868020305 Y12.461928934010151 I0.12690355329949238 J0.5406091370558376
G3 X64.76649746192894 Y12.456852791878173 I0.10406091370558375 J0.5456852791878173
G3 X64.79695431472082 Y12.454314720812183 I0.07360406091370558 J0.5507614213197969
G1 X64.81725888324873 Y12.454314720812183
G1 X71.28172588832487 Y12.451776649746193
G1 X71.28172588832487 Y3.586294416243655
G1 X49.33502538071066 Y3.6015228426395938
G1 X49.23604060913705 Y4.652284263959391
G3 X49.329949238578685 Y4.728426395939087 I-0.6522842639593909 J0.901015228426396
G3 X49.51776649746193 Y4.951776649746193 I-0.7385786802030457 J0.817258883248731
G3 X49.64467005076142 Y5.230964467005076 I-0.9086294416243655 J0.5812182741116751
G3 X49.68781725888324 Y5.530456852791879 I-1.0304568527918783 J0.3020304568527919
G3 X49.60406091370558 Y5.946700507614214 I-1.0837563451776648 J0
G3 X49.36802030456853 Y6.302030456852792 I-1.012690355329949 J-0.4213197969543147
G3 X49.01269035532995 Y6.538071065989848 I-0.7766497461928934 J-0.7766497461928934
G3 X48.59644670050762 Y6.621827411167512 I-0.416243654822335 J-1
G3 X48.180203045685275 Y6.538071065989848 I0 J-1.0837563451776648
G3 X47.827411167512686 Y6.302030456852792 I0.4213197969543147 J-1.012690355329949
G3 X47.588832487309645 Y5.946700507614214 I0.7766497461928934 J-0.7766497461928934
G3 X47.50507614213198 Y5.530456852791879 I1 J-0.416243654822335
G3 X47.56345177664975 Y5.182741116751269 I1.0736040609137056 J0
G3 X47.733502538071065 Y4.870558375634518 I1.0253807106598984 J0.35025380710659904
G3 X47.98477157360406 Y4.634517766497462 I0.8730964467005076 J0.6751269035532994
G3 X48.13197969543147 Y4.548223350253807 I0.6192893401015229 J0.9086294416243655
G1 X48.276649746192895 Y2.9974619289340105
G3 X48.27918781725888 Y2.964467005076142 I0.5532994923857868 J0.045685279187817264
G3 X48.286802030456855 Y2.931472081218274 I0.5482233502538071 J0.07868020304568528
G3 X48.3020304568528 Y2.8730964467005076 I0.5431472081218274 J0.11421319796954314
G3 X48.3248730964467 Y2.814720812182741 I0.5279187817258884 J0.17512690355329952
G1 X48.33502538071066 Y2.7944162436548226
G1 X48.34517766497462 Y2.7741116751269033
G3 X48.441624365482234 Y2.6472081218274113 I0.4847715736040609 J0.2715736040609137
G3 X48.568527918781726 Y2.5532994923857864 I0.3883248730964467 J0.3959390862944162
G3 X48.71827411167513 Y2.5 I0.25888324873096447 J0.48984771573604063
G3 X48.86548223350254 Y2.4923857868020303 I0.10913705583756345 J0.5431472081218274
G1 X71.82233502538071 Y2.4771573604060917
G1 X80.66243654822335 Y2.253807106598985
G3 X80.69289340101523 Y2.253807106598985 I0.043147208121827416 J0.5532994923857868
G3 X80.73096446700507 Y2.253807106598985 I0.015228426395939087 J0.5558375634517766
G1 X87.37817258883248 Y2.545685279187817
G3 X87.497461928934 Y2.5380710659898478 I0.09390862944162437 J0.5456852791878173
G3 X87.65482233502539 Y2.5710659898477157 I-0.025380710659898477 J0.5532994923857868
G3 X87.7994923857868 Y2.6446700507614214 I-0.18527918781725888 J0.5228426395939086
G3 X87.90862944162436 Y2.753807106598985 I-0.32741116751269034 J0.4467005076142132
G3 X87.9771573604061 Y2.860406091370558 I-0.4289340101522843 J0.35279187817258884
G3 X88.02284263959392 Y2.984771573604061 I-0.49746192893401014 J0.24619289340101522
G3 X88.03553299492386 Y3.1065989847715736 I-0.5406091370558376 J0.1218274111675127
G1 X88.03553299492386 Y3.111675126903553
G3 X88.0253807106599 Y3.213197969543147 I-0.5558375634517766 J-0.005076142131979696
G0 Z3
G0 X79.66827411167513 Y59.04593908629442
G1 Z-0.1 F40
G1 X39.2994923857868 Y59.04568527918782 F75
G3 X39.263959390862944 Y59.04822335025381 I-0.07106598984771574 J-0.5507614213197969
G3 X39.203045685279186 Y59.05076142131979 I-0.03553299492385787 J-0.5532994923857868
G3 X38.99238578680203 Y58.997461928934015 I0.027918781725888325 J-0.5532994923857868
G3 X38.819796954314725 Y58.868020304568525 I0.23857868020304568 J-0.5
G3 X38.70812182741117 Y58.68274111675127 I0.4111675126903553 J-0.3730964467005076
G3 X38.6751269035533 Y58.494923857868024 I0.5228426395939086 J-0.18527918781725888
G1 X38.67766497461929 Y58.47208121827411
G1 X38.80964467005076 Y54.70812182741117
G3 X38.700507614213194 Y54.629441624365484 I0.5939086294416244 J-0.9238578680203046
G3 X38.49238578680203 Y54.39593908629441 I0.7055837563451777 J-0.8477157360406091
G3 X38.35532994923858 Y54.10659898477157 I0.901015228426396 J-0.6065989847715736
G3 X38.307106598984774 Y53.79187817258884 I1.0355329949238579 J-0.31725888324873097
G3 X38.390862944162436 Y53.3756345177665 I1.0837563451776648 J0
G3 X38.62690355329949 Y53.02030456852792 I1.012690355329949 J0.4213197969543147
G3 X38.98223350253807 Y52.78426395939086 I0.7766497461928934 J0.7766497461928934
G3 X39.398477157360404 Y52.7005076142132 I0.416243654822335 J1
G3 X39.81472081218274 Y52.78426395939086 I0 J1.0837563451776648
G3 X40.17005076142132 Y53.02030456852792 I-0.4213197969543147 J1.012690355329949
G3 X40.40609137055838 Y53.3756345177665 I-0.7766497461928934 J0.7766497461928934
G3 X40.48984771573604 Y53.79187817258884 I-1 J0.416243654822335
G3 X40.43654822335025 Y54.1243654822335 I-1.0761421319796955 J0
G3 X40.28172588832487 Y54.4263959390863 I-1.0279187817258884 J-0.3350253807106599
G3 X40.04822335025381 Y54.662436548223354 I-0.8883248730964467 J-0.6497461928934011
G3 X39.91878172588832 Y54.743654822335024 I-0.6573604060913706 J-0.883248730964467
G1 X39.80456852791878 Y57.93654822335025
G1 X79.4746192893401 Y57.93654822335025
G1 X82.23350253807106 Y54.809644670050766
G1 X82.23350253807106 Y46.99492385786802
G1 X82.2258883248731 Y42
G1 X82.21319796954316 Y37.076142131979694
G1 X70.46192893401015 Y37.076142131979694
G1 X70.54568527918781 Y37.477157360406096
G3 X70.7766497461929 Y37.568527918781726 I-0.32741116751269034 J1.1573604060913705
G3 X71.11675126903553 Y37.83248730964467 I-0.5609137055837563 J1.0786802030456852
G3 X71.34517766497461 Y38.20558375634518 I-0.8934010152284264 J0.8045685279187818
G3 X71.42639593908629 Y38.63197969543147 I-1.1040609137055837 J0.42639593908629436
G3 X71.33248730964466 Y39.088832487309645 I-1.1903553299492384 J0
G3 X71.07106598984772 Y39.47969543147208 I-1.116751269035533 J-0.46700507614213194
G3 X70.68020304568527 Y39.74111675126903 I-0.8553299492385786 J-0.8578680203045685
G3 X70.22335025380711 Y39.83248730964467 I-0.4593908629441624 J-1.1015228426395938
G3 X69.76395939086294 Y39.74111675126903 I0 J-1.1928934010152283
G3 X69.3730964467005 Y39.47969543147208 I0.46446700507614214 J-1.119289340101523
G3 X69.11167512690355 Y39.088832487309645 I0.8553299492385786 J-0.8553299492385786
G3 X69.02030456852792 Y38.63197969543147 I1.098984771573604 J-0.4593908629441624
G3 X69.06091370558376 Y38.31979695431472 I1.1802030456852792 J0
G3 X69.18527918781726 Y38.03045685279188 I1.1472081218274113 J0.3147208121827411
G3 X69.37055837563452 Y37.789340101522846 I1.0456852791878173 J0.616751269035533
G3 X69.45939086294416 Y37.70812182741117 I0.8756345177664975 J0.8705583756345179
G1 X69.3274111675127 Y37.076142131979694
G1 X44.23350253807107 Y37.076142131979694
G1 X44.15989847715736 Y37.578680203045685
G3 X44.27157360406091 Y37.66751269035533 I-0.7157360406091371 J0.9974619289340102
G3 X44.47969543147208 Y37.91624365482234 I-0.817258883248731 J0.8984771573604061
G3 X44.61675126903553 Y38.22081218274111 I-1.0050761421319796 J0.6395939086294417
G3 X44.66497461928934 Y38.5507614213198 I-1.134517766497462 J0.3299492385786802
G3 X44.57360406091371 Y39.01015228426396 I-1.1928934010152283 J0
G3 X44.31218274111675 Y39.401015228426395 I-1.119289340101523 J-0.46700507614213194
G3 X43.921319796954315 Y39.66243654822335 I-0.8578680203045685 J-0.8578680203045685
G3 X43.46192893401016 Y39.753807106598984 I-0.4593908629441624 J-1.1015228426395938
G3 X43.00253807106599 Y39.66243654822335 I0 J-1.1928934010152283
G3 X42.61421319796955 Y39.401015228426395 I0.46700507614213194 J-1.119289340101523
G3 X42.3502538071066 Y39.01015228426396 I0.8578680203045685 J-0.8578680203045685
G3 X42.25888324873097 Y38.5507614213198 I1.1015228426395938 J-0.4593908629441624
G3 X42.33248730964468 Y38.14213197969543 I1.1903553299492384 J0
G3 X42.54314720812182 Y37.77918781725888 I1.131979695431472 J0.4137055837563452
G3 X42.85786802030457 Y37.51522842639594 I0.9314720812182741 J0.7842639593908629
G3 X43.06345177664974 Y37.41878172588832 I0.6065989847715736 J1.032994923857868
G1 X43.19796954314721 Y36.45939086294416
G3 X43.20304568527919 Y36.42639593908629 I0.5507614213197969 J0.06345177664974619
G3 X43.21065989847716 Y36.398477157360404 I0.5456852791878173 J0.09898477157360405
G3 X43.28426395939086 Y36.21827411167513 I0.5431472081218274 J0.11675126903553298
G3 X43.41624365482233 Y36.076142131979694 I0.46700507614213194 J0.2969543147208122
G3 X43.588832487309645 Y35.98477157360406 I0.3375634517766497 J0.4416243654822335
G3 X43.78172588832487 Y35.96192893401015 I0.16243654822335027 J0.5304568527918782
G3 X43.81218274111675 Y35.964467005076145 I-0.03299492385786802 J0.5532994923857868
G1 X69.77664974619289 Y35.964467005076145
G1 X82.76649746192894 Y35.964467005076145
G3 X82.81979695431473 Y35.96700507614213 I0 J0.5558375634517766
G3 X82.8756345177665 Y35.977157360406096 I-0.05583756345177665 J0.5532994923857868
G3 X82.98223350253807 Y36.01015228426396 I-0.10913705583756345 J0.5431472081218274
G3 X83.07868020304568 Y36.06345177664974 I-0.21573604060913704 J0.5101522842639594
G3 X83.16497461928934 Y36.13451776649746 I-0.3147208121827411 J0.45685279187817257
G3 X83.23350253807106 Y36.22081218274112 I-0.3984771573604061 J0.3857868020304569
G3 X83.26142131979695 Y36.26903553299493 I-0.46700507614213194 J0.29949238578680204
G3 X83.28426395939087 Y36.319796954314725 I-0.49492385786802034 J0.2512690355329949
G3 X83.30710659898477 Y36.398477157360404 I-0.5177664974619289 J0.20050761421319796
G3 X83.31979695431473 Y36.48223350253807 I-0.5406091370558376 J0.1218274111675127
G1 X83.31979695431473 Y36.497461928934015
G1 X83.33502538071066 Y41.99746192893401
G1 X83.34263959390864 Y46.99492385786802
G1 X83.34263959390864 Y55.02030456852792
G1 X83.34263959390864 Y55.022842639593904
G3 X83.32994923857868 Y55.13705583756345 I-0.5558375634517766 J0
G3 X83.29441624365484 Y55.25126903553299 I-0.5431472081218274 J-0.11421319796954314
G3 X83.23350253807106 Y55.35532994923858 I-0.5050761421319797 J-0.22842639593908629
G3 X83.16497461928934 Y55.431472081218274 I-0.44416243654822335 J-0.33248730964467005
G1 X80.14213197969542 Y58.85532994923857
G3 X80.0507614213198 Y58.93908629441625 I-0.4213197969543147 J-0.3629441624365482
G3 X79.94416243654823 Y59.002538071065985 I-0.3299492385786802 J-0.4467005076142132
G3 X79.8248730964467 Y59.03807106598984 I-0.22081218274111675 J-0.5101522842639594
G3 X79.7005076142132 Y59.04822335025381 I-0.10152284263959391 J-0.5456852791878173
G3 X79.66751269035532 Y59.04568527918782 I0.022842639593908632 J-0.5532994923857868
G0 Z3
G0 X85.75964467005076 Y35.54720812182741
G1 Z-0.1 F40
G1 X45.85532994923858 Y35.54822335025381 F75
G1 X45.83502538071066 Y35.54822335025381
G3 X45.79187817258883 Y35.5507614213198 I-0.04060913705583757 J-0.5532994923857868
G3 X45.654822335025386 Y35.53299492385787 I0.002538071065989848 J-0.5558375634517766
G3 X45.525380710659896 Y35.48223350253807 I0.13959390862944163 J-0.5380710659898478
G3 X45.41370558375634 Y35.401015228426395 I0.2690355329949239 J-0.4847715736040609
G3 X45.327411167512686 Y35.296954314720814 I0.3807106598984772 J-0.4035532994923858
G3 X45.31218274111676 Y35.26903553299492 I0.46446700507614214 J-0.3020304568527919
G1 X45.30203045685279 Y35.253807106598984
G1 X43.54822335025381 Y32.13197969543147
G3 X43.51776649746193 Y32.13451776649747 I-0.030456852791878174 J-0.24873096446700507
G3 X43.05837563451776 Y32.04314720812183 I0 J-1.1903553299492384
G3 X42.66751269035532 Y31.779187817258887 I0.46700507614213194 J-1.119289340101523
G3 X42.40609137055838 Y31.388324873096444 I0.8578680203045685 J-0.8578680203045685
G3 X42.31472081218274 Y30.931472081218274 I1.1015228426395938 J-0.4593908629441624
G3 X42.40609137055838 Y30.472081218274113 I1.1928934010152283 J0
G3 X42.66751269035532 Y30.081218274111677 I1.119289340101523 J0.46700507614213194
G3 X43.05837563451776 Y29.819796954314718 I0.8578680203045685 J0.8578680203045685
G3 X43.51776649746193 Y29.728426395939085 I0.4593908629441624 J1.1015228426395938
G3 X43.974619289340104 Y29.819796954314718 I0 J1.1928934010152283
G3 X44.36548223350254 Y30.081218274111677 I-0.46700507614213194 J1.119289340101523
G3 X44.629441624365484 Y30.472081218274113 I-0.8578680203045685 J0.8578680203045685
G3 X44.72081218274112 Y30.931472081218274 I-1.1015228426395938 J0.4593908629441624
G3 X44.69796954314721 Y31.154822335025383 I-1.1725888324873095 J0
G3 X44.63451776649747 Y31.368020304568528 I-1.1573604060913705 J-0.2233502538071066
G3 X44.538071065989854 Y31.558375634517766 I-1.114213197969543 J-0.44923857868020306
G3 X44.52030456852792 Y31.586294416243653 I-1.0583756345177666 J-0.6649746192893401
G1 X46.11675126903553 Y34.43654822335026
G1 X85.27157360406092 Y34.43654822335026
G1 X85.27918781725889 Y18.444162436548226
G1 X84.2258883248731 Y18.220812182741117
G3 X84.1522842639594 Y18.299492385786802 I-0.8883248730964467 J-0.766497461928934
G3 X83.9238578680203 Y18.46954314720812 I-0.8045685279187818 J-0.83248730964467
G3 X83.65228426395939 Y18.583756345177665 I-0.5685279187817259 J-0.9873096446700508
G3 X83.35786802030456 Y18.621827411167512 I-0.29441624365482233 J-1.098984771573604
G3 X82.91878172588832 Y18.532994923857867 I0 J-1.1446700507614214
G3 X82.54568527918781 Y18.284263959390863 I0.44416243654822335 J-1.0685279187817258
G3 X82.29441624365481 Y17.911167512690355 I0.817258883248731 J-0.817258883248731
G3 X82.20812182741116 Y17.472081218274113 I1.0532994923857868 J-0.4390862944162437
G3 X82.29441624365481 Y17.032994923857867 I1.1421319796954315 J0
G3 X82.54568527918781 Y16.65989847715736 I1.0685279187817258 J0.44416243654822335
G3 X82.91878172588832 Y16.408629441624363 I0.817258883248731 J0.817258883248731
G3 X83.35786802030456 Y16.32233502538071 I0.4390862944162437 J1.0558375634517767
G3 X83.76142131979697 Y16.395939086294415 I0 J1.1370558375634519
G3 X84.11421319796955 Y16.609137055837564 I-0.4086294416243655 J1.0710659898477157
G3 X84.36802030456853 Y16.926395939086294 I-0.7690355329949239 J0.868020304568528
G3 X84.45431472081218 Y17.13705583756345 I-1.012690355329949 J0.5456852791878173
G1 X85.94416243654821 Y17.451776649746193
G3 X86.14213197969542 Y17.532994923857867 I-0.10659898477157359 J0.5456852791878173
G3 X86.29441624365482 Y17.68020304568528 I-0.30456852791878175 J0.46446700507614214
G3 X86.38071065989848 Y17.875634517766496 I-0.45685279187817257 J0.3147208121827411
G3 X86.39340101522842 Y17.99492385786802 I-0.5406091370558376 J0.11928934010152284
G3 X86.38832487309644 Y18.065989847715734 I-0.5558375634517766 J0
G1 X86.38071065989848 Y34.99238578680203
G1 X86.38071065989848 Y34.994923857868024
G3 X86.38071065989848 Y35.0253807106599 I-0.5558375634517766 J0
G3 X86.37817258883248 Y35.06091370558376 I-0.5532994923857868 J-0.030456852791878174
G3 X86.31725888324873 Y35.253807106598984 I-0.5507614213197969 J-0.06345177664974619
G3 X86.19289340101523 Y35.41370558375634 I-0.49238578680203043 J-0.2563451776649746
G3 X86.01776649746192 Y35.517766497461935 I-0.3654822335025381 J-0.416243654822335
G3 X85.81472081218274 Y35.5507614213198 I-0.19289340101522845 J-0.5203045685279188
G3 X85.7741116751269 Y35.54822335025381 I0.015228426395939087 J-0.5558375634517766
G1 X85.75888324873097 Y35.54822335025381
G0 Z3
G0 X72.73274111675127 Y57.54010152284264
G1 Z-0.1 F40
G1 X41.87309644670051 Y57.54060913705584 F75
G3 X41.837563451776646 Y57.54314720812182 I-0.06852791878172589 J-0.5507614213197969
G3 X41.7741116751269 Y57.54314720812182 I-0.03299492385786802 J-0.5532994923857868
G3 X41.69035532994924 Y57.53299492385786 I0.030456852791878174 J-0.5532994923857868
G3 X41.619289340101524 Y57.51269035532995 I0.11421319796954314 J-0.5431472081218274
G3 X41.48984771573603 Y57.4492385786802 I0.17512690355329952 J-0.5279187817258884
G3 X41.37817258883249 Y57.35279187817259 I0.30456852791878175 J-0.46446700507614214
G3 X41.29695431472081 Y57.23096446700508 I0.416243654822335 J-0.3680203045685279
G3 X41.248730964467 Y57.09390862944162 I0.49746192893401014 J-0.24619289340101522
G3 X41.23857868020305 Y56.984771573604064 I0.5431472081218274 J-0.10913705583756345
G3 X41.24111675126904 Y56.9492385786802 I0.5558375634517766 J0
G3 X41.25634517766497 Y56.845177664974614 I0.5532994923857868 J0.03553299492385787
G1 X41.345177664974614 Y54.70558375634518
G3 X41.23857868020305 Y54.62436548223351 I0.5964467005076142 J-0.9187817258883249
G3 X41.03045685279188 Y54.39340101522842 I0.7081218274111676 J-0.8426395939086294
G3 X40.89340101522843 Y54.10659898477157 I0.9035532994923857 J-0.6040609137055838
G3 X40.84771573604061 Y53.79187817258884 I1.0380710659898478 J-0.3147208121827411
G3 X40.931472081218274 Y53.3756345177665 I1.0837563451776648 J0
G3 X41.16751269035533 Y53.02030456852792 I1.012690355329949 J0.4213197969543147
G3 X41.52284263959391 Y52.78426395939086 I0.7766497461928934 J0.7741116751269035
G3 X41.93908629441624 Y52.7005076142132 I0.416243654822335 J1
G3 X42.35532994923858 Y52.78426395939086 I0 J1.0837563451776648
G3 X42.70812182741117 Y53.02030456852792 I-0.4213197969543147 J1.012690355329949
G3 X42.94670050761422 Y53.3756345177665 I-0.7766497461928934 J0.7766497461928934
G3 X43.03045685279188 Y53.79187817258884 I-1 J0.416243654822335
G3 X42.9746192893401 Y54.12690355329949 I-1.0736040609137056 J0
G3 X42.819796954314725 Y54.42893401015229 I-1.0279187817258884 J-0.3375634517766497
G3 X42.58629441624365 Y54.662436548223354 I-0.8883248730964467 J-0.6522842639593909
G3 X42.454314720812185 Y54.746192893401016 I-0.6548223350253807 J-0.8883248730964467
G1 X42.38324873096447 Y56.431472081218274
G1 X72.24873096446701 Y56.431472081218274
G1 X72.24873096446701 Y47.09390862944162
G3 X72.24873096446701 Y47.058375634517766 I0.5532994923857868 J-0.03553299492385787
G3 X72.251269035533 Y47 I0.5558375634517766 J0
G3 X72.27157360406092 Y46.898477157360404 I0.5507614213197969 J0.06091370558375635
G1 X74.46700507614213 Y39.49238578680203
G3 X74.4010152284264 Y39.421319796954315 I0.8553299492385786 J-0.883248730964467
G3 X74.24111675126903 Y39.19035532994924 I0.9086294416243655 J-0.799492385786802
G3 X74.13705583756345 Y38.91878172588832 I1.0482233502538072 J-0.5609137055837563
G3 X74.1015228426396 Y38.63197969543147 I1.1497461928934012 J-0.2893401015228426
G3 X74.19289340101523 Y38.17258883248731 I1.1928934010152283 J0
G3 X74.45431472081219 Y37.78172588832487 I1.119289340101523 J0.46446700507614214
G3 X74.84263959390863 Y37.52030456852792 I0.8578680203045685 J0.8553299492385786
G3 X75.30203045685279 Y37.42893401015229 I0.4593908629441624 J1.098984771573604
G3 X75.76142131979695 Y37.52030456852792 I0 J1.1903553299492384
G3 X76.15228426395939 Y37.78172588832487 I-0.46700507614213194 J1.119289340101523
G3 X76.41370558375635 Y38.17258883248731 I-0.8578680203045685 J0.8578680203045685
G3 X76.50507614213198 Y38.63197969543147 I-1.1015228426395938 J0.4593908629441624
G3 X76.41624365482232 Y39.078680203045685 I-1.1878172588832487 J0
G3 X76.16497461928934 Y39.46446700507614 I-1.114213197969543 J-0.45431472081218277
G3 X75.79187817258882 Y39.7258883248731 I-0.8705583756345179 J-0.8451776649746192
G3 X75.53045685279189 Y39.80710659898477 I-0.48984771573604063 J-1.0939086294416243
G1 X73.35786802030456 Y47.13705583756345
G1 X73.35786802030456 Y56.86548223350254
G3 X73.37055837563452 Y56.984771573604064 I-0.5431472081218274 J0.11928934010152284
G3 X73.37055837563452 Y57.03299492385787 I-0.5558375634517766 J0
G3 X73.31218274111676 Y57.23604060913706 I-0.5532994923857868 J-0.04822335025380711
G3 X73.18274111675126 Y57.401015228426395 I-0.49492385786802034 J-0.2512690355329949
G3 X73.01269035532995 Y57.50507614213198 I-0.3680203045685279 J-0.416243654822335
G3 X72.90609137055837 Y57.535532994923855 I-0.21065989847715735 J-0.5126903553299492
G3 X72.79441624365482 Y57.545685279187815 I-0.10406091370558375 J-0.5456852791878173
G3 X72.748730964467 Y57.54314720812182 I0.015228426395939087 J-0.5558375634517766
G1 X72.73350253807106 Y57.54060913705584
G0 Z3
G0 X69.66675126903553 Y51.58197969543147
G1 Z-0.1 F40
G1 X51.840101522842644 Y51.58121827411168 F75
G1 X51.81725888324873 Y51.58375634517767
G3 X51.766497461928935 Y51.58375634517767 I-0.030456852791878174 J-0.5532994923857868
G3 X51.72842639593909 Y51.58121827411168 I0.025380710659898477 J-0.5532994923857868
G3 X51.6979695431472 Y51.576142131979694 I0.06345177664974619 J-0.5507614213197969
G3 X51.52284263959391 Y51.52284263959391 I0.07360406091370558 J-0.5507614213197969
G3 X51.39340101522842 Y51.431472081218274 I0.24873096446700507 J-0.49746192893401014
G1 X49.33502538071066 Y50.06345177664975
G3 X49.15736040609137 Y50.14467005076142 I-0.583756345177665 J-1.0482233502538072
G3 X48.96192893401015 Y50.19543147208122 I-0.3959390862944162 J-1.1040609137055837
G3 X48.76142131979695 Y50.21319796954315 I-0.20050761421319796 J-1.1395939086294418
G3 X48.304568527918775 Y50.121827411167516 I0 J-1.1903553299492384
G3 X47.91370558375634 Y49.86040609137056 I0.46700507614213194 J-1.119289340101523
G3 X47.652284263959395 Y49.46954314720812 I0.8578680203045685 J-0.8578680203045685
G3 X47.56091370558376 Y49.01015228426396 I1.1015228426395938 J-0.4593908629441624
G3 X47.652284263959395 Y48.55329949238579 I1.1928934010152283 J0
G3 X47.91370558375634 Y48.162436548223354 I1.119289340101523 J0.46700507614213194
G3 X48.304568527918775 Y47.901015228426395 I0.8578680203045685 J0.8578680203045685
G3 X48.76142131979695 Y47.807106598984774 I0.4593908629441624 J1.1015228426395938
G3 X49.22081218274112 Y47.901015228426395 I0 J1.1928934010152283
G3 X49.611675126903556 Y48.162436548223354 I-0.46700507614213194 J1.119289340101523
G3 X49.8730964467005 Y48.55329949238579 I-0.8578680203045685 J0.8578680203045685
G3 X49.964467005076145 Y49.01015228426396 I-1.1015228426395938 J0.4593908629441624
G3 X49.96192893401015 Y49.04822335025381 I-0.2512690355329949 J0
G1 X49.9492385786802 Y49.13705583756345
G1 X51.954314720812185 Y50.472081218274106
G1 X69.29695431472081 Y50.472081218274106
G1 X71.96954314720811 Y39.53299492385787
G3 X71.88832487309645 Y39.454314720812185 I0.8096446700507615 J-0.9213197969543147
G3 X71.71319796954315 Y39.21573604060914 I0.8807106598984772 J-0.8350253807106599
G3 X71.59898477157361 Y38.934010152284266 I1.0355329949238579 J-0.5862944162436547
G3 X71.56091370558376 Y38.63197969543147 I1.1446700507614214 J-0.3020304568527919
G3 X71.65228426395939 Y38.17258883248731 I1.1903553299492384 J0
G3 X71.91370558375635 Y37.78172588832487 I1.119289340101523 J0.46700507614213194
G3 X72.30456852791878 Y37.52030456852792 I0.8578680203045685 J0.8578680203045685
G3 X72.76395939086294 Y37.42893401015229 I0.4593908629441624 J1.098984771573604
G3 X73.22081218274111 Y37.52030456852792 I0 J1.1903553299492384
G3 X73.61167512690355 Y37.78172588832487 I-0.46700507614213194 J1.116751269035533
G3 X73.87309644670052 Y38.17258883248731 I-0.8578680203045685 J0.8553299492385786
G3 X73.96446700507613 Y38.63197969543147 I-1.1015228426395938 J0.4593908629441624
G3 X73.88071065989847 Y39.065989847715734 I-1.1852791878172588 J0
G3 X73.64467005076142 Y39.444162436548226 I-1.116751269035533 J-0.4416243654822335
G3 X73.28934010152284 Y39.70558375634518 I-0.8883248730964467 J-0.8248730964467005
G3 X73.0482233502538 Y39.79441624365482 I-0.5304568527918782 J-1.0786802030456852
G1 X70.30203045685279 Y51.04060913705584
G3 X70.27918781725889 Y51.18527918781726 I-0.5558375634517766 J-0.012690355329949238
G3 X70.19289340101523 Y51.35532994923857 I-0.5304568527918782 J-0.1598984771573604
G3 X70.05837563451776 Y51.484771573604064 I-0.4467005076142132 J-0.32741116751269034
G3 X69.89340101522843 Y51.56091370558376 I-0.31218274111675126 J-0.4593908629441624
G3 X69.82994923857868 Y51.576142131979694 I-0.1649746192893401 J-0.5304568527918782
G3 X69.75380710659898 Y51.58629441624366 I-0.10152284263959391 J-0.5456852791878173
G3 X69.7258883248731 Y51.58629441624366 I-0.017766497461928935 J-0.5532994923857868
G1 X69.70304568527919 Y51.58375634517767
G3 X69.66751269035532 Y51.58121827411168 I0.027918781725888325 J-0.5532994923857868
G0 Z3
G0 X57.3746192893401 Y16.395177664974618
G1 Z-0.1 F40
G1 X43.654822335025386 Y10.568527918781726 F75
G3 X43.53807106598985 Y10.52030456852792 I0.15482233502538073 J-0.5329949238578681
G3 X43.423857868020306 Y10.436548223350254 I0.2690355329949239 J-0.4847715736040609
G3 X43.33756345177665 Y10.33248730964467 I0.3756345177664975 J-0.4086294416243655
G3 X43.276649746192895 Y10.210659898477157 I0.46446700507614214 J-0.30456852791878175
G3 X43.24873096446701 Y10.078680203045685 I0.5228426395939086 J-0.18274111675126906
G3 X43.246192893401016 Y10.027918781725889 I0.5532994923857868 J-0.050761421319796954
G3 X43.24873096446701 Y9.974619289340103 I0.5558375634517766 J0
G1 X43.022842639593904 Y6.49746192893401
G3 X42.88578680203046 Y6.413705583756345 I0.5025380710659898 J-0.9822335025380711
G3 X42.64467005076142 Y6.177664974619289 I0.6395939086294417 J-0.8959390862944162
G3 X42.482233502538065 Y5.870558375634518 I0.8654822335025381 J-0.6497461928934011
G3 X42.42639593908629 Y5.530456852791879 I1.017766497461929 J-0.3401015228426396
G3 X42.51015228426396 Y5.114213197969542 I1.0837563451776648 J0
G3 X42.74873096446701 Y4.761421319796954 I1.012690355329949 J0.4213197969543147
G3 X43.101522842639596 Y4.522842639593908 I0.7766497461928934 J0.7766497461928934
G3 X43.51776649746193 Y4.441624365482234 I0.416243654822335 J1
G3 X43.934010152284266 Y4.522842639593908 I0 J1.0837563451776648
G3 X44.28934010152284 Y4.761421319796954 I-0.4213197969543147 J1.012690355329949
G3 X44.5253807106599 Y5.114213197969542 I-0.7766497461928934 J0.7766497461928934
G3 X44.609137055837564 Y5.530456852791879 I-1 J0.416243654822335
G3 X44.56345177664975 Y5.84010152284264 I-1.0786802030456852 J0
G3 X44.431472081218274 Y6.124365482233502 I-1.0380710659898478 J-0.30964467005076146
G3 X44.23350253807107 Y6.3502538071066 I-0.9213197969543147 J-0.6040609137055838
G3 X44.131979695431475 Y6.428934010152284 I-0.7233502538071066 J-0.8350253807106599
G1 X44.340101522842644 Y9.652284263959391
G1 X57.98730964467005 Y15.449238578680202
G3 X58.03807106598985 Y15.408629441624367 I0.7969543147208122 J0.9593908629441625
G3 X58.24873096446701 Y15.284263959390863 I0.7208121827411168 J0.967005076142132
G3 X58.49238578680203 Y15.2005076142132 I0.5 J1.0710659898477157
G3 X58.748730964467 Y15.17258883248731 I0.25380710659898476 J1.1446700507614214
G3 X58.997461928934015 Y15.2005076142132 I0 J1.1776649746192893
G3 X59.23857868020305 Y15.279187817258883 I-0.2512690355329949 J1.1548223350253808
G3 X59.44670050761421 Y15.401015228426395 I-0.5 J1.0964467005076142
G3 X59.492385786802025 Y15.436548223350254 I-0.7309644670050762 J1.0050761421319796
G1 X60.61675126903553 Y14.936548223350254
G3 X60.70558375634518 Y14.553299492385786 I1.1903553299492384 J0.07360406091370558
G3 X60.96700507614213 Y14.162436548223349 I1.119289340101523 J0.46700507614213194
G3 X61.357868020304565 Y13.901015228426397 I0.8578680203045685 J0.8553299492385786
G3 X61.81725888324873 Y13.80710659898477 I0.4593908629441624 J1.098984771573604
G3 X62.27664974619289 Y13.901015228426397 I0 J1.1903553299492384
G3 X62.66751269035532 Y14.162436548223349 I-0.46700507614213194 J1.119289340101523
G3 X62.92893401015228 Y14.553299492385786 I-0.8578680203045685 J0.8578680203045685
G3 X63.02030456852792 Y15.01015228426396 I-1.1015228426395938 J0.4593908629441624
G3 X62.92893401015228 Y15.469543147208123 I-1.1903553299492384 J0
G3 X62.66751269035532 Y15.860406091370558 I-1.116751269035533 J-0.46446700507614214
G3 X62.27664974619289 Y16.121827411167512 I-0.8553299492385786 J-0.8578680203045685
G3 X61.81725888324873 Y16.213197969543145 I-0.4593908629441624 J-1.1015228426395938
G3 X61.565989847715734 Y16.185279187817258 I0 J-1.1776649746192893
G3 X61.32741116751269 Y16.106598984771573 I0.2512690355329949 J-1.1548223350253808
G3 X61.119289340101524 Y15.984771573604062 I0.5 J-1.0964467005076142
G3 X61.07106598984772 Y15.949238578680202 I0.7309644670050762 J-1.0076142131979695
G1 X59.94670050761421 Y16.449238578680202
G3 X59.85786802030457 Y16.83502538071066 I-1.1903553299492384 J-0.07360406091370558
G3 X59.59644670050761 Y17.223350253807105 I-1.116751269035533 J-0.46446700507614214
G3 X59.20558375634518 Y17.48477157360406 I-0.8553299492385786 J-0.8578680203045685
G3 X58.748730964467 Y17.578680203045685 I-0.4593908629441624 J-1.1015228426395938
G3 X58.5 Y17.550761421319795 I0 J-1.182741116751269
G3 X58.26395939086295 Y17.4746192893401 I0.24873096446700507 J-1.1598984771573604
G3 X58.05837563451776 Y17.355329949238577 I0.49238578680203043 J-1.098984771573604
G3 X58.01269035532995 Y17.32233502538071 I0.7157360406091371 J-1.0076142131979695
G1 X51.40862944162436 Y20.35532994923858
G1 X51.66497461928934 Y29.85532994923858
G3 X51.829949238578685 Y29.95431472081218 I-0.5355329949238579 J1.0913705583756346
G3 X52.098984771573605 Y30.213197969543145 I-0.7005076142131981 J0.9949238578680203
G3 X52.27918781725889 Y30.55329949238579 I-0.9517766497461928 J0.7208121827411168
G3 X52.34010152284264 Y30.931472081218274 I-1.119289340101523 J0.3781725888324873
G3 X52.32741116751269 Y31.101522842639593 I-1.16751269035533 J0
G3 X52.28934010152284 Y31.269035532994923 I-1.1649746192893402 J-0.17258883248730966
G3 X52.24111675126903 Y31.403553299492387 I-1.1472081218274113 J-0.3451776649746193
G1 X53.11675126903553 Y32.47969543147208
G1 X66.48730964467005 Y32.47969543147208
G1 X66.80203045685279 Y31.761421319796955
G3 X66.76395939086294 Y31.713197969543145 I0.9644670050761421 J-0.7817258883248732
G3 X66.64213197969544 Y31.50253807106599 I0.9720812182741116 J-0.7106598984771574
G3 X66.56091370558376 Y31.261421319796952 I1.0761421319796955 J-0.49238578680203043
G3 X66.53553299492386 Y31.01015228426396 I1.1522842639593909 J-0.2512690355329949
G3 X66.62690355329948 Y30.55329949238579 I1.1928934010152283 J0
G3 X66.88832487309645 Y30.162436548223347 I1.119289340101523 J0.46700507614213194
G3 X67.27918781725889 Y29.901015228426395 I0.8578680203045685 J0.8578680203045685
G3 X67.55583756345177 Y29.82233502538071 I0.4593908629441624 J1.1015228426395938
G1 X68.22335025380711 Y27.972081218274113
G3 X68.24365482233502 Y27.878172588832484 I0.5507614213197969 J0.07360406091370558
G3 X68.2994923857868 Y27.753807106598988 I0.5279187817258884 J0.16751269035532995
G3 X68.38578680203045 Y27.64720812182741 I0.47208121827411165 J0.2918781725888325
G3 X68.48730964467005 Y27.568527918781726 I0.3857868020304569 J0.3984771573604061
G3 X68.58375634517768 Y27.52030456852792 I0.3020304568527919 J0.46700507614213194
G3 X68.69543147208121 Y27.48730964467005 I0.20558375634517764 J0.5152284263959391
G3 X68.81218274111676 Y27.482233502538072 I0.09137055837563453 J0.5482233502538071
G3 X68.89340101522842 Y27.48984771573604 I-0.025380710659898477 J0.5532994923857868
G1 X71.79187817258884 Y27.48984771573604
G3 X71.8527918781726 Y27.48984771573604 I0.043147208121827416 J0.5532994923857868
G3 X71.91370558375635 Y27.49492385786802 I-0.015228426395939087 J0.5558375634517766
G3 X72.1015228426396 Y27.550761421319798 I-0.06345177664974619 J0.5507614213197969
G3 X72.25888324873097 Y27.67005076142132 I-0.2512690355329949 J0.49492385786802034
G3 X72.36294416243655 Y27.835025380710658 I-0.4086294416243655 J0.3756345177664975
G3 X72.40101522842639 Y27.98477157360406 I-0.5126903553299492 J0.21065989847715735
G1 X73.01015228426395 Y29.8248730964467
G3 X73.28172588832487 Y29.903553299492387 I-0.19289340101522845 J1.1776649746192893
G3 X73.67005076142132 Y30.16497461928934 I-0.46954314720812185 J1.114213197969543
G3 X73.92893401015228 Y30.55329949238579 I-0.8578680203045685 J0.8527918781725887
G3 X74.02030456852792 Y31.01015228426396 I-1.1015228426395938 J0.45685279187817257
G3 X73.92893401015228 Y31.46954314720812 I-1.1928934010152283 J0
G3 X73.66751269035534 Y31.860406091370557 I-1.119289340101523 J-0.46446700507614214
G3 X73.2766497461929 Y32.121827411167516 I-0.8578680203045685 J-0.8553299492385786
G3 X72.81725888324873 Y32.213197969543145 I-0.4593908629441624 J-1.098984771573604
G3 X72.36040609137055 Y32.121827411167516 I0 J-1.1903553299492384
G3 X71.96954314720811 Y31.860406091370557 I0.46700507614213194 J-1.119289340101523
G3 X71.70558375634518 Y31.46954314720812 I0.8578680203045685 J-0.8578680203045685
G3 X71.61421319796955 Y31.01015228426396 I1.098984771573604 J-0.4593908629441624
G3 X71.6497461928934 Y30.730964467005077 I1.1776649746192893 J0
G3 X71.748730964467 Y30.467005076142133 I1.1497461928934012 J0.2817258883248731
G3 X71.8984771573604 Y30.243654822335024 I1.0736040609137056 J0.5558375634517766
G3 X71.95685279187816 Y30.17766497461929 I0.9467005076142132 J0.8020304568527918
G1 X71.43654822335026 Y28.598984771573605
G1 X69.17766497461929 Y28.598984771573605
G1 X68.61421319796955 Y30.195431472081218
G3 X68.66751269035534 Y30.256345177664976 I-0.9060913705583756 J0.850253807106599
G3 X68.81218274111676 Y30.47969543147208 I-0.9340101522842639 J0.766497461928934
G3 X68.90862944162437 Y30.738578680203045 I-1.0558375634517767 J0.5329949238578681
G3 X68.93908629441624 Y31.01015228426396 I-1.1446700507614214 J0.27411167512690354
G3 X68.84771573604061 Y31.46954314720812 I-1.1928934010152283 J0
G3 X68.58629441624365 Y31.860406091370557 I-1.119289340101523 J-0.46700507614213194
G3 X68.19543147208121 Y32.121827411167516 I-0.8578680203045685 J-0.8553299492385786
G3 X67.81725888324873 Y32.210659898477154 I-0.4593908629441624 J-1.098984771573604
G1 X67.40609137055839 Y33.14720812182741
G3 X67.36802030456853 Y33.263959390862944 I-0.5431472081218274 J-0.11421319796954314
G3 X67.27918781725889 Y33.401015228426395 I-0.5050761421319797 J-0.23096446700507614
G3 X67.15228426395939 Y33.50507614213198 I-0.416243654822335 J-0.3680203045685279
G3 X67.00761421319797 Y33.568527918781726 I-0.2893401015228426 J-0.47208121827411165
G3 X66.9238578680203 Y33.58629441624365 I-0.16243654822335027 J-0.5304568527918782
G3 X66.8274111675127 Y33.59137055837564 I-0.07868020304568528 J-0.5482233502538071
G3 X66.78680203045685 Y33.588832487309645 I0.022842639593908632 J-0.5532994923857868
G1 X52.91878172588832 Y33.588832487309645
G3 X52.890862944162436 Y33.588832487309645 I-0.06091370558375635 J-0.5507614213197969
G3 X52.84010152284264 Y33.59137055837564 I-0.03299492385786802 J-0.5532994923857868
G3 X52.78426395939086 Y33.58629441624365 I0.015228426395939087 J-0.5558375634517766
G3 X52.733502538071065 Y33.576142131979694 I0.07360406091370558 J-0.5507614213197969
G3 X52.611675126903556 Y33.53807106598985 I0.10659898477157359 J-0.5456852791878173
G3 X52.49746192893401 Y33.46954314720812 I0.22842639593908629 J-0.5050761421319797
G3 X52.40355329949239 Y33.3756345177665 I0.3426395939086294 J-0.4365482233502538
G3 X52.3502538071066 Y33.29441624365482 I0.4365482233502538 J-0.3426395939086294
G1 X51.370558375634516 Y32.09390862944162
G1 X51.18527918781726 Y32.129441624365484
G3 X51.10406091370558 Y32.13197969543147 I-0.04822335025380711 J-0.24619289340101522
G1 X51.03807106598985 Y32.121827411167516
G1 X50.33248730964467 Y33.23096446700508
G3 X50.28934010152284 Y33.32233502538071 I-0.5177664974619289 J-0.1979695431472081
G3 X50.2005076142132 Y33.431472081218274 I-0.47461928934010156 J-0.2893401015228426
G3 X50.088832487309645 Y33.515228426395936 I-0.3857868020304569 J-0.3984771573604061
G3 X49.96700507614214 Y33.565989847715734 I-0.27411167512690354 J-0.48223350253807107
G3 X49.89340101522843 Y33.58375634517766 I-0.16751269035532995 J-0.5279187817258884
G3 X49.807106598984774 Y33.59137055837564 I-0.09390862944162437 J-0.5456852791878173
G3 X49.756345177664976 Y33.59137055837564 I-0.007614213197969543 J-0.5558375634517766
G3 X49.73096446700508 Y33.588832487309645 I0.043147208121827416 J-0.5532994923857868
G1 X47.85279187817259 Y33.588832487309645
G3 X47.827411167512686 Y33.588832487309645 I-0.06091370558375635 J-0.5507614213197969
G3 X47.78172588832487 Y33.59137055837564 I-0.03553299492385787 J-0.5532994923857868
G3 X47.72335025380711 Y33.58629441624365 I0.010152284263959392 J-0.5558375634517766
G3 X47.675126903553306 Y33.578680203045685 I0.07106598984771574 J-0.5507614213197969
G3 X47.5507614213198 Y33.53807106598985 I0.10406091370558375 J-0.5456852791878173
G3 X47.43654822335025 Y33.46954314720812 I0.22842639593908629 J-0.5050761421319797
G3 X47.34263959390863 Y33.37817258883249 I0.3401015228426396 J-0.4365482233502538
G3 X47.29187817258883 Y33.299492385786806 I0.434010152284264 J-0.3451776649746193
G1 X46.29695431472081 Y32.09137055837564
G1 X46.10406091370558 Y32.129441624365484
G3 X46.05837563451777 Y32.13451776649747 I-0.04822335025380711 J-0.24619289340101522
G3 X45.598984771573605 Y32.04314720812183 I0 J-1.1903553299492384
G3 X45.20812182741117 Y31.779187817258887 I0.46700507614213194 J-1.119289340101523
G3 X44.94670050761421 Y31.388324873096444 I0.8578680203045685 J-0.8578680203045685
G3 X44.85532994923858 Y30.931472081218274 I1.1015228426395938 J-0.4593908629441624
G3 X44.90862944162436 Y30.581218274111674 I1.1903553299492384 J0
G3 X45.06091370558376 Y30.261421319796952 I1.1472081218274113 J0.35279187817258884
G3 X45.29187817258883 Y30.00507614213198 I1.0076142131979695 J0.6827411167512689
G3 X45.4238578680203 Y29.911167512690355 I0.7715736040609138 J0.9314720812182741
G1 X45.319796954314725 Y28.53553299492386
G1 X41.39340101522842 Y28.53553299492386
G1 X41.46954314720812 Y29.840101522842637
G3 X41.64467005076142 Y29.93654822335025 I-0.49746192893401014 J1.1040609137055837
G3 X41.9263959390863 Y30.19796954314721 I-0.6776649746192893 J1.0101522842639594
G3 X42.11421319796954 Y30.54568527918782 I-0.9441624365482233 J0.7360406091370558
G3 X42.180203045685275 Y30.931472081218274 I-1.119289340101523 J0.3857868020304569
G3 X42.088832487309645 Y31.388324873096444 I-1.1928934010152283 J0
G3 X41.82741116751269 Y31.779187817258887 I-1.119289340101523 J-0.46700507614213194
G3 X41.43654822335026 Y32.04314720812183 I-0.8578680203045685 J-0.8553299492385786
G3 X40.97715736040609 Y32.13451776649747 I-0.4593908629441624 J-1.098984771573604
G3 X40.517766497461935 Y32.04314720812183 I0 J-1.1903553299492384
G3 X40.12944162436548 Y31.779187817258887 I0.46700507614213194 J-1.116751269035533
G3 X39.86802030456853 Y31.388324873096444 I0.8578680203045685 J-0.8553299492385786
G3 X39.77664974619289 Y30.931472081218274 I1.1015228426395938 J-0.4593908629441624
G3 X39.82994923857868 Y30.576142131979694 I1.1903553299492384 J0
G3 X39.98730964467005 Y30.253807106598988 I1.1446700507614214 J0.35786802030456855
G3 X40.2258883248731 Y29.99746192893401 I1.00253807106599 J0.6903553299492386
G3 X40.360406091370564 Y29.901015228426395 I0.7588832487309645 J0.9416243654822334
G1 X40.25126903553299 Y28.032994923857867
G3 X40.24873096446701 Y28 I0.5507614213197969 J-0.05837563451776649
G1 X40.24873096446701 Y27.974619289340104
G1 X40.24873096446701 Y27.972081218274113
G3 X40.2741116751269 Y27.804568527918782 I0.5558375634517766 J0
G3 X40.34771573604061 Y27.65736040609137 I0.5279187817258884 J0.16751269035532995
G3 X40.45939086294417 Y27.535532994923855 I0.45685279187817257 J0.3147208121827411
G3 X40.60406091370559 Y27.45431472081218 I0.3451776649746193 J0.4365482233502538
G3 X40.76395939086295 Y27.418781725888323 I0.20050761421319796 J0.5177664974619289
G3 X40.89593908629442 Y27.423857868020303 I0.04060913705583757 J0.5532994923857868
G1 X45.743654822335024 Y27.423857868020303
G3 X45.870558375634516 Y27.418781725888323 I0.08629441624365483 J0.5482233502538071
G3 X46.02284263959391 Y27.451776649746193 I-0.03807106598984772 J0.5532994923857868
G3 X46.159898477157356 Y27.5253807106599 I-0.1903553299492386 J0.5203045685279188
G3 X46.27157360406091 Y27.63451776649746 I-0.32741116751269034 J0.4467005076142132
G3 X46.34771573604061 Y27.769035532994923 I-0.4390862944162437 J0.3401015228426396
G3 X46.38578680203046 Y27.923857868020306 I-0.5152284263959391 J0.20304568527918782
G1 X46.53045685279188 Y29.82994923857868
G3 X46.713197969543145 Y29.926395939086294 I-0.47715736040609136 J1.1091370558375635
G3 X47 Y30.190355329949238 I-0.6649746192893401 J1.0203045685279188
G3 X47.192893401015226 Y30.54060913705584 I-0.9390862944162437 J0.7436548223350253
G3 X47.25888324873097 Y30.931472081218274 I-1.119289340101523 J0.3908629441624366
G3 X47.24873096446701 Y31.098984771573605 I-1.1548223350253808 J0
G3 X47.21065989847716 Y31.26649746192893 I-1.1598984771573604 J-0.17258883248730966
G3 X47.162436548223354 Y31.398477157360407 I-1.1497461928934012 J-0.3451776649746193
G1 X48.05329949238579 Y32.47969543147208
G1 X49.49746192893401 Y32.47969543147208
G1 X50.098984771573605 Y31.53045685279188
G1 X50.09137055837564 Y31.51522842639594
G3 X50.00761421319797 Y31.337563451776653 I1.0431472081218274 J-0.5964467005076142
G3 X49.954314720812185 Y31.13705583756345 I1.098984771573604 J-0.4086294416243655
G3 X49.93401015228426 Y30.931472081218274 I1.1421319796954315 J-0.20558375634517764
G3 X49.99238578680203 Y30.568527918781726 I1.1852791878172588 J0
G3 X50.15736040609137 Y30.238578680203045 I1.1370558375634519 J0.3654822335025381
G3 X50.40862944162437 Y29.97969543147208 I0.9898477157360407 J0.7081218274111676
G3 X50.55583756345178 Y29.883248730964468 I0.7385786802030457 J0.9644670050761421
G1 X50.29187817258883 Y20.093908629441625
G3 X50.28426395939086 Y20.00761421319797 I0.5482233502538071 J-0.08883248730964467
G3 X50.286802030456855 Y19.95939086294416 I0.5558375634517766 J0
G3 X50.319796954314725 Y19.809644670050762 I0.5532994923857868 J0.04822335025380711
G3 X50.38578680203046 Y19.68274111675127 I0.5228426395939086 J0.18527918781725888
G3 X50.48223350253807 Y19.573604060913706 I0.45685279187817257 J0.3147208121827411
G3 X50.601522842639596 Y19.49492385786802 I0.3604060913705584 J0.4213197969543147
G3 X50.70558375634518 Y19.45939086294416 I0.24111675126903553 J0.5
G1 X57.3756345177665 Y16.395939086294415
G0 Z3
G0 X83.7502538071066 Y33.58756345177665
G1 Z-0.1 F40
G1 X70.86548223350253 Y33.54060913705584 F75
G3 X70.82233502538071 Y33.545685279187815 I-0.06852791878172589 J-0.5507614213197969
G3 X70.65228426395939 Y33.5253807106599 I-0.022842639593908632 J-0.5532994923857868
G3 X70.49492385786803 Y33.45431472081218 I0.14974619289340102 J-0.5355329949238579
G3 X70.36548223350253 Y33.337563451776646 I0.3071065989847716 J-0.4619289340101523
G3 X70.28172588832487 Y33.18527918781726 I0.434010152284264 J-0.3451776649746193
G3 X70.27157360406092 Y33.162436548223354 I0.5203045685279188 J-0.19289340101522845
G3 X70.26395939086294 Y33.13451776649746 I0.5279187817258884 J-0.1700507614213198
G1 X70.01269035532995 Y32.180203045685275
G3 X69.76395939086294 Y32.09390862944162 I0.26649746192893403 J-1.1700507614213198
G3 X69.4010152284264 Y31.829949238578678 I0.5203045685279188 J-1.0964467005076142
G3 X69.15989847715737 Y31.451776649746193 I0.8756345177664975 J-0.8248730964467005
G3 X69.07360406091371 Y31.01015228426396 I1.1015228426395938 J-0.4390862944162437
G3 X69.16751269035532 Y30.55329949238579 I1.1928934010152283 J0
G3 X69.42893401015229 Y30.162436548223347 I1.119289340101523 J0.46700507614213194
G3 X69.81979695431473 Y29.901015228426395 I0.8578680203045685 J0.8578680203045685
G3 X70.27664974619289 Y29.809644670050762 I0.4593908629441624 J1.1015228426395938
G3 X70.73604060913706 Y29.901015228426395 I0 J1.1928934010152283
G3 X71.12690355329948 Y30.162436548223347 I-0.46700507614213194 J1.119289340101523
G3 X71.38832487309645 Y30.55329949238579 I-0.8553299492385786 J0.8578680203045685
G3 X71.47969543147208 Y31.01015228426396 I-1.098984771573604 J0.4593908629441624
G3 X71.44162436548223 Y31.30964467005076 I-1.1903553299492384 J0
G3 X71.33248730964466 Y31.588832487309645 I-1.1573604060913705 J-0.29949238578680204
G3 X71.16243654822335 Y31.822335025380713 I-1.0609137055837563 J-0.5862944162436547
G3 X71.08629441624365 Y31.898477157360404 I-0.8984771573604061 J-0.8299492385786802
G1 X71.2258883248731 Y32.434010152284266
G1 X83.26903553299493 Y32.477157360406096
G1 X83.26903553299493 Y26.053299492385786
G1 X82.88324873096445 Y21.053299492385786
G3 X82.71827411167513 Y20.961928934010153 I0.48223350253807107 J-1.0558375634517767
G3 X82.4492385786802 Y20.710659898477157 I0.6472081218274112 J-0.967005076142132
G3 X82.26903553299492 Y20.380710659898476 I0.901015228426396 J-0.7030456852791878
G3 X82.20812182741116 Y20.01015228426396 I1.0710659898477157 J-0.37055837563451777
G3 X82.29441624365481 Y19.573604060913706 I1.1421319796954315 J0
G3 X82.54568527918781 Y19.19796954314721 I1.0685279187817258 J0.44416243654822335
G3 X82.91878172588832 Y18.949238578680202 I0.817258883248731 J0.817258883248731
G3 X83.35786802030456 Y18.860406091370557 I0.4390862944162437 J1.0558375634517767
G3 X83.79695431472081 Y18.949238578680202 I0 J1.1421319796954315
G3 X84.17005076142132 Y19.19796954314721 I-0.44416243654822335 J1.0685279187817258
G3 X84.42131979695432 Y19.573604060913706 I-0.817258883248731 J0.817258883248731
G3 X84.50761421319797 Y20.01015228426396 I-1.0558375634517767 J0.4390862944162437
G3 X84.45939086294416 Y20.340101522842637 I-1.1370558375634519 J0
G3 X84.31725888324874 Y20.64213197969543 I-1.0939086294416243 J-0.3299492385786802
G3 X84.1040609137056 Y20.883248730964468 I-0.967005076142132 J-0.6421319796954316
G3 X83.98730964467005 Y20.96954314720812 I-0.7538071065989848 J-0.8857868020304569
G1 X84.37309644670052 Y25.951776649746193
G3 X84.37563451776649 Y25.98984771573604 I-0.5507614213197969 J0.07360406091370558
G3 X84.37817258883248 Y26.022842639593907 I-0.5532994923857868 J0.03299492385786802
G1 X84.37817258883248 Y26.027918781725887
G1 X84.37817258883248 Y32.91370558375634
G3 X84.39086294416244 Y33.03299492385787 I-0.5406091370558376 J0.11928934010152284
G3 X84.38832487309645 Y33.08121827411168 I-0.5558375634517766 J0
G3 X84.33248730964466 Y33.28172588832487 I-0.5532994923857868 J-0.04822335025380711
G3 X84.20304568527919 Y33.4492385786802 I-0.49492385786802034 J-0.2512690355329949
G3 X84.03299492385786 Y33.5507614213198 I-0.3680203045685279 J-0.416243654822335
G3 X83.92639593908629 Y33.58375634517766 I-0.21065989847715735 J-0.5126903553299492
G3 X83.81218274111674 Y33.59137055837564 I-0.10406091370558375 J-0.5456852791878173
G3 X83.76903553299492 Y33.588832487309645 I0.012690355329949238 J-0.5558375634517766
G1 X83.751269035533 Y33.58629441624365
G0 Z3
G0 X34.23401015228426 Y45.7505076142132
G1 Z-0.1 F40
G1 X34.233502538071065 Y33.101522842639596 F75
G1 X33.558375634517766 Y31.129441624365484
G3 X33.31218274111675 Y31.055837563451778 I0.20304568527918782 J-1.1116751269035532
G3 X32.95177664974619 Y30.80710659898477 I0.45685279187817257 J-1.0532994923857868
G3 X32.70812182741117 Y30.439086294416242 I0.817258883248731 J-0.8020304568527918
G3 X32.6243654822335 Y30.01015228426396 I1.0431472081218274 J-0.4289340101522843
G3 X32.68274111675127 Y29.6497461928934 I1.119289340101523 J0
G3 X32.85786802030457 Y29.3248730964467 I1.0710659898477157 J0.3654822335025381
G3 X33.119289340101524 Y29.076142131979697 I0.9137055837563451 J0.7030456852791878
G3 X33.276649746192895 Y28.98730964467005 I0.6497461928934011 J0.9467005076142132
G1 X33.68527918781726 Y22.961928934010153
G3 X33.57106598984772 Y22.878172588832484 I0.6294416243654822 J-0.9619289340101522
G3 X33.357868020304565 Y22.63705583756345 I0.748730964467005 J-0.8807106598984772
G3 X33.21573604060914 Y22.337563451776653 I0.9467005076142132 J-0.6294416243654822
G3 X33.16751269035533 Y22.01015228426396 I1.0761421319796955 J-0.32741116751269034
G3 X33.253807106598984 Y21.576142131979697 I1.1269035532994924 J0
G3 X33.502538071065985 Y21.205583756345177 I1.0583756345177666 J0.4416243654822335
G3 X33.87309644670051 Y20.95939086294416 I0.8121827411167513 J0.8121827411167513
G3 X34.307106598984774 Y20.873096446700508 I0.434010152284264 J1.0431472081218274
G3 X34.74111675126903 Y20.95939086294416 I0 J1.1294416243654823
G3 X35.111675126903556 Y21.205583756345177 I-0.4416243654822335 J1.0583756345177666
G3 X35.35786802030457 Y21.576142131979697 I-0.8096446700507615 J0.8096446700507615
G3 X35.44670050761421 Y22.01015228426396 I-1.0431472081218274 J0.434010152284264
G3 X35.38578680203046 Y22.373096446700508 I-1.1218274111675126 J0
G3 X35.21065989847716 Y22.69796954314721 I-1.0736040609137056 J-0.3654822335025381
G3 X34.9492385786802 Y22.946700507614214 I-0.916243654822335 J-0.7030456852791878
G3 X34.79441624365482 Y23.03553299492386 I-0.6497461928934011 J-0.9467005076142132
G1 X34.38324873096447 Y29.058375634517766
G3 X34.49746192893401 Y29.144670050761423 I-0.6294416243654822 J0.9644670050761421
G3 X34.710659898477154 Y29.385786802030456 I-0.7461928934010152 J0.8807106598984772
G3 X34.85279187817259 Y29.685279187817258 I-0.9441624365482233 J0.6294416243654822
G3 X34.89847715736041 Y29.934010152284266 I-1.0736040609137056 J0.32741116751269034
G1 X35.921319796954315 Y30.413705583756343
G1 X37.31218274111675 Y30.393401015228427
G3 X37.370558375634516 Y30.289340101522843 I1.0786802030456852 J0.5456852791878173
G3 X37.56345177664975 Y30.055837563451778 I1.0228426395939085 J0.6497461928934011
G3 X37.80964467005076 Y29.878172588832488 I0.8248730964467005 J0.8781725888324874
G3 X37.91878172588832 Y29.8248730964467 I0.5710659898477157 J1.0456852791878173
G1 X38.24111675126903 Y25.97969543147208
G3 X38.243654822335024 Y25.94670050761421 I0.5532994923857868 J0.043147208121827416
G3 X38.25126903553299 Y25.911167512690355 I0.5507614213197969 J0.07614213197969544
G1 X38.256345177664976 Y25.888324873096447
G1 X38.26142131979695 Y25.86294416243655
G3 X38.2741116751269 Y25.82994923857868 I0.5304568527918782 J0.1598984771573604
G3 X38.28934010152284 Y25.794416243654823 I0.5203045685279188 J0.1954314720812183
G1 X38.299492385786806 Y25.77157360406091
G1 X38.31218274111675 Y25.751269035532992
G3 X38.34263959390863 Y25.703045685279186 I0.48223350253807107 J0.2715736040609137
G3 X38.37817258883249 Y25.65736040609137 I0.45177664974619286 J0.3223350253807106
G1 X38.39593908629442 Y25.63705583756345
G1 X38.41370558375635 Y25.619289340101524
G3 X38.43654822335025 Y25.601522842639596 I0.3807106598984772 J0.4035532994923858
G3 X38.45939086294416 Y25.581218274111674 I0.35786802030456855 J0.42385786802030456
G3 X38.47969543147208 Y25.565989847715738 I0.3350253807106599 J0.4416243654822335
G3 X38.502538071065985 Y25.55329949238579 I0.31218274111675126 J0.4593908629441624
G3 X38.5253807106599 Y25.538071065989847 I0.2918781725888325 J0.47208121827411165
G3 X38.54822335025381 Y25.527918781725887 I0.2690355329949239 J0.4847715736040609
G3 X38.62690355329949 Y25.49492385786802 I0.24619289340101522 J0.49746192893401014
G3 X38.710659898477154 Y25.474619289340104 I0.16751269035532995 J0.5279187817258884
G3 X38.76142131979695 Y25.46954314720812 I0.08375634517766498 J0.5482233502538071
G3 X38.80456852791878 Y25.46954314720812 I0.030456852791878174 J0.5532994923857868
G1 X48.76903553299492 Y25.46954314720812
G3 X48.857868020304565 Y25.474619289340104 I0.010152284263959392 J0.5558375634517766
G3 X48.944162436548226 Y25.49492385786802 I-0.07868020304568528 J0.5482233502538071
G3 X48.97208121827411 Y25.50253807106599 I-0.1649746192893401 J0.5304568527918782
G3 X48.997461928934015 Y25.512690355329948 I-0.1903553299492386 J0.5203045685279188
G3 X49.02284263959391 Y25.525380710659896 I-0.21573604060913704 J0.5126903553299492
G3 X49.04822335025381 Y25.538071065989847 I-0.24111675126903553 J0.5
G3 X49.07106598984772 Y25.550761421319798 I-0.26649746192893403 J0.4873096446700508
G3 X49.09390862944163 Y25.565989847715738 I-0.2918781725888325 J0.47208121827411165
G3 X49.11675126903553 Y25.581218274111674 I-0.30964467005076146 J0.4593908629441624
G3 X49.139593908629436 Y25.598984771573605 I-0.33248730964467005 J0.44416243654822335
G3 X49.18020304568528 Y25.63705583756345 I-0.35786802030456855 J0.42385786802030456
G3 X49.21573604060914 Y25.68020304568528 I-0.3984771573604061 J0.3883248730964467
G3 X49.23350253807107 Y25.7005076142132 I-0.4365482233502538 J0.3426395939086294
G1 X49.246192893401016 Y25.720812182741113
G1 X49.25888324873096 Y25.741116751269036
G3 X49.2741116751269 Y25.76903553299492 I-0.47461928934010156 J0.28426395939086296
G3 X49.284263959390856 Y25.791878172588834 I-0.49492385786802034 J0.24873096446700507
G1 X49.29187817258884 Y25.809644670050762
G3 X49.30203045685279 Y25.83502538071066 I-0.5101522842639594 J0.21573604060913704
G3 X49.31218274111675 Y25.86294416243655 I-0.5203045685279188 J0.1903553299492386
G3 X49.3248730964467 Y25.918781725888323 I-0.5304568527918782 J0.1598984771573604
G3 X49.33248730964466 Y25.97208121827411 I-0.5456852791878173 J0.10659898477157359
G3 X49.33502538071066 Y26.01015228426396 I-0.5532994923857868 J0.053299492385786795
G1 X49.33502538071066 Y26.0253807106599
G3 X49.33502538071066 Y26.050761421319798 I-0.5558375634517766 J0
G1 X49.14720812182742 Y29.895939086294415
G3 X49.286802030456855 Y29.99238578680203 I-0.6142131979695432 J1.0482233502538072
G3 X49.53045685279187 Y30.248730964467004 I-0.7563451776649746 J0.9543147208121827
G3 X49.690355329949234 Y30.573604060913702 I-0.9822335025380711 J0.6852791878172588
G3 X49.746192893401016 Y30.931472081218274 I-1.1294416243654823 J0.35786802030456855
G3 X49.65482233502538 Y31.388324873096444 I-1.1903553299492384 J0
G3 X49.390862944162436 Y31.779187817258887 I-1.119289340101523 J-0.46700507614213194
G3 X49 Y32.04314720812183 I-0.8578680203045685 J-0.8578680203045685
G3 X48.54314720812183 Y32.13451776649747 I-0.4593908629441624 J-1.098984771573604
G3 X48.08375634517766 Y32.04314720812183 I0 J-1.1903553299492384
G3 X47.692893401015226 Y31.779187817258887 I0.46700507614213194 J-1.119289340101523
G3 X47.431472081218274 Y31.388324873096444 I0.8578680203045685 J-0.8578680203045685
G3 X47.34010152284264 Y30.931472081218274 I1.1015228426395938 J-0.4593908629441624
G3 X47.40355329949239 Y30.54822335025381 I1.182741116751269 J0
G3 X47.588832487309645 Y30.20304568527919 I1.131979695431472 J0.3883248730964467
G3 X47.86802030456853 Y29.941624365482234 I0.9619289340101522 J0.7436548223350253
G3 X48.04060913705584 Y29.845177664974617 I0.6827411167512689 J1.00253807106599
G1 X48.19796954314721 Y26.578680203045685
G1 X39.30456852791878 Y26.578680203045685
G1 X39.022842639593904 Y29.91624365482234
G3 X39.15228426395939 Y30.01015228426396 I-0.6472081218274112 J1.0228426395939085
G3 X39.380710659898476 Y30.263959390862944 I-0.7817258883248732 J0.9340101522842639
G3 X39.53299492385787 Y30.583756345177665 I-0.9949238578680203 J0.6675126903553299
G3 X39.58375634517766 Y30.931472081218274 I-1.1395939086294418 J0.3477157360406091
G3 X39.49238578680203 Y31.388324873096444 I-1.1928934010152283 J0
G3 X39.23096446700508 Y31.779187817258887 I-1.119289340101523 J-0.46446700507614214
G3 X38.84010152284264 Y32.04314720812183 I-0.8578680203045685 J-0.8553299492385786
G3 X38.38324873096447 Y32.13451776649747 I-0.4593908629441624 J-1.098984771573604
G3 X38.017766497461935 Y32.076142131979694 I0 J-1.182741116751269
G3 X37.68527918781726 Y31.906091370558375 I0.37055837563451777 J-1.1370558375634519
G3 X37.42639593908629 Y31.652284263959388 I0.7157360406091371 J-0.9873096446700508
G3 X37.32994923857868 Y31.50253807106599 I0.9720812182741116 J-0.7309644670050762
G1 X35.86294416243655 Y31.5253807106599
G1 X35.84771573604061 Y31.52791878172589
G3 X35.81472081218274 Y31.52791878172589 I-0.04060913705583757 J-0.5532994923857868
G3 X35.68527918781726 Y31.51522842639594 I-0.007614213197969543 J-0.5558375634517766
G3 X35.56598984771574 Y31.4746192893401 I0.1218274111675127 J-0.5406091370558376
G1 X34.710659898477154 Y31.071065989847714
G1 X35.286802030456855 Y32.75126903553299
G3 X35.3248730964467 Y32.8502538071066 I-0.49746192893401014 J0.2436548223350254
G3 X35.34263959390863 Y32.974619289340104 I-0.5355329949238579 J0.14213197969543148
G3 X35.34517766497462 Y33.01269035532995 I-0.5532994923857868 J0.03807106598984772
G3 X35.34263959390863 Y33.04822335025381 I-0.5558375634517766 J0
G1 X35.34263959390863 Y45.434010152284266
G1 X37.703045685279186 Y45.4492385786802
G3 X37.80203045685279 Y45.296954314720814 I1.0736040609137056 J0.5710659898477157
G3 X38.06091370558376 Y45.03807106598985 I0.9771573604060914 J0.7233502538071066
G3 X38.39340101522843 Y44.86802030456853 I0.7055837563451777 J0.9644670050761421
G3 X38.76142131979695 Y44.809644670050766 I0.3680203045685279 J1.1243654822335025
G3 X39.22081218274111 Y44.901015228426395 I0 J1.1928934010152283
G3 X39.61167512690355 Y45.162436548223354 I-0.46446700507614214 J1.119289340101523
G3 X39.87309644670051 Y45.55329949238579 I-0.8553299492385786 J0.8553299492385786
G3 X39.964467005076145 Y46.01015228426397 I-1.098984771573604 J0.4593908629441624
G3 X39.87309644670051 Y46.46954314720812 I-1.1928934010152283 J0
G3 X39.61167512690355 Y46.86040609137056 I-1.119289340101523 J-0.46700507614213194
G3 X39.22081218274111 Y47.121827411167516 I-0.8578680203045685 J-0.8553299492385786
G3 X38.76142131979695 Y47.213197969543145 I-0.4593908629441624 J-1.098984771573604
G3 X38.390862944162436 Y47.15228426395939 I0 J-1.182741116751269
G3 X38.05329949238579 Y46.97969543147208 I0.3756345177664975 J-1.131979695431472
G3 X37.79441624365482 Y46.71827411167513 I0.7258883248730964 J-0.9771573604060914
G3 X37.69796954314721 Y46.558375634517766 I0.9847715736040609 J-0.7157360406091371
G1 X35.01269035532995 Y46.54314720812182
G1 X32.286802030456855 Y49.266497461928935
G1 X32.31218274111675 Y51.71827411167513
G1 X32.32233502538071 Y52.8502538071066
G3 X32.44670050761422 Y52.931472081218274 I-0.5507614213197969 J0.9517766497461928
G3 X32.67005076142132 Y53.16497461928934 I-0.6751269035532994 J0.8705583756345179
G3 X32.817258883248726 Y53.46446700507614 I-0.8857868020304569 J0.6269035532994924
G3 X32.86802030456853 Y53.79187817258884 I-1.0304568527918783 J0.32741116751269034
G3 X32.786802030456855 Y54.20812182741117 I-1.0837563451776648 J0
G3 X32.54822335025381 Y54.56091370558376 I-1.012690355329949 J-0.4213197969543147
G3 X32.19543147208122 Y54.7994923857868 I-0.7741116751269035 J-0.7741116751269035
G3 X31.779187817258887 Y54.88071065989848 I-0.416243654822335 J-1
G3 X31.36294416243655 Y54.7994923857868 I0 J-1.0837563451776648
G3 X31.00761421319797 Y54.56091370558376 I0.4213197969543147 J-1.012690355329949
G3 X30.76903553299492 Y54.20812182741117 I0.7741116751269035 J-0.7766497461928934
G3 X30.68781725888325 Y53.79187817258884 I1 J-0.416243654822335
G3 X30.736040609137056 Y53.46700507614213 I1.0812182741116751 J0
G3 X30.880710659898476 Y53.1751269035533 I1.0380710659898478 J0.32487309644670054
G3 X31.096446700507613 Y52.941624365482234 I0.9060913705583756 J0.6269035532994924
G3 X31.213197969543145 Y52.860406091370564 I0.6878172588832487 J0.8578680203045685
G1 X31.195431472081218 Y51.13959390862944
G1 X31.17766497461929 Y49.266497461928935
G1 X28.421319796954315 Y46.40609137055837
G3 X28.373096446700508 Y46.36294416243655 I0.3604060913705584 J-0.4213197969543147
G3 X28.32741116751269 Y46.30203045685279 I0.40609137055837563 J-0.3756345177664975
G3 X28.266497461928935 Y46.20304568527919 I0.4467005076142132 J-0.3299492385786802
G3 X28.228426395939085 Y46.08629441624365 I0.5050761421319797 J-0.23096446700507614
G3 X28.21827411167513 Y45.97208121827411 I0.5431472081218274 J-0.11421319796954314
G1 X28.21827411167513 Y45.96700507614213
G3 X28.225888324873097 Y45.87309644670051 I0.5558375634517766 J0.005076142131979696
G1 X28.225888324873097 Y34.4263959390863
G1 X25.66497461928934 Y33.555837563451774
G3 X25.555837563451774 Y33.52030456852792 I0.11421319796954314 J-0.5431472081218274
G3 X25.446700507614214 Y33.45685279187818 I0.22081218274111675 J-0.5076142131979695
G3 X25.340101522842637 Y33.357868020304565 I0.3197969543147208 J-0.45177664974619286
G3 X25.263959390862944 Y33.236040609137056 I0.42639593908629436 J-0.3553299492385787
G3 X25.220812182741117 Y33.098984771573605 I0.5025380710659898 J-0.23350253807106597
G3 X25.213197969543145 Y33.00253807106599 I0.5456852791878173 J-0.09390862944162437
G1 X25.213197969543145 Y32.99746192893401
G1 X25.02030456852792 Y31.83248730964467
G3 X24.784263959390863 Y31.733502538071065 I0.3654822335025381 J-1.2030456852791878
G3 X24.436548223350254 Y31.45685279187817 I0.6091370558375635 J-1.116751269035533
G3 X24.205583756345177 Y31.071065989847714 I0.9441624365482233 J-0.8299492385786802
G3 X24.124365482233504 Y30.631979695431472 I1.1598984771573604 J-0.4390862944162437
G3 X24.220812182741117 Y30.15228426395939 I1.2461928934010151 J0
G3 X24.494923857868017 Y29.743654822335024 I1.1700507614213198 J0.4873096446700508
G3 X24.903553299492387 Y29.469543147208125 I0.8959390862944162 J0.8959390862944162
G3 X25.383248730964464 Y29.373096446700508 I0.47969543147208127 J1.1522842639593909
G3 X25.86294416243655 Y29.469543147208125 I0 J1.2461928934010151
G3 X26.27157360406091 Y29.743654822335024 I-0.4873096446700508 J1.1700507614213198
G3 X26.543147208121827 Y30.15228426395939 I-0.8959390862944162 J0.8959390862944162
G3 X26.63959390862944 Y30.631979695431472 I-1.1522842639593909 J0.47969543147208127
G1 X26.63959390862944 Y30.631979695431472
G1 X26.63959390862944 Y30.631979695431472
G3 X26.591370558375633 Y30.9746192893401 I-1.236040609137056 J0
G3 X26.446700507614214 Y31.294416243654823 I-1.1954314720812182 J-0.3477157360406091
G3 X26.230964467005077 Y31.550761421319798 I-1.0736040609137056 J-0.6802030456852792
G3 X26.11421319796954 Y31.64720812182741 I-0.868020304568528 J-0.9492385786802031
G1 X26.269035532994923 Y32.588832487309645
G1 X28.84771573604061 Y33.46700507614213
G3 X28.979695431472084 Y33.5 I-0.06598984771573604 J0.5507614213197969
G3 X29.129441624365484 Y33.58629441624365 I-0.1979695431472081 J0.5177664974619289
G3 X29.246192893401016 Y33.71573604060914 I-0.35025380710659904 J0.4314720812182741
G3 X29.314720812182742 Y33.86548223350254 I-0.46700507614213194 J0.3020304568527919
G3 X29.33756345177665 Y33.99492385786802 I-0.5304568527918782 J0.1649746192893401
G3 X29.34010152284264 Y34.03045685279188 I-0.5532994923857868 J0.03553299492385787
G3 X29.33502538071066 Y34.101522842639596 I-0.5558375634517766 J0
G1 X29.33502538071066 Y45.75634517766497
G1 X31.736040609137056 Y48.24873096446701
G1 X34.233502538071065 Y45.751269035533
G0 Z3
G0 X11.971065989847716 Y6.486548223350254
G1 Z-0.1 F40
G1 X21.83248730964467 Y8.431472081218274 F75
G3 X21.860406091370557 Y8.436548223350254 I-0.08121827411167513 J0.5482233502538071
G3 X21.885786802030456 Y8.441624365482234 I-0.10913705583756345 J0.5431472081218274
G3 X21.992385786802032 Y8.47969543147208 I-0.1319796954314721 J0.5380710659898478
G3 X22.081218274111674 Y8.532994923857869 I-0.23857868020304568 J0.5
G1 X28.083756345177665 Y12.51269035532995
G3 X28.205583756345177 Y12.616751269035532 I-0.29949238578680204 J0.46700507614213194
G3 X28.289340101522843 Y12.748730964467006 I-0.41878172588832485 J0.3629441624365482
G3 X28.33502538071066 Y12.901015228426395 I-0.5050761421319797 J0.23096446700507614
G3 X28.34010152284264 Y12.97969543147208 I-0.5482233502538071 J0.07868020304568528
G3 X28.33756345177665 Y13.038071065989847 I-0.5558375634517766 J0
G1 X28.461928934010153 Y21.880710659898476
G3 X28.642131979695435 Y21.98477157360406 I-0.5482233502538071 J1.1472081218274113
G3 X28.926395939086294 Y22.258883248730964 I-0.7284263959390863 J1.0431472081218274
G3 X29.114213197969544 Y22.61421319796954 I-0.9949238578680203 J0.7563451776649746
G3 X29.180203045685282 Y23.01015228426396 I-1.1725888324873095 J0.3959390862944162
G3 X29.08375634517767 Y23.48984771573604 I-1.2461928934010151 J0
G3 X28.80964467005076 Y23.898477157360407 I-1.1700507614213198 J-0.4873096446700508
G3 X28.401015228426395 Y24.17258883248731 I-0.8959390862944162 J-0.8959390862944162
G3 X27.921319796954315 Y24.269035532994923 I-0.47969543147208127 J-1.1522842639593909
G3 X27.441624365482234 Y24.17258883248731 I0 J-1.2461928934010151
G3 X27.032994923857867 Y23.898477157360407 I0.4873096446700508 J-1.1700507614213198
G3 X26.761421319796955 Y23.48984771573604 I0.8959390862944162 J-0.8959390862944162
G3 X26.66497461928934 Y23.01015228426396 I1.1522842639593909 J-0.47969543147208127
G1 X26.66497461928934 Y23.01015228426396
G1 X26.66497461928934 Y23.01015228426396
G3 X26.72842639593909 Y22.621827411167512 I1.2385786802030458 J0
G3 X26.908629441624367 Y22.27157360406091 I1.1852791878172588 J0.3908629441624366
G3 X27.18274111675127 Y22 I1.0228426395939085 J0.7563451776649746
G3 X27.35279187817259 Y21.89593908629442 I0.748730964467005 J1.0279187817258884
G1 X27.230964467005077 Y13.279187817258883
G1 X21.535532994923855 Y9.50253807106599
G1 X12.233502538071066 Y7.67005076142132
G1 X12 Y8.895939086294417
G3 X12.076142131979694 Y9.060913705583756 I-0.7766497461928934 J0.4619289340101523
G3 X12.126903553299492 Y9.357868020304569 I-0.8527918781725887 J0.2969543147208122
G1 X12.126903553299492 Y10.66497461928934
G1 X12.126903553299492 Y10.66497461928934
G3 X12.096446700507615 Y10.898477157360407 I-0.9035532994923857 J0
G3 X12.00507614213198 Y11.116751269035532 I-0.8730964467005076 J-0.23350253807106597
G3 X11.860406091370558 Y11.304568527918782 I-0.7817258883248732 J-0.45177664974619286
G3 X11.675126903553299 Y11.449238578680204 I-0.6395939086294417 J-0.6395939086294417
G3 X11.456852791878172 Y11.538071065989847 I-0.45177664974619286 J-0.7817258883248732
G3 X11.220812182741117 Y11.568527918781726 I-0.23350253807106597 J-0.8730964467005076
G3 X10.987309644670052 Y11.538071065989847 I0 J-0.9035532994923857
G3 X10.769035532994923 Y11.449238578680204 I0.23350253807106597 J-0.8730964467005076
G3 X10.583756345177664 Y11.304568527918782 I0.45177664974619286 J-0.7817258883248732
G3 X10.439086294416244 Y11.116751269035532 I0.6395939086294417 J-0.6395939086294417
G3 X10.3502538071066 Y10.898477157360407 I0.7842639593908629 J-0.45177664974619286
G3 X10.31725888324873 Y10.66497461928934 I0.8730964467005076 J-0.23350253807106597
G1 X10.31725888324873 Y10.66497461928934
G1 X10.31725888324873 Y9.357868020304569
G3 X10.380710659898478 Y9.030456852791879 I0.9035532994923857 J0
G3 X10.553299492385786 Y8.748730964467006 I0.8426395939086294 J0.32741116751269034
G3 X10.81725888324873 Y8.548223350253807 I0.6675126903553299 J0.6091370558375635
G3 X10.946700507614214 Y8.49746192893401 I0.4035532994923858 J0.8096446700507615
G1 X11.233502538071065 Y6.98984771573604
G3 X11.251269035532996 Y6.873096446700507 I0.5532994923857868 J0.027918781725888325
G3 X11.30710659898477 Y6.738578680203045 I0.5355329949238579 J0.14213197969543148
G3 X11.395939086294415 Y6.624365482233503 I0.47969543147208127 J0.2766497461928934
G3 X11.50507614213198 Y6.538071065989848 I0.3934010152284264 J0.3908629441624366
G3 X11.619289340101522 Y6.484771573604061 I0.2893401015228426 J0.47208121827411165
G3 X11.743654822335026 Y6.459390862944162 I0.17512690355329952 J0.5279187817258884
G3 X11.870558375634516 Y6.461928934010153 I0.050761421319796954 J0.5532994923857868
G3 X11.972081218274111 Y6.4873096446700504 I-0.07614213197969544 J0.5482233502538071
G0 Z3
G0 X31.483248730964466 Y14.56497461928934
G1 Z-0.1 F40
G1 X40.236040609137056 Y9.66243654822335 F75
G1 X40.337563451776646 Y6.451776649746193
G3 X40.22842639593908 Y6.370558375634517 I0.5888324873096447 J-0.9238578680203046
G3 X40.017766497461935 Y6.1395939086294415 I0.7030456852791878 J-0.8477157360406091
G3 X39.878172588832484 Y5.84771573604061 I0.901015228426396 J-0.6091370558375635
G3 X39.83248730964467 Y5.530456852791879 I1.0355329949238579 J-0.31725888324873097
G3 X39.91370558375635 Y5.114213197969542 I1.0837563451776648 J0
G3 X40.152284263959395 Y4.761421319796954 I1.012690355329949 J0.4213197969543147
G3 X40.50507614213198 Y4.522842639593908 I0.7766497461928934 J0.7766497461928934
G3 X40.921319796954315 Y4.441624365482234 I0.416243654822335 J1
G3 X41.33756345177665 Y4.522842639593908 I0 J1.0837563451776648
G3 X41.692893401015226 Y4.761421319796954 I-0.4213197969543147 J1.012690355329949
G3 X41.92893401015229 Y5.114213197969542 I-0.7766497461928934 J0.7766497461928934
G3 X42.01269035532995 Y5.530456852791879 I-1 J0.416243654822335
G3 X41.95939086294416 Y5.862944162436548 I-1.0761421319796955 J0
G3 X41.807106598984774 Y6.164974619289341 I-1.0304568527918783 J-0.3350253807106599
G3 X41.576142131979694 Y6.398477157360406 I-0.8934010152284264 J-0.6472081218274112
G3 X41.44670050761421 Y6.482233502538071 I-0.6624365482233502 J-0.883248730964467
G1 X41.33756345177665 Y9.936548223350254
G3 X41.340101522842644 Y9.99238578680203 I-0.5532994923857868 J0.05583756345177665
G3 X41.340101522842644 Y10.020304568527918 I-0.5558375634517766 J0
G3 X41.32233502538071 Y10.126903553299494 I-0.5532994923857868 J-0.027918781725888325
G3 X41.28426395939086 Y10.230964467005077 I-0.5380710659898478 J-0.13705583756345177
G3 X41.23096446700508 Y10.319796954314722 I-0.5 J-0.23857868020304568
G3 X41.119289340101524 Y10.436548223350254 I-0.45177664974619286 J-0.3223350253807106
G3 X40.997461928934015 Y10.507614213197968 I-0.3401015228426396 J-0.4390862944162437
G1 X32.3248730964467 Y15.362944162436548
G1 X32.31725888324873 Y21.020304568527916
G3 X32.45177664974619 Y21.109137055837564 I-0.5634517766497462 J1.0050761421319796
G3 X32.69035532994924 Y21.35532994923858 I-0.7005076142131981 J0.916243654822335
G3 X32.847715736040605 Y21.66751269035533 I-0.9187817258883249 J0.6598984771573604
G3 X32.901015228426395 Y22.01015228426396 I-1.0659898477157361 J0.3451776649746193
G3 X32.84010152284264 Y22.373096446700508 I-1.1218274111675126 J0
G3 X32.66751269035533 Y22.69796954314721 I-1.0736040609137056 J-0.3654822335025381
G3 X32.40609137055837 Y22.946700507614214 I-0.916243654822335 J-0.7030456852791878
G3 X32.24873096446701 Y23.03553299492386 I-0.6497461928934011 J-0.9441624365482233
G1 X31.84263959390863 Y29.058375634517766
G3 X31.956852791878173 Y29.144670050761423 I-0.6294416243654822 J0.9619289340101522
G3 X32.17005076142132 Y29.385786802030456 I-0.7461928934010152 J0.8807106598984772
G3 X32.31218274111675 Y29.685279187817258 I-0.9441624365482233 J0.6294416243654822
G3 X32.36040609137056 Y30.01015228426396 I-1.0761421319796955 J0.32741116751269034
G3 X32.31218274111675 Y30.335025380710658 I-1.1218274111675126 J0
G3 X32.17258883248731 Y30.631979695431472 I-1.0837563451776648 J-0.32741116751269034
G3 X31.961928934010153 Y30.870558375634516 I-0.9619289340101522 J-0.6345177664974619
G3 X31.85279187817259 Y30.956852791878173 I-0.751269035532995 J-0.8756345177664975
G1 X32.233502538071065 Y35.90862944162437
G3 X32.41624365482234 Y36.00761421319797 I-0.47715736040609136 J1.1091370558375635
G3 X32.70558375634518 Y36.26903553299493 I-0.6649746192893401 J1.0203045685279188
G3 X32.898477157360404 Y36.619289340101524 I-0.9390862944162437 J0.7461928934010152
G3 X32.964467005076145 Y37.01015228426396 I-1.119289340101523 J0.3908629441624366
G3 X32.90609137055838 Y37.380710659898476 I-1.182741116751269 J0
G3 X32.733502538071065 Y37.71573604060914 I-1.134517766497462 J-0.3730964467005076
G3 X32.47208121827411 Y37.974619289340104 I-0.9796954314720813 J-0.7208121827411168
G3 X32.31725888324873 Y38.0736040609137 I-0.7208121827411168 J-0.9796954314720813
G1 X32.31725888324873 Y41.9492385786802
G3 X32.47208121827411 Y42.045685279187815 I-0.5634517766497462 J1.0761421319796955
G3 X32.733502538071065 Y42.307106598984774 I-0.7208121827411168 J0.9796954314720813
G3 X32.90609137055838 Y42.63959390862944 I-0.9619289340101522 J0.7081218274111676
G3 X32.964467005076145 Y43.01015228426395 I-1.1243654822335025 J0.37055837563451777
G3 X32.87309644670051 Y43.46954314720812 I-1.1928934010152283 J0
G3 X32.611675126903556 Y43.86040609137056 I-1.119289340101523 J-0.46446700507614214
G3 X32.22081218274112 Y44.121827411167516 I-0.8578680203045685 J-0.8553299492385786
G3 X31.761421319796955 Y44.213197969543145 I-0.4593908629441624 J-1.098984771573604
G3 X31.304568527918782 Y44.121827411167516 I0 J-1.1903553299492384
G3 X30.913705583756347 Y43.86040609137056 I0.46700507614213194 J-1.119289340101523
G3 X30.652284263959395 Y43.46954314720812 I0.8578680203045685 J-0.8578680203045685
G3 X30.558375634517766 Y43.01015228426395 I1.098984771573604 J-0.4593908629441624
G3 X30.619289340101524 Y42.63959390862944 I1.1802030456852792 J0
G3 X30.791878172588834 Y42.307106598984774 I1.131979695431472 J0.3730964467005076
G3 X31.050761421319798 Y42.04822335025381 I0.9796954314720813 J0.7233502538071066
G3 X31.20812182741117 Y41.9492385786802 I0.7208121827411168 J0.9822335025380711
G1 X31.20812182741117 Y38.07106598984772
G3 X31.050761421319798 Y37.974619289340104 I0.565989847715736 J-1.0786802030456852
G3 X30.791878172588834 Y37.71573604060914 I0.7208121827411168 J-0.9822335025380711
G3 X30.619289340101524 Y37.380710659898476 I0.9619289340101522 J-0.7081218274111676
G3 X30.558375634517766 Y37.01015228426396 I1.1218274111675126 J-0.37055837563451777
G3 X30.611675126903553 Y36.662436548223354 I1.1903553299492384 J0
G3 X30.763959390862944 Y36.34263959390863 I1.1472081218274113 J0.35279187817258884
G3 X30.99746192893401 Y36.08629441624365 I1.0076142131979695 J0.6827411167512689
G3 X31.126903553299492 Y35.99238578680203 I0.7715736040609138 J0.9314720812182741
G1 X30.746192893401016 Y31.04060913705584
G3 X30.586294416243653 Y30.949238578680202 I0.48223350253807107 J-1.0406091370558377
G3 X30.31979695431472 Y30.703045685279186 I0.6472081218274112 J-0.9543147208121827
G3 X30.14467005076142 Y30.3756345177665 I0.8959390862944162 J-0.6954314720812182
G3 X30.08375634517766 Y30.015228426395943 I1.0609137055837563 J-0.3654822335025381
G1 X25.77157360406091 Y27.626903553299492
G1 X24.190355329949238 Y28.39593908629442
G1 X23.730964467005077 Y29.746192893401012
G3 X23.799492385786802 Y29.819796954314718 I-0.9137055837563451 J0.916243654822335
G3 X23.95939086294416 Y30.058375634517766 I-0.9619289340101522 J0.8248730964467005
G3 X24.063451776649746 Y30.335025380710658 I-1.098984771573604 J0.5761421319796954
G3 X24.101522842639596 Y30.631979695431472 I-1.1979695431472082 J0.29441624365482233
G3 X24.005076142131976 Y31.111675126903556 I-1.2461928934010151 J0
G3 X23.730964467005077 Y31.52030456852792 I-1.1700507614213198 J-0.4873096446700508
G3 X23.32233502538071 Y31.794416243654823 I-0.8959390862944162 J-0.8959390862944162
G3 X22.84263959390863 Y31.888324873096447 I-0.47969543147208127 J-1.1522842639593909
G3 X22.36294416243655 Y31.794416243654823 I0 J-1.2461928934010151
G3 X21.95431472081218 Y31.52030456852792 I0.4873096446700508 J-1.1700507614213198
G3 X21.680203045685282 Y31.111675126903556 I0.8959390862944162 J-0.8959390862944162
G3 X21.58375634517767 Y30.631979695431472 I1.1522842639593909 J-0.47969543147208127
G3 X21.680203045685282 Y30.15228426395939 I1.2461928934010151 J0
G3 X21.95431472081218 Y29.743654822335024 I1.1700507614213198 J0.4873096446700508
G3 X22.36294416243655 Y29.469543147208125 I0.8959390862944162 J0.8959390862944162
G3 X22.659898477157363 Y29.385786802030456 I0.47969543147208127 J1.1522842639593909
G1 X23.19543147208122 Y27.868020304568528
G3 X23.225888324873097 Y27.784263959390863 I0.5380710659898478 J0.12944162436548223
G3 X23.27664974619289 Y27.685279187817258 I0.5101522842639594 J0.21573604060913704
G3 X23.347715736040612 Y27.601522842639593 I0.45685279187817257 J0.31218274111675126
G3 X23.431472081218274 Y27.535532994923855 I0.3883248730964467 J0.3984771573604061
G3 X23.464467005076145 Y27.515228426395943 I0.3071065989847716 J0.4619289340101523
G3 X23.49746192893401 Y27.49746192893401 I0.27411167512690354 J0.48223350253807107
G1 X25.461928934010153 Y26.543147208121827
G3 X25.532994923857867 Y26.50253807106599 I0.3197969543147208 J0.45431472081218277
G3 X25.63705583756345 Y26.46192893401015 I0.24873096446700507 J0.49492385786802034
G3 X25.748730964467008 Y26.444162436548222 I0.1446700507614213 J0.5355329949238579
G3 X25.850253807106597 Y26.446700507614214 I0.03299492385786802 J0.5532994923857868
G3 X26.00761421319797 Y26.48730964467005 I-0.05583756345177665 J0.5532994923857868
G3 X26.126903553299492 Y26.555837563451774 I-0.21319796954314718 J0.5126903553299492
G1 X30.644670050761423 Y29.058375634517766
G1 X30.733502538071065 Y29.01015228426396
G1 X31.142131979695435 Y22.96446700507614
G3 X31.027918781725887 Y22.878172588832484 I0.6294416243654822 J-0.9619289340101522
G3 X30.81218274111675 Y22.63705583756345 I0.7461928934010152 J-0.8807106598984772
G3 X30.672588832487307 Y22.337563451776653 I0.9467005076142132 J-0.6294416243654822
G3 X30.621827411167516 Y22.01015228426396 I1.0761421319796955 J-0.32741116751269034
G3 X30.677664974619287 Y21.66497461928934 I1.119289340101523 J0
G3 X30.83502538071066 Y21.35279187817259 I1.0761421319796955 J0.3477157360406091
G3 X31.073604060913706 Y21.109137055837564 I0.9365482233502538 J0.6725888324873096
G3 X31.20812182741117 Y21.020304568527916 I0.6979695431472082 J0.916243654822335
G1 X31.215736040609137 Y15.093908629441623
G3 X31.213197969543145 Y15.040609137055839 I0.5532994923857868 J-0.053299492385786795
G3 X31.220812182741117 Y14.954314720812183 I0.5558375634517766 J0
G3 X31.26649746192893 Y14.804568527918782 I0.5482233502538071 J0.08629441624365483
G3 X31.35279187817259 Y14.67258883248731 I0.5025380710659898 J0.23604060913705582
G3 X31.472081218274113 Y14.571065989847716 I0.416243654822335 J0.3680203045685279
G1 X31.482233502538072 Y14.565989847715738
G0 Z3
G0 X79.89898477157361 Y18.156091370558375
G1 Z-0.1 F40
G1 X70.56598984771574 Y19.418781725888326 F75
G3 X70.47208121827411 Y19.621827411167512 I-1.1269035532994924 J-0.4086294416243655
G3 X70.20558375634518 Y19.934010152284266 I-1.0482233502538072 J-0.6218274111675127
G3 X69.84517766497463 Y20.14213197969543 I-0.7741116751269035 J-0.9238578680203046
G3 X69.43654822335026 Y20.213197969543145 I-0.4086294416243655 J-1.116751269035533
G3 X68.97969543147208 Y20.121827411167512 I0 J-1.1903553299492384
G3 X68.58883248730965 Y19.86040609137056 I0.46700507614213194 J-1.116751269035533
G3 X68.32741116751268 Y19.46954314720812 I0.8578680203045685 J-0.8553299492385786
G3 X68.23604060913706 Y19.01015228426396 I1.1015228426395938 J-0.4593908629441624
G3 X68.32741116751268 Y18.553299492385786 I1.1928934010152283 J0
G3 X68.58883248730965 Y18.16243654822335 I1.116751269035533 J0.46446700507614214
G3 X68.97969543147208 Y17.901015228426395 I0.8553299492385786 J0.8553299492385786
G3 X69.43654822335026 Y17.809644670050762 I0.4593908629441624 J1.1015228426395938
G3 X69.76903553299492 Y17.85786802030457 I0 J1.182741116751269
G3 X70.0761421319797 Y17.997461928934012 I-0.3350253807106599 J1.1421319796954315
G3 X70.3248730964467 Y18.20812182741117 I-0.6548223350253807 J1.0228426395939085
G3 X70.41370558375634 Y18.319796954314718 I-0.9111675126903553 J0.8197969543147209
G1 X79.74619289340102 Y17.055837563451778
G3 X79.83756345177665 Y16.873096446700508 I1.0685279187817258 J0.4137055837563452
G3 X80.09137055837563 Y16.581218274111677 I0.9898477157360407 J0.6065989847715736
G3 X80.43147208121826 Y16.388324873096447 I0.7284263959390863 J0.8883248730964467
G3 X80.81725888324874 Y16.32233502538071 I0.3857868020304569 J1.0761421319796955
G3 X81.25634517766498 Y16.408629441624363 I0 J1.1421319796954315
G3 X81.62944162436548 Y16.65989847715736 I-0.44416243654822335 J1.0685279187817258
G3 X81.88071065989847 Y17.032994923857867 I-0.817258883248731 J0.817258883248731
G3 X81.96700507614213 Y17.472081218274113 I-1.0558375634517767 J0.4390862944162437
G3 X81.88071065989847 Y17.911167512690355 I-1.1421319796954315 J0
G3 X81.62944162436548 Y18.284263959390863 I-1.0659898477157361 J-0.44416243654822335
G3 X81.25634517766498 Y18.532994923857867 I-0.817258883248731 J-0.8197969543147209
G3 X80.81725888324874 Y18.621827411167512 I-0.4390862944162437 J-1.0583756345177666
G3 X80.50507614213197 Y18.578680203045685 I0 J-1.131979695431472
G3 X80.21573604060913 Y18.449238578680202 I0.3147208121827411 J-1.0913705583756346
G3 X79.97969543147208 Y18.253807106598984 I0.6142131979695432 J-0.9822335025380711
G3 X79.8984771573604 Y18.15736040609137 I0.8604060913705585 J-0.7969543147208122
G0 Z3
G0 X22.38756345177665 Y43.91700507614213
G1 Z-0.1 F40
G1 X24.48223350253807 Y52.753807106598984 F75
G3 X24.6751269035533 Y52.83502538071066 I-0.32741116751269034 J1.0406091370558377
G3 X24.977157360406093 Y53.0736040609137 I-0.5228426395939086 J0.9695431472081218
G3 X25.17766497461929 Y53.40862944162437 I-0.817258883248731 J0.7208121827411168
G3 X25.248730964467004 Y53.79187817258884 I-1.0076142131979695 J0.383248730964467
G3 X25.16497461928934 Y54.20812182741117 I-1.0812182741116751 J0
G3 X24.928934010152286 Y54.56091370558376 I-1.012690355329949 J-0.4213197969543147
G3 X24.57360406091371 Y54.7994923857868 I-0.7766497461928934 J-0.7766497461928934
G3 X24.15736040609137 Y54.88071065989848 I-0.416243654822335 J-1.00253807106599
G3 X23.741116751269033 Y54.7994923857868 I0 J-1.0837563451776648
G3 X23.385786802030456 Y54.56091370558376 I0.4213197969543147 J-1.012690355329949
G3 X23.149746192893403 Y54.20812182741117 I0.7741116751269035 J-0.7741116751269035
G3 X23.065989847715738 Y53.79187817258884 I1 J-0.416243654822335
G3 X23.098984771573605 Y53.525380710659896 I1.0837563451776648 J0
G3 X23.19543147208122 Y53.276649746192895 I1.050761421319797 J0.2639593908629442
G3 X23.34517766497462 Y53.06598984771574 I0.967005076142132 J0.5203045685279188
G3 X23.401015228426395 Y53.007614213197975 I0.8248730964467005 J0.7385786802030457
G1 X21.307106598984774 Y44.172588832487314
G3 X21.068527918781726 Y44.08375634517767 I0.2969543147208122 J-1.1649746192893402
G3 X20.71827411167513 Y43.81979695431472 I0.5406091370558376 J-1.0862944162436547
G3 X20.48223350253807 Y43.444162436548226 I0.883248730964467 J-0.8147208121827411
G3 X20.4010152284264 Y43.01015228426395 I1.1040609137055837 J-0.434010152284264
G3 X20.492385786802032 Y42.55329949238579 I1.1928934010152283 J0
G3 X20.753807106598984 Y42.162436548223354 I1.119289340101523 J0.46446700507614214
G3 X21.14467005076142 Y41.901015228426395 I0.8553299492385786 J0.8553299492385786
G3 X21.601522842639596 Y41.807106598984774 I0.4593908629441624 J1.098984771573604
G3 X21.794416243654823 Y41.8248730964467 I0 J1.16751269035533
G3 X21.97969543147208 Y41.870558375634516 I-0.19289340101522845 J1.1624365482233503
G3 X22.1497461928934 Y41.94416243654822 I-0.3857868020304569 J1.1370558375634519
G1 X25.236040609137053 Y39.75888324873096
G1 X25.236040609137053 Y35.45685279187817
G1 X20.703045685279186 Y34.5507614213198
G3 X20.54060913705584 Y34.51269035532995 I0.043147208121827416 J-0.5532994923857868
G3 X20.378172588832484 Y34.41370558375635 I0.20304568527918782 J-0.5152284263959391
G3 X20.261421319796952 Y34.266497461928935 I0.3654822335025381 J-0.416243654822335
G3 X20.19796954314721 Y34.09137055837563 I0.4847715736040609 J-0.2690355329949239
G3 X20.19289340101523 Y34.06091370558376 I0.5456852791878173 J-0.09644670050761422
G1 X20.19289340101523 Y34.04060913705584
G1 X19.898477157360407 Y31.81979695431472
G3 X19.6751269035533 Y31.71827411167513 I0.4035532994923858 J-1.1852791878172588
G3 X19.34263959390863 Y31.441624365482234 I0.6370558375634517 J-1.1015228426395938
G3 X19.121827411167512 Y31.060913705583758 I0.9593908629441625 J-0.8147208121827411
G3 X19.043147208121827 Y30.631979695431472 I1.16751269035533 J-0.4314720812182741
G3 X19.139593908629443 Y30.15228426395939 I1.2461928934010151 J0
G3 X19.413705583756343 Y29.743654822335024 I1.1700507614213198 J0.4873096446700508
G3 X19.82233502538071 Y29.469543147208125 I0.8959390862944162 J0.8959390862944162
G3 X20.302030456852794 Y29.373096446700508 I0.47969543147208127 J1.1522842639593909
G3 X20.78172588832487 Y29.469543147208125 I0 J1.2461928934010151
G3 X21.19035532994924 Y29.743654822335024 I-0.4873096446700508 J1.1700507614213198
G3 X21.46446700507614 Y30.15228426395939 I-0.8959390862944162 J0.8959390862944162
G3 X21.560913705583754 Y30.631979695431472 I-1.1522842639593909 J0.47969543147208127
G1 X21.560913705583754 Y30.631979695431472
G1 X21.560913705583754 Y30.631979695431472
G3 X21.507614213197968 Y30.98477157360406 I-1.2411167512690355 J0
G3 X21.357868020304565 Y31.31218274111675 I-1.1954314720812182 J-0.35786802030456855
G3 X21.126903553299492 Y31.573604060913706 I-1.0634517766497462 J-0.6954314720812182
G3 X20.99746192893401 Y31.67258883248731 I-0.8401015228426396 J-0.9619289340101522
G1 X21.243654822335024 Y33.52791878172589
G1 X25.89593908629442 Y34.45685279187818
G3 X26.09390862944162 Y34.535532994923855 I-0.10152284263959391 J0.5456852791878173
G3 X26.246192893401016 Y34.682741116751274 I-0.29949238578680204 J0.46700507614213194
G3 X26.332487309644673 Y34.878172588832484 I-0.45431472081218277 J0.3197969543147208
G3 X26.34771573604061 Y35.00253807106599 I-0.5406091370558376 J0.12690355329949238
G3 X26.345177664974617 Y35.068527918781726 I-0.5558375634517766 J0
G1 X26.345177664974617 Y40.045685279187815
G1 X26.345177664974617 Y40.0507614213198
G3 X26.34263959390863 Y40.076142131979694 I-0.5558375634517766 J0
G3 X26.34263959390863 Y40.10659898477157 I-0.5532994923857868 J-0.025380710659898477
G3 X26.30964467005076 Y40.24111675126903 I-0.5507614213197969 J-0.05583756345177665
G3 X26.246192893401016 Y40.36548223350253 I-0.5203045685279188 J-0.1903553299492386
G3 X26.154822335025383 Y40.46700507614213 I-0.45685279187817257 J-0.31218274111675126
G3 X26.060913705583758 Y40.535532994923855 I-0.3654822335025381 J-0.416243654822335
G1 X22.78172588832487 Y42.85532994923858
G1 X22.802030456852794 Y42.96954314720813
G3 X22.804568527918782 Y43.01015228426395 I-0.24619289340101522 J0.04060913705583757
G3 X22.766497461928935 Y43.31472081218274 I-1.1852791878172588 J0
G3 X22.64720812182741 Y43.5989847715736 I-1.1522842639593909 J-0.3071065989847716
G3 X22.46954314720812 Y43.83756345177665 I-1.0532994923857868 J-0.6015228426395939
G3 X22.388324873096444 Y43.91624365482233 I-0.8883248730964467 J-0.850253807106599
G0 Z3
G0 X67.56015228426396 Y44.031979695431474
G1 Z-0.1 F40
G1 X59.454314720812185 Y39.99238578680203 F75
G3 X59.423857868020306 Y40.01269035532995 I-0.6979695431472082 J-0.9873096446700508
G3 X59.23350253807107 Y40.11421319796955 I-0.6624365482233502 J-0.9974619289340102
G3 X59.02030456852792 Y40.18274111675127 I-0.46954314720812185 J-1.0964467005076142
G3 X58.984771573604064 Y40.190355329949234 I-0.25888324873096447 J-1.1725888324873095
G1 X58.109137055837564 Y43.213197969543145
G3 X58.16751269035534 Y43.2741116751269 I-0.8299492385786802 J0.8223350253807106
G3 X58.31218274111676 Y43.48984771573604 I-0.8705583756345179 J0.748730964467005
G3 X58.40862944162437 Y43.74365482233503 I-0.9974619289340102 J0.5228426395939086
G3 X58.441624365482234 Y44.01015228426396 I-1.0888324873096447 J0.2690355329949239
G3 X58.3756345177665 Y44.390862944162436 I-1.1269035532994924 J0
G3 X58.18527918781726 Y44.72842639593908 I-1.0736040609137056 J-0.383248730964467
G3 X57.898477157360404 Y44.97969543147208 I-0.8934010152284264 J-0.7284263959390863
G3 X57.72081218274111 Y45.068527918781726 I-0.5964467005076142 J-0.967005076142132
G1 X57.444162436548226 Y47.10406091370558
G3 X57.53807106598985 Y47.18527918781726 I-0.7005076142131981 J0.9340101522842639
G3 X57.73096446700507 Y47.41624365482234 I-0.7842639593908629 J0.8426395939086294
G3 X57.85786802030457 Y47.703045685279186 I-0.9543147208121827 J0.5964467005076142
G3 X57.901015228426395 Y48.01015228426395 I-1.0710659898477157 J0.30964467005076146
G3 X57.81472081218274 Y48.444162436548226 I-1.1269035532994924 J0
G3 X57.56598984771574 Y48.81472081218274 I-1.0609137055837563 J-0.4416243654822335
G3 X57.19543147208122 Y49.06345177664974 I-0.8121827411167513 J-0.8121827411167513
G3 X56.76142131979695 Y49.149746192893396 I-0.434010152284264 J-1.0431472081218274
G3 X56.32741116751269 Y49.06345177664974 I0 J-1.1269035532994924
G3 X55.95685279187818 Y48.81472081218274 I0.4416243654822335 J-1.0583756345177666
G3 X55.71065989847716 Y48.444162436548226 I0.8121827411167513 J-0.8121827411167513
G3 X55.6243654822335 Y48.01015228426395 I1.0431472081218274 J-0.434010152284264
G3 X55.69035532994924 Y47.63197969543147 I1.1269035532994924 J0
G3 X55.880710659898476 Y47.29441624365482 I1.0736040609137056 J0.383248730964467
G3 X56.16497461928934 Y47.04314720812182 I0.8934010152284264 J0.7284263959390863
G3 X56.345177664974614 Y46.954314720812185 I0.5964467005076142 J0.967005076142132
G1 X56.619289340101524 Y44.91624365482234
G3 X56.5253807106599 Y44.837563451776646 I0.7005076142131981 J-0.9340101522842639
G3 X56.33248730964467 Y44.60406091370558 I0.7842639593908629 J-0.8426395939086294
G3 X56.20558375634518 Y44.319796954314725 I0.9543147208121827 J-0.5964467005076142
G3 X56.16243654822335 Y44.01015228426396 I1.0736040609137056 J-0.30964467005076146
G3 X56.24365482233503 Y43.59390862944163 I1.1218274111675126 J0
G3 X56.47208121827411 Y43.236040609137056 I1.0583756345177666 J0.42385786802030456
G3 X56.81472081218274 Y42.98477157360406 I0.8375634517766497 J0.7893401015228427
G3 X57.045685279187815 Y42.90609137055838 I0.4873096446700508 J1.0253807106598984
G1 X57.9238578680203 Y39.86548223350254
G1 X57.90609137055838 Y39.8502538071066
G3 X57.77664974619289 Y39.692893401015226 I0.8604060913705585 J-0.8426395939086294
G3 X57.675126903553306 Y39.51269035532995 I0.9923857868020304 J-0.6852791878172588
G3 X57.662436548223354 Y39.48730964467005 I1.1015228426395938 J-0.5101522842639594
G1 X54.824873096446694 Y39.22081218274111
G1 X54.824873096446694 Y39.50253807106599
G3 X54.57360406091371 Y39.753807106598984 I-0.2512690355329949 J0
G1 X54.32233502538071 Y39.753807106598984
G1 X52.67005076142132 Y39.753807106598984
G3 X52.42131979695431 Y39.50253807106599 I0 J-0.24873096446700507
G1 X52.42131979695431 Y37.598984771573605
G3 X52.67005076142132 Y37.34771573604061 I0.2512690355329949 J0
G1 X54.57360406091371 Y37.34771573604061
G3 X54.824873096446694 Y37.598984771573605 I0 J0.24873096446700507
G1 X54.824873096446694 Y38.09644670050761
G1 X57.76395939086294 Y38.34771573604061
G3 X57.85786802030457 Y38.223350253807105 I1.015228426395939 J0.6751269035532994
